lut/ame1.cube
TITLE
LUT_3D_SIZE 9
DOMAIN_MIN 0.0 0.0 0.0
DOMAIN_MAX 1.0 1.0 1.0
0.099265 0.014932 0.000000
0.202579 0.006942 0.000000
0.354781 0.000000 0.000000
0.449272 0.000000 0.000000
0.619390 0.000000 0.000000
0.718091 0.000000 0.000000
0.833580 0.000000 0.000000
0.917548 0.000000 0.000000
0.987068 0.000000 0.000000
0.148135 0.110616 0.000000
0.220042 0.138645 0.000000
0.332447 0.141907 0.000000
0.463419 0.043435 0.000000
0.590008 0.000374 0.000000
0.740674 0.000000 0.000000
0.860438 0.000000 0.000000
0.973069 0.000000 0.000000
0.996084 0.000000 0.000000
0.187844 0.152947 0.000000
0.267340 0.206381 0.000000
0.344777 0.253343 0.000000
0.430993 0.258053 0.000000
0.543748 0.240626 0.000000
0.734089 0.100692 0.000000
0.889677 0.025193 0.000000
0.986745 0.019960 0.000000
1.000000 0.000000 0.000000
0.250529 0.208248 0.000000
0.325962 0.249838 0.000000
0.396108 0.291199 0.000000
0.463760 0.324074 0.000000
0.544609 0.339691 0.000000
0.687992 0.305174 0.000000
0.843810 0.226996 0.000000
0.965033 0.107294 0.000000
1.000000 0.011686 0.000000
0.290142 0.231358 0.000000
0.376154 0.295816 0.000000
0.421895 0.325148 0.000000
0.503090 0.370858 0.000000
0.559256 0.412063 0.000000
0.671426 0.387912 0.000000
0.850772 0.282523 0.000000
0.956715 0.240233 0.000000
1.000000 0.223370 0.000000
0.382730 0.372557 0.028581
0.396443 0.386262 0.019583
0.426426 0.380356 0.018759
0.566210 0.422697 0.000000
0.593594 0.446389 0.000000
0.686051 0.451409 0.000000
0.820490 0.526054 0.000000
0.929405 0.450670 0.000000
1.000000 0.290639 0.000000
0.396453 0.386267 0.019592
0.398429 0.388234 0.025880
0.474897 0.447843 0.098425
0.583666 0.446378 0.000000
0.620218 0.465342 0.000000
0.737089 0.506698 0.003954
0.854152 0.576901 0.000000
0.874674 0.593516 0.000000
0.915797 0.556215 0.000000
0.403153 0.397290 0.041234
0.459597 0.506262 0.213317
0.471008 0.501562 0.188954
0.608552 0.472861 0.001168
0.675993 0.519153 0.020729
0.841572 0.575717 0.007470
0.874600 0.593832 0.000774
0.888616 0.605904 0.009272
0.903429 0.614088 0.044425
0.460782 0.519612 0.246269
0.465875 0.523141 0.244309
0.491391 0.552945 0.264303
0.621230 0.544591 0.128672
0.700127 0.562786 0.086192
0.861989 0.592609 0.008244
0.885122 0.603570 0.006993
0.899911 0.615638 0.036607
0.916460 0.627059 0.085413
0.083554 0.003809 0.144304
0.205935 0.003717 0.117659
0.372637 0.000000 0.000000
0.465306 0.000000 0.002869
0.608808 0.000000 0.000000
0.712402 0.000000 0.000000
0.835594 0.000000 0.000000
0.934808 0.000000 0.000000
0.997661 0.000000 0.000000
0.136015 0.103889 0.109882
0.219464 0.164076 0.100730
0.343827 0.127563 0.038015
0.482148 0.065264 0.000000
0.602753 0.007082 0.000000
0.732204 0.000000 0.000000
0.864333 0.000000 0.000000
0.980978 0.000000 0.000000
1.000000 0.000000 0.000000
0.197633 0.178040 0.049092
0.260040 0.222790 0.071045
0.348027 0.264643 0.000723
0.467768 0.260107 0.000000
0.579134 0.261517 0.000000
0.722118 0.167396 0.000000
0.867883 0.166706 0.000000
0.982340 0.074142 0.000000
1.000000 0.023359 0.000000
0.260796 0.224327 0.076910
0.358408 0.331329 0.036468
0.379567 0.363982 0.017045
0.478278 0.363194 0.000000
0.567445 0.395584 0.000000
0.681909 0.368775 0.000000
0.865490 0.287509 0.000000
0.986066 0.207448 0.000000
1.000000 0.138462 0.000000
0.373302 0.368235 0.067217
0.381936 0.374510 0.037551
0.401177 0.389413 0.028239
0.538846 0.413793 0.000000
0.595916 0.449977 0.000000
0.717514 0.445856 0.000000
0.842382 0.385221 0.000000
0.944354 0.395252 0.000000
1.000000 0.284062 0.000000
0.370561 0.376477 0.105216
0.398426 0.388233 0.025877
0.449397 0.440425 0.107509
0.538669 0.465171 0.059612
0.618327 0.467339 0.000000
0.729776 0.489120 0.003972
0.839254 0.563157 0.000000
0.918110 0.518500 0.000000
0.955356 0.474662 0.005775
0.448615 0.504291 0.236455
0.449808 0.506659 0.236046
0.461952 0.514524 0.227857
0.528725 0.533272 0.193003
0.663217 0.534096 0.055032
0.791913 0.562041 0.026126
0.871918 0.591168 0.000000
0.890899 0.607444 0.010709
0.912087 0.615290 0.061773
0.456077 0.518432 0.250584
0.464699 0.522749 0.247049
0.491383 0.552941 0.264297
0.568484 0.571837 0.236323
0.682220 0.569502 0.114796
0.828226 0.594904 0.053508
0.885137 0.603592 0.006970
0.908119 0.622677 0.061612
0.925937 0.632200 0.109125
0.463522 0.523925 0.249809
0.482759 0.547067 0.263132
0.500788 0.558827 0.272917
0.635598 0.592135 0.225818
0.695277 0.603116 0.194425
0.845905 0.609802 0.069270
0.905020 0.622706 0.053908
0.925122 0.635712 0.118022
0.943518 0.651744 0.167330
0.098906 0.003824 0.156219
0.193375 0.024815 0.140394
0.319233 0.087887 0.064977
0.480044 0.012751 0.007849
0.612002 0.000000 0.001153
0.717737 0.000000 0.001551
0.813701 0.000000 0.000000
0.956080 0.000000 0.000000
0.996461 0.000000 0.000000
0.160750 0.102704 0.131383
0.263469 0.186125 0.146273
0.334233 0.225353 0.156770
0.488319 0.141025 0.059510
0.610390 0.074505 0.051693
0.743778 0.026513 0.016423
0.840476 0.001881 0.004618
0.933480 0.053098 0.000000
1.000000 0.031333 0.000000
0.260393 0.213720 0.125532
0.306943 0.259683 0.153170
0.360766 0.285307 0.192257
0.466811 0.283997 0.169181
0.623882 0.247980 0.070698
0.744508 0.193931 0.092231
0.865952 0.163995 0.045521
0.975628 0.142466 0.000348
1.000000 0.086211 0.000000
0.306237 0.267453 0.147789
0.362281 0.374859 0.181149
0.364517 0.378096 0.181274
0.466667 0.419608 0.121569
0.601600 0.391589 0.089457
0.722547 0.372401 0.032216
0.864663 0.337923 0.003011
0.987845 0.305931 0.000000
1.000000 0.261076 0.000000
0.361946 0.375312 0.181184
0.364666 0.378057 0.181204
0.429624 0.458667 0.224706
0.479942 0.478369 0.149345
0.617643 0.484421 0.032541
0.744500 0.477411 0.000000
0.823035 0.508870 0.014281
0.944968 0.466879 0.000000
1.000000 0.303115 0.009618
0.374450 0.393277 0.192123
0.450154 0.508194 0.244328
0.458823 0.517663 0.244310
0.491437 0.545506 0.252908
0.638904 0.565905 0.168132
0.734560 0.563648 0.090983
0.858335 0.579919 0.000000
0.901168 0.593872 0.028824
0.986672 0.493357 0.112108
0.451358 0.511761 0.250215
0.456858 0.521185 0.254132
0.480791 0.543144 0.259606
0.507833 0.561167 0.270939
0.635486 0.592055 0.225659
0.775872 0.601879 0.157716
0.888593 0.605930 0.009218
0.921617 0.631392 0.100467
0.939166 0.638815 0.145654
0.456856 0.521972 0.256895
0.471352 0.537250 0.261588
0.500779 0.558831 0.272922
0.559014 0.573781 0.249711
0.650637 0.605174 0.249462
0.798007 0.630190 0.215260
0.916436 0.631402 0.088569
0.935709 0.647036 0.161734
0.965434 0.683449 0.235861
0.470171 0.537245 0.265120
0.493734 0.555699 0.278018
0.508622 0.568233 0.296448
0.628354 0.601614 0.266540
0.746314 0.637577 0.272513
0.830606 0.674111 0.289385
0.946652 0.697264 0.251397
0.959613 0.715702 0.285100
0.969022 0.723525 0.303118
0.125113 0.013229 0.156548
0.214686 0.076559 0.140539
0.328634 0.211881 0.160148
0.550454 0.062780 0.052937
0.624669 0.046724 0.045226
0.755732 0.017663 0.015308
0.820486 0.000771 0.004352
0.917283 0.056921 0.001957
1.000000 0.027068 0.000000
0.227080 0.165898 0.135693
0.311012 0.232586 0.177832
0.366398 0.268830 0.198583
0.441697 0.284591 0.199862
0.646493 0.133382 0.071448
0.740953 0.148258 0.080349
0.864594 0.093965 0.038181
0.945493 0.137834 0.028712
1.000000 0.115304 0.002726
0.300004 0.241582 0.164326
0.344758 0.288148 0.190463
0.403563 0.321032 0.244667
0.460520 0.353232 0.274412
0.605560 0.350994 0.210623
0.729810 0.290283 0.143333
0.889851 0.229652 0.136176
0.985885 0.241957 0.097630
1.000000 0.269337 0.083947
0.365060 0.374524 0.185851
0.370988 0.378038 0.203554
0.413658 0.416025 0.274558
0.471166 0.424634 0.306023
0.602304 0.416166 0.273678
0.734695 0.389847 0.248938
0.874332 0.367368 0.203586
0.995936 0.335560 0.194725
1.000000 0.327232 0.161330
0.377955 0.389365 0.210851
0.423523 0.442334 0.266283
0.449358 0.510553 0.263050
0.466362 0.527930 0.279022
0.600586 0.538134 0.255842
0.726003 0.515199 0.230723
0.858824 0.503485 0.200016
0.989083 0.485446 0.161251
1.000000 0.422472 0.228776
0.449395 0.510603 0.263123
0.450596 0.513027 0.259352
0.472780 0.538357 0.301834
0.500748 0.559252 0.281495
0.633996 0.590592 0.233613
0.747394 0.598794 0.222841
0.854277 0.610792 0.178137
0.932663 0.634025 0.134297
1.000000 0.522989 0.271965
0.459182 0.520029 0.262438
0.474826 0.539577 0.305437
0.495289 0.557647 0.310985
0.540747 0.589027 0.352599
0.667902 0.613140 0.269915
0.788752 0.648646 0.274825
0.866194 0.662357 0.246908
0.947493 0.669019 0.206993
0.976568 0.681969 0.273869
0.475249 0.541154 0.308590
0.489792 0.552152 0.316088
0.535280 0.586294 0.357277
0.580031 0.620821 0.410640
0.659664 0.641875 0.388784
0.822717 0.684321 0.319256
0.929080 0.716924 0.302944
0.965890 0.725500 0.302733
0.982740 0.733322 0.327832
0.488999 0.551362 0.318430
0.509471 0.571031 0.329907
0.573678 0.617232 0.403502
0.610150 0.638810 0.436844
0.734986 0.671008 0.387458
0.833929 0.700589 0.345549
0.930048 0.737643 0.352581
0.994916 0.761971 0.381601
1.000000 0.781956 0.412135
0.134904 0.019873 0.154972
0.298541 0.219706 0.172682
0.359534 0.259586 0.199692
0.431022 0.287326 0.210063
0.637045 0.074130 0.062421
0.768068 0.065322 0.038859
0.855588 0.066344 0.034394
0.932136 0.141158 0.044704
0.985863 0.196030 0.053309
0.300826 0.225524 0.172245
0.356013 0.274854 0.215761
0.398067 0.311161 0.243729
0.458839 0.353344 0.277274
0.582793 0.358044 0.230577
0.774530 0.207410 0.111355
0.892116 0.202704 0.123521
0.955259 0.222259 0.107833
1.000000 0.261980 0.118077
0.354489 0.291305 0.206749
0.399993 0.359217 0.256853
0.431584 0.367590 0.282497
0.493766 0.385093 0.299998
0.553710 0.433741 0.347898
0.702745 0.395670 0.267474
0.904158 0.340279 0.204549
0.996454 0.332541 0.205860
1.000000 0.339948 0.192126
0.397694 0.397318 0.252646
0.418795 0.422707 0.280787
0.474889 0.483673 0.471118
0.475251 0.486534 0.482666
0.627416 0.470214 0.399641
0.714668 0.485299 0.421985
0.887657 0.455570 0.342676
0.990916 0.406052 0.283576
1.000000 0.395962 0.232798
0.442754 0.452953 0.363569
0.474897 0.487473 0.481965
0.475273 0.490157 0.481974
0.486898 0.507006 0.488935
0.603146 0.538581 0.458323
0.742136 0.517439 0.425034
0.863289 0.510241 0.393477
0.992021 0.489318 0.351092
1.000000 0.484274 0.308009
0.467049 0.505889 0.396837
0.475288 0.511390 0.416399
0.492921 0.547887 0.363366
0.540626 0.588642 0.383369
0.602249 0.633517 0.431369
0.734099 0.643226 0.410832
0.857466 0.640654 0.355097
0.985025 0.631421 0.326660
1.000000 0.577479 0.349532
0.476459 0.540792 0.314905
0.487078 0.549822 0.333364
0.528677 0.582044 0.358105
0.591829 0.630251 0.441056
0.647071 0.655699 0.466609
0.786309 0.684356 0.401561
0.879040 0.715554 0.356543
0.973653 0.729817 0.319633
1.000000 0.706776 0.409251
0.487828 0.550193 0.325507
0.517669 0.574940 0.352580
0.581186 0.623931 0.425083
0.613646 0.640758 0.443084
0.674107 0.682355 0.522347
0.820552 0.712584 0.430632
0.920934 0.748293 0.398142
1.000000 0.777579 0.405830
1.000000 0.785122 0.420775
0.503966 0.564751 0.343962
0.577988 0.622319 0.428926
0.603492 0.635681 0.438800
0.656908 0.672195 0.504780
0.677269 0.685108 0.530598
0.878114 0.748665 0.455145
0.934873 0.778442 0.474024
1.000000 0.827565 0.487138
1.000000 0.821211 0.489058
0.249999 0.152258 0.169457
0.357178 0.274840 0.217268
0.399540 0.314879 0.247092
0.454507 0.350595 0.277657
0.564437 0.308775 0.236679
0.768178 0.174397 0.101538
0.892933 0.199119 0.119175
0.938406 0.187819 0.087916
1.000000 0.269396 0.127835
0.361892 0.281124 0.222754
0.401885 0.322659 0.254480
0.443110 0.380280 0.320982
0.476852 0.487425 0.483910
0.588467 0.458827 0.397314
0.684769 0.448205 0.373274
0.900410 0.279584 0.183074
0.991386 0.346320 0.222820
1.000000 0.330996 0.190598
0.425851 0.408605 0.331693
0.474897 0.487436 0.481974
0.476044 0.487807 0.483890
0.482299 0.488596 0.487416
0.529901 0.504629 0.508507
0.716530 0.494874 0.458837
0.884202 0.463380 0.360141
0.980139 0.418662 0.302580
1.000000 0.392565 0.243551
0.474898 0.487454 0.481972
0.474897 0.487454 0.481981
0.477192 0.488986 0.489651
0.498387 0.518387 0.558859
0.538803 0.529003 0.554808
0.716916 0.506919 0.482554
0.849560 0.517857 0.434764
0.984408 0.470967 0.349093
1.000000 0.483076 0.323128
0.474899 0.487468 0.481973
0.479185 0.497598 0.505358
0.499074 0.519613 0.558101
0.500662 0.521958 0.557991
0.596642 0.563876 0.586888
0.738920 0.563910 0.592567
0.840326 0.554203 0.477020
0.953031 0.572519 0.418426
1.000000 0.525998 0.342488
0.480382 0.501549 0.506264
0.494892 0.517300 0.544098
0.501496 0.523527 0.556518
0.558404 0.567418 0.556911
0.627727 0.616697 0.583785
0.733333 0.654585 0.583996
0.857208 0.640946 0.554602
0.963813 0.668238 0.476628
1.000000 0.671553 0.420557
0.496844 0.521180 0.540076
0.502316 0.525480 0.554144
0.553330 0.578437 0.518037
0.635639 0.648996 0.503890
0.677187 0.685092 0.530566
0.765077 0.718823 0.580392
0.877180 0.752223 0.515359
0.985157 0.765549 0.487117
1.000000 0.743619 0.470330
0.502722 0.528220 0.551395
0.555715 0.584381 0.508546
0.599530 0.634085 0.453749
0.673697 0.683529 0.528618
0.677319 0.685132 0.530628
0.811430 0.765169 0.633343
0.923485 0.788242 0.543942
1.000000 0.833181 0.501607
1.000000 0.815143 0.507099
0.564312 0.606284 0.451783
0.592128 0.630581 0.445137
0.667459 0.678453 0.525107
0.677251 0.685103 0.530590
0.804727 0.760808 0.635286
0.832542 0.785883 0.649767
0.964568 0.828968 0.570355
1.000000 0.848445 0.537109
1.000000 0.848994 0.574474
0.350175 0.270570 0.214536
0.401875 0.322646 0.254471
0.472557 0.474553 0.463611
0.482726 0.490182 0.493314
0.507504 0.498428 0.507457
0.704407 0.486700 0.446341
0.894938 0.269733 0.184247
0.982383 0.351041 0.233407
1.000000 0.329820 0.195296
0.466685 0.470239 0.460448
0.476060 0.487827 0.483907
0.477246 0.489008 0.489789
0.497653 0.516070 0.554131
0.518003 0.515277 0.547062
0.702442 0.510516 0.502958
0.781188 0.494741 0.458866
0.971753 0.423494 0.311763
1.000000 0.375352 0.242061
0.474899 0.487448 0.481974
0.477239 0.489014 0.489771
0.489050 0.509839 0.538141
0.498824 0.518813 0.559246
0.565339 0.532521 0.574862
0.685083 0.551385 0.597293
0.753331 0.567011 0.603068
0.968210 0.465821 0.354102
0.998447 0.473333 0.338403
0.479195 0.497611 0.505400
0.489414 0.510227 0.538501
0.498782 0.518836 0.559265
0.498844 0.518857 0.559302
0.644371 0.560744 0.614145
0.696097 0.577641 0.652933
0.754878 0.583140 0.637849
0.915718 0.610913 0.522600
1.000000 0.502873 0.343675
0.486681 0.507885 0.531469
0.499544 0.520004 0.558477
0.500713 0.521944 0.557752
0.546372 0.548474 0.581113
0.663303 0.587480 0.654885
0.696453 0.591363 0.668291
0.767843 0.618789 0.675257
0.897495 0.659771 0.617674
1.000000 0.588176 0.397809
0.500729 0.521952 0.557676
0.500736 0.521962 0.557691
0.514899 0.532941 0.567850
0.599144 0.590194 0.596448
0.690139 0.643071 0.694569
0.715588 0.664425 0.733879
0.849080 0.688189 0.699183
0.932171 0.708540 0.692828
1.000000 0.736088 0.533188
0.500752 0.521967 0.557666
0.510915 0.530167 0.564688
0.578093 0.578876 0.581648
0.680770 0.643910 0.659219
0.720428 0.679680 0.708916
0.788530 0.741414 0.679345
0.858824 0.780392 0.709804
0.986720 0.771132 0.681352
1.000000 0.778009 0.578858
0.507411 0.530174 0.556481
0.564731 0.571787 0.570214
0.642351 0.647464 0.554892
0.712979 0.683967 0.662739
0.776066 0.738028 0.639604
0.832160 0.785493 0.676469
0.889892 0.816169 0.696909
0.996933 0.863744 0.654084
1.000000 0.844402 0.591102
0.559208 0.582349 0.529399
0.645919 0.659648 0.534108
0.682335 0.687056 0.544690
0.763900 0.728217 0.644711
0.832158 0.785491 0.676470
0.844309 0.794902 0.692559
0.973640 0.877998 0.732127
1.000000 0.908758 0.670241
1.000000 0.886878 0.650669
0.477234 0.489001 0.489749
0.477251 0.489016 0.489799
0.484325 0.502746 0.521585
0.499603 0.518424 0.559225
0.509001 0.518816 0.557655
0.671357 0.556063 0.612129
0.757259 0.550970 0.583502
0.971694 0.423540 0.311825
0.996872 0.390209 0.262783
0.478418 0.491750 0.496814
0.484328 0.502763 0.521616
0.498812 0.518817 0.559234
0.498829 0.518820 0.559239
0.586685 0.539214 0.588241
0.684719 0.571773 0.645508
0.740819 0.572955 0.629855
0.892708 0.494791 0.442889
0.997259 0.463929 0.338024
0.486670 0.507070 0.530614
0.495700 0.515728 0.553431
0.498813 0.518830 0.559250
0.498838 0.518836 0.559259
0.674918 0.570999 0.644748
0.689795 0.579220 0.656893
0.741653 0.584697 0.652181
0.806071 0.611269 0.634211
1.000000 0.492996 0.346731
0.493354 0.513783 0.546807
0.498797 0.518840 0.559253
0.498817 0.518851 0.559272
0.532888 0.539578 0.576856
0.681951 0.585862 0.665104
0.694478 0.590168 0.668642
0.756468 0.598393 0.663904
0.892930 0.690190 0.701570
0.926688 0.704714 0.696065
0.499569 0.520004 0.558466
0.500738 0.521949 0.557709
0.513280 0.530558 0.568232
0.631447 0.590973 0.629940
0.696087 0.638095 0.714569
0.718375 0.657248 0.735300
0.777680 0.680412 0.758844
0.903470 0.711364 0.741258
0.935695 0.716439 0.705808
0.500748 0.521958 0.557684
0.510111 0.528977 0.565476
0.571375 0.571762 0.587464
0.698786 0.648197 0.719580
0.710203 0.659218 0.734152
0.775703 0.683550 0.759225
0.874141 0.714473 0.768192
0.934160 0.752936 0.773333
0.974484 0.783870 0.753774
0.500764 0.521969 0.557674
0.545122 0.553354 0.577663
0.670564 0.633709 0.681941
0.712962 0.664341 0.732154
0.720019 0.672970 0.733721
0.796628 0.714792 0.756710
0.895421 0.782246 0.775998
0.963924 0.816119 0.821251
1.000000 0.852150 0.811930
0.522334 0.539596 0.570580
0.595279 0.589030 0.599579
0.716875 0.670602 0.731361
0.722348 0.675299 0.730203
0.826667 0.769769 0.724766
0.856826 0.793322 0.748718
0.947453 0.852173 0.830202
0.987533 0.900902 0.823219
1.000000 0.891408 0.722839
0.577672 0.580803 0.576517
0.711390 0.672174 0.691388
0.722358 0.679619 0.718020
0.826663 0.772142 0.721592
0.847452 0.789817 0.736511
0.970238 0.897370 0.814915
0.988477 0.925448 0.824604
1.000000 0.939351 0.840385
1.000000 0.918242 0.748918
0.484316 0.502746 0.521572
0.495692 0.515698 0.553366
0.498820 0.518820 0.559231
0.498829 0.518822 0.559234
0.674894 0.570970 0.644691
0.689015 0.578432 0.656090
0.728278 0.581565 0.654503
0.749424 0.576110 0.634207
0.997253 0.459977 0.334495
0.490608 0.511403 0.539695
0.498811 0.518825 0.559236
0.498822 0.518827 0.559241
0.505066 0.521945 0.564694
0.683530 0.580784 0.661189
0.685492 0.583525 0.664323
0.734184 0.585872 0.658809
0.755671 0.594459 0.659197
0.962442 0.567263 0.487130
0.498804 0.518830 0.559237
0.498812 0.518834 0.559245
0.498825 0.518838 0.559253
0.578335 0.553299 0.607798
0.685877 0.584697 0.665890
0.689014 0.585486 0.666681
0.758034 0.621895 0.696008
0.871012 0.704327 0.749838
0.916077 0.706278 0.715308
0.499581 0.520002 0.558466
0.499588 0.520006 0.558478
0.513265 0.530539 0.568218
0.672095 0.590569 0.664282
0.699601 0.641146 0.719989
0.718432 0.657254 0.735302
0.777662 0.680402 0.758833
0.887054 0.716443 0.767436
0.923928 0.723932 0.736880
0.500751 0.521952 0.557691
0.510108 0.528964 0.565479
0.562796 0.554938 0.595721
0.698828 0.647446 0.721203
0.709018 0.655303 0.732966
0.774132 0.679225 0.757656
0.843665 0.702671 0.765876
0.908591 0.736816 0.779589
0.949374 0.769391 0.785924
0.500762 0.521962 0.557685
0.514931 0.532956 0.567868
0.700382 0.649007 0.721573
0.710194 0.659211 0.734133
0.717252 0.668225 0.734152
0.778495 0.686311 0.760823
0.895315 0.733762 0.775723
0.960360 0.810091 0.837952
0.997256 0.855670 0.878804
0.514881 0.532930 0.567842
0.674112 0.634506 0.689416
0.712942 0.664313 0.732165
0.719216 0.671374 0.732955
0.756144 0.683558 0.751399
0.845081 0.775325 0.756090
0.958863 0.835699 0.854974
0.991363 0.863500 0.909433
1.000000 0.886645 0.924288
0.562020 0.567105 0.581599
0.712952 0.664328 0.732153
0.720004 0.672948 0.733718
0.720013 0.672960 0.733720
0.848189 0.782351 0.752144
0.950202 0.854902 0.841227
0.982717 0.877287 0.901182
0.998418 0.896062 0.934514
1.000000 0.900372 0.929818
0.714128 0.667070 0.730193
0.719615 0.673341 0.731761
0.730547 0.683103 0.733324
0.840789 0.781959 0.736144
0.927715 0.846978 0.818329
0.981957 0.905902 0.864649
0.999227 0.930647 0.913708
1.000000 0.938491 0.923850
1.000000 0.956278 0.909719
