lut/ame1.cube
TITLE
LUT_3D_SIZE 5
DOMAIN_MIN 0.0 0.0 0.0
DOMAIN_MAX 1.0 1.0 1.0
0.099265 0.014932 0.000000
0.354781 0.000000 0.000000
0.619390 0.000000 0.000000
0.833580 0.000000 0.000000
0.987068 0.000000 0.000000
0.187844 0.152947 0.000000
0.344777 0.253343 0.000000
0.543748 0.240626 0.000000
0.889677 0.025193 0.000000
1.000000 0.000000 0.000000
0.290142 0.231358 0.000000
0.421895 0.325148 0.000000
0.559256 0.412063 0.000000
0.850772 0.282523 0.000000
1.000000 0.223370 0.000000
0.396453 0.386267 0.019592
0.474897 0.447843 0.098425
0.620218 0.465342 0.000000
0.854152 0.576901 0.000000
0.915797 0.556215 0.000000
0.460782 0.519612 0.246269
0.491391 0.552945 0.264303
0.700127 0.562786 0.086192
0.885122 0.603570 0.006993
0.916460 0.627059 0.085413
0.098906 0.003824 0.156219
0.319233 0.087887 0.064977
0.612002 0.000000 0.001153
0.813701 0.000000 0.000000
0.996461 0.000000 0.000000
0.260393 0.213720 0.125532
0.360766 0.285307 0.192257
0.623882 0.247980 0.070698
0.865952 0.163995 0.045521
1.000000 0.086211 0.000000
0.361946 0.375312 0.181184
0.429624 0.458667 0.224706
0.617643 0.484421 0.032541
0.823035 0.508870 0.014281
1.000000 0.303115 0.009618
0.451358 0.511761 0.250215
0.480791 0.543144 0.259606
0.635486 0.592055 0.225659
0.888593 0.605930 0.009218
0.939166 0.638815 0.145654
0.470171 0.537245 0.265120
0.508622 0.568233 0.296448
0.746314 0.637577 0.272513
0.946652 0.697264 0.251397
0.969022 0.723525 0.303118
0.134904 0.019873 0.154972
0.359534 0.259586 0.199692
0.637045 0.074130 0.062421
0.855588 0.066344 0.034394
0.985863 0.196030 0.053309
0.354489 0.291305 0.206749
0.431584 0.367590 0.282497
0.553710 0.433741 0.347898
0.904158 0.340279 0.204549
1.000000 0.339948 0.192126
0.442754 0.452953 0.363569
0.475273 0.490157 0.481974
0.603146 0.538581 0.458323
0.863289 0.510241 0.393477
1.000000 0.484274 0.308009
0.476459 0.540792 0.314905
0.528677 0.582044 0.358105
0.647071 0.655699 0.466609
0.879040 0.715554 0.356543
1.000000 0.706776 0.409251
0.503966 0.564751 0.343962
0.603492 0.635681 0.438800
0.677269 0.685108 0.530598
0.934873 0.778442 0.474024
1.000000 0.821211 0.489058
0.350175 0.270570 0.214536
0.472557 0.474553 0.463611
0.507504 0.498428 0.507457
0.894938 0.269733 0.184247
1.000000 0.329820 0.195296
0.474899 0.487448 0.481974
0.489050 0.509839 0.538141
0.565339 0.532521 0.574862
0.753331 0.567011 0.603068
0.998447 0.473333 0.338403
0.486681 0.507885 0.531469
0.500713 0.521944 0.557752
0.663303 0.587480 0.654885
0.767843 0.618789 0.675257
1.000000 0.588176 0.397809
0.500752 0.521967 0.557666
0.578093 0.578876 0.581648
0.720428 0.679680 0.708916
0.858824 0.780392 0.709804
1.000000 0.778009 0.578858
0.559208 0.582349 0.529399
0.682335 0.687056 0.544690
0.832158 0.785491 0.676470
0.973640 0.877998 0.732127
1.000000 0.886878 0.650669
0.484316 0.502746 0.521572
0.498820 0.518820 0.559231
0.674894 0.570970 0.644691
0.728278 0.581565 0.654503
0.997253 0.459977 0.334495
0.498804 0.518830 0.559237
0.498825 0.518838 0.559253
0.685877 0.584697 0.665890
0.758034 0.621895 0.696008
0.916077 0.706278 0.715308
0.500751 0.521952 0.557691
0.562796 0.554938 0.595721
0.709018 0.655303 0.732966
0.843665 0.702671 0.765876
0.949374 0.769391 0.785924
0.514881 0.532930 0.567842
0.712942 0.664313 0.732165
0.756144 0.683558 0.751399
0.958863 0.835699 0.854974
1.000000 0.886645 0.924288
0.714128 0.667070 0.730193
0.730547 0.683103 0.733324
0.927715 0.846978 0.818329
0.999227 0.930647 0.913708
1.000000 0.956278 0.909719
