lut/ame1.cube
TITLE
LUT_3D_SIZE 33
DOMAIN_MIN 0.0 0.0 0.0
DOMAIN_MAX 1.0 1.0 1.0
0.099265 0.014932 0.000000
0.137255 0.000000 0.000000
0.162390 0.000000 0.000000
0.180500 0.000000 0.000000
0.202579 0.006942 0.000000
0.226508 0.012505 0.000000
0.263724 0.024823 0.000000
0.334711 0.005285 0.000000
0.354781 0.000000 0.000000
0.367192 0.000000 0.000000
0.408601 0.000000 0.000000
0.436063 0.000000 0.000000
0.449272 0.000000 0.000000
0.479676 0.000000 0.000000
0.513938 0.000000 0.000000
0.560459 0.000000 0.000000
0.619390 0.000000 0.000000
0.687867 0.000000 0.000000
0.690538 0.000000 0.000000
0.702518 0.000000 0.000000
0.718091 0.000000 0.000000
0.744725 0.000000 0.000000
0.778072 0.000000 0.000000
0.803889 0.000000 0.000000
0.833580 0.000000 0.000000
0.884651 0.000000 0.000000
0.913890 0.000000 0.000000
0.915495 0.000000 0.000000
0.917548 0.000000 0.000000
0.920781 0.000000 0.000000
0.948607 0.000000 0.000000
0.983543 0.000000 0.000000
0.987068 0.000000 0.000000
0.096639 0.053784 0.000000
0.133876 0.075857 0.000000
0.158609 0.044600 0.000000
0.188950 0.023674 0.000000
0.213898 0.012073 0.000000
0.239282 0.032001 0.000000
0.261095 0.051888 0.000000
0.311909 0.027406 0.000000
0.354190 0.000000 0.000000
0.374649 0.000000 0.000000
0.414724 0.000000 0.000000
0.444622 0.000000 0.000000
0.457567 0.000000 0.000000
0.488972 0.000000 0.000000
0.523108 0.000000 0.000000
0.540952 0.000000 0.000000
0.625930 0.000000 0.000000
0.683153 0.000000 0.000000
0.689219 0.000000 0.000000
0.701989 0.000000 0.000000
0.731404 0.000000 0.000000
0.751543 0.000000 0.000000
0.789742 0.000000 0.000000
0.809196 0.000000 0.000000
0.852452 0.000000 0.000000
0.899230 0.000000 0.000000
0.915192 0.000000 0.000000
0.915516 0.000000 0.000000
0.919538 0.000000 0.000000
0.930137 0.000000 0.000000
0.977345 0.000000 0.000000
0.985121 0.000000 0.000000
0.987493 0.000000 0.000000
0.125890 0.076472 0.000000
0.140107 0.092455 0.000000
0.160164 0.097631 0.000000
0.194113 0.085208 0.000000
0.217779 0.067645 0.000000
0.252626 0.058970 0.000000
0.266727 0.058444 0.000000
0.296784 0.086820 0.000000
0.349608 0.017458 0.000000
0.378644 0.000000 0.000000
0.411555 0.000000 0.000000
0.443192 0.000000 0.000000
0.465418 0.000000 0.000000
0.502498 0.000000 0.000000
0.531387 0.000000 0.000000
0.549874 0.000000 0.000000
0.609577 0.000000 0.000000
0.684809 0.000000 0.000000
0.691003 0.000000 0.000000
0.707510 0.000000 0.000000
0.734532 0.000000 0.000000
0.761421 0.000000 0.000000
0.796817 0.000000 0.000000
0.811372 0.000000 0.000000
0.862649 0.000000 0.000000
0.909525 0.000000 0.000000
0.915063 0.000000 0.000000
0.917451 0.000000 0.000000
0.923521 0.000000 0.000000
0.965352 0.000000 0.000000
0.985110 0.000000 0.000000
0.987112 0.000000 0.000000
0.990995 0.000000 0.000000
0.135606 0.096212 0.000000
0.152585 0.107901 0.000000
0.173052 0.118697 0.000000
0.193451 0.130840 0.000000
0.220031 0.114348 0.000000
0.252577 0.108268 0.000000
0.283813 0.097862 0.000000
0.305285 0.096240 0.000000
0.323726 0.104417 0.000000
0.353214 0.096604 0.000000
0.417926 0.003545 0.000000
0.440068 0.004388 0.000000
0.476766 0.000000 0.000000
0.504738 0.000000 0.000000
0.534230 0.000671 0.000000
0.551681 0.000000 0.000000
0.595116 0.000000 0.000000
0.669960 0.000000 0.000000
0.693565 0.000000 0.000000
0.712753 0.000000 0.000000
0.736665 0.000000 0.000000
0.769642 0.000000 0.000000
0.796870 0.000000 0.000000
0.820842 0.000000 0.000000
0.869557 0.000000 0.000000
0.910437 0.000000 0.000000
0.915218 0.000000 0.000000
0.921411 0.000000 0.000000
0.958144 0.000000 0.000000
0.983181 0.000000 0.000000
0.987109 0.000000 0.000000
0.989848 0.000000 0.000000
0.992964 0.000000 0.000000
0.148135 0.110616 0.000000
0.166664 0.121951 0.000000
0.187948 0.139745 0.000000
0.199351 0.142840 0.000000
0.220042 0.138645 0.000000
0.255735 0.148379 0.000000
0.275177 0.137910 0.000000
0.313075 0.139841 0.000000
0.332447 0.141907 0.000000
0.358943 0.143367 0.000000
0.393502 0.136728 0.000000
0.415235 0.118499 0.000000
0.463419 0.043435 0.000000
0.505468 0.008761 0.000000
0.539709 0.006869 0.000000
0.558652 0.000000 0.000000
0.590008 0.000374 0.000000
0.647445 0.000000 0.000000
0.694057 0.000000 0.000000
0.716241 0.006107 0.000000
0.740674 0.000000 0.000000
0.770747 0.000000 0.000000
0.805274 0.000000 0.000000
0.828663 0.000000 0.000000
0.860438 0.000000 0.000000
0.903902 0.000000 0.000000
0.920346 0.000000 0.000000
0.937653 0.000000 0.000000
0.973069 0.000000 0.000000
0.985959 0.000000 0.000000
0.989863 0.000000 0.000000
0.992943 0.000000 0.000000
0.996084 0.000000 0.000000
0.158373 0.118427 0.000000
0.184761 0.139328 0.000000
0.193294 0.146007 0.000000
0.207366 0.151487 0.000000
0.238474 0.169043 0.000000
0.258402 0.169337 0.000000
0.284180 0.182329 0.000000
0.310380 0.172047 0.000000
0.344176 0.165881 0.000000
0.355372 0.174415 0.000000
0.386572 0.167117 0.000000
0.430343 0.163149 0.000000
0.442561 0.167646 0.000000
0.462051 0.162828 0.000000
0.530508 0.010540 0.000000
0.576801 0.009501 0.000000
0.596553 0.001146 0.000000
0.647008 0.008084 0.000000
0.694511 0.024770 0.000000
0.720034 0.032099 0.000000
0.737333 0.032143 0.000000
0.775153 0.007710 0.000000
0.824548 0.000000 0.000000
0.836126 0.000000 0.000000
0.863899 0.000000 0.000000
0.908432 0.000000 0.000000
0.925872 0.000000 0.000000
0.957485 0.000000 0.000000
0.983182 0.000000 0.000000
0.988765 0.000000 0.000000
0.992921 0.000000 0.000000
0.995694 0.000000 0.000000
0.999611 0.000000 0.000000
0.178038 0.141973 0.000000
0.190953 0.147129 0.000000
0.201496 0.153387 0.000000
0.234441 0.178427 0.000000
0.243592 0.187399 0.000000
0.272270 0.194143 0.000000
0.291717 0.200590 0.000000
0.306625 0.201467 0.000000
0.342688 0.199859 0.000000
0.369761 0.200826 0.000000
0.381339 0.203022 0.000000
0.426558 0.192494 0.000000
0.452961 0.180149 0.000000
0.467734 0.195091 0.000000
0.487056 0.199399 0.000000
0.521513 0.203246 0.000000
0.611455 0.019397 0.000000
0.656979 0.041531 0.000000
0.694295 0.051871 0.000000
0.708784 0.044433 0.000000
0.731385 0.041835 0.000000
0.766714 0.037314 0.000000
0.819827 0.015653 0.000000
0.844075 0.005564 0.000000
0.867883 0.005507 0.000000
0.916000 0.000000 0.000000
0.926732 0.000000 0.000000
0.960196 0.000000 0.000000
0.986384 0.000000 0.000000
0.994052 0.000000 0.000000
0.995704 0.000000 0.000000
0.999615 0.000000 0.000000
1.000000 0.000000 0.000000
0.181191 0.149445 0.000000
0.192192 0.152570 0.000000
0.222824 0.177713 0.000000
0.238935 0.188144 0.000000
0.257419 0.196628 0.000000
0.279236 0.202102 0.000000
0.302180 0.216176 0.000000
0.317058 0.230077 0.000000
0.335319 0.240529 0.000000
0.363489 0.224858 0.000000
0.395541 0.231919 0.000000
0.412373 0.239053 0.000000
0.446189 0.214857 0.000000
0.477697 0.211076 0.000000
0.503659 0.217999 0.000000
0.522430 0.224044 0.000000
0.545139 0.212414 0.000000
0.671300 0.076152 0.000000
0.688496 0.078253 0.000000
0.704476 0.067858 0.000000
0.722714 0.078386 0.000000
0.776631 0.056690 0.000000
0.793707 0.050741 0.000000
0.849338 0.007067 0.000000
0.878068 0.006841 0.000000
0.906619 0.005634 0.000000
0.930536 0.000000 0.000000
0.960157 0.009002 0.000000
0.989451 0.008365 0.000000
0.995739 0.000000 0.000000
1.000000 0.000000 0.000000
1.000000 0.000000 0.000000
1.000000 0.000000 0.000000
0.187844 0.152947 0.000000
0.220802 0.177702 0.000000
0.238845 0.188124 0.000000
0.248875 0.198934 0.000000
0.267340 0.206381 0.000000
0.290007 0.214692 0.000000
0.308347 0.226986 0.000000
0.326912 0.243866 0.000000
0.344777 0.253343 0.000000
0.366411 0.254354 0.000000
0.406701 0.248448 0.000000
0.413131 0.250802 0.000000
0.430993 0.258053 0.000000
0.472148 0.243702 0.000000
0.503072 0.234319 0.000000
0.532393 0.232896 0.000000
0.543748 0.240626 0.000000
0.598316 0.201860 0.000000
0.685971 0.108812 0.000000
0.709425 0.092959 0.000000
0.734089 0.100692 0.000000
0.781956 0.080014 0.000000
0.795285 0.053214 0.000000
0.835811 0.047688 0.000000
0.889677 0.025193 0.000000
0.908030 0.023458 0.000000
0.930015 0.020055 0.000000
0.956543 0.021247 0.000000
0.986745 0.019960 0.000000
0.994601 0.008547 0.000000
1.000000 0.000000 0.000000
1.000000 0.000000 0.000000
1.000000 0.000000 0.000000
0.214540 0.175737 0.000000
0.234598 0.190004 0.000000
0.246588 0.200489 0.000000
0.264099 0.208306 0.000000
0.281069 0.219186 0.000000
0.300920 0.226329 0.000000
0.327377 0.247529 0.000000
0.340296 0.254355 0.000000
0.346917 0.254006 0.000000
0.377917 0.273943 0.000000
0.404132 0.276945 0.000000
0.420631 0.280374 0.000000
0.444955 0.281571 0.000000
0.469133 0.284731 0.000000
0.500197 0.266867 0.000000
0.524970 0.257287 0.000000
0.549067 0.263481 0.000000
0.587046 0.249255 0.000000
0.635152 0.203905 0.000000
0.717194 0.160970 0.000000
0.746413 0.140514 0.000000
0.783751 0.136940 0.000000
0.791153 0.138496 0.000000
0.826442 0.124004 0.000000
0.879081 0.059768 0.000000
0.912304 0.051882 0.000000
0.928468 0.046942 0.000000
0.951876 0.030729 0.000000
0.984481 0.025084 0.000000
0.995536 0.018183 0.000000
1.000000 0.005439 0.000000
1.000000 0.005378 0.000000
1.000000 0.000000 0.000000
0.229903 0.188009 0.000000
0.246217 0.204720 0.000000
0.252502 0.209425 0.000000
0.271229 0.216067 0.000000
0.291572 0.227920 0.000000
0.320231 0.244084 0.000000
0.336802 0.254330 0.000000
0.347118 0.260252 0.000000
0.371633 0.273427 0.000000
0.388170 0.280884 0.000000
0.407465 0.282180 0.000000
0.419768 0.284855 0.000000
0.454828 0.300172 0.000000
0.463811 0.304369 0.000000
0.487755 0.308221 0.000000
0.525534 0.287540 0.000000
0.551733 0.285374 0.000000
0.580627 0.285136 0.000000
0.623642 0.260388 0.000000
0.692167 0.222466 0.000000
0.740698 0.167709 0.000000
0.785470 0.143200 0.000000
0.806892 0.159668 0.000000
0.826425 0.156742 0.000000
0.858558 0.159250 0.000000
0.906756 0.103542 0.000000
0.925713 0.077636 0.000000
0.950059 0.065146 0.000000
0.975444 0.049322 0.000000
0.990893 0.028972 0.000000
1.000000 0.009532 0.000000
1.000000 0.005470 0.000000
1.000000 0.000383 0.000000
0.246230 0.204731 0.000000
0.250539 0.208254 0.000000
0.265382 0.216445 0.000000
0.283099 0.224302 0.000000
0.315806 0.241640 0.000000
0.333150 0.253989 0.000000
0.339511 0.257199 0.000000
0.356681 0.266124 0.000000
0.384523 0.284426 0.000000
0.399876 0.290831 0.000000
0.410865 0.298686 0.000000
0.437963 0.305936 0.000000
0.461457 0.311554 0.000000
0.472159 0.318381 0.000000
0.480236 0.325753 0.000000
0.528785 0.315153 0.000000
0.545806 0.323982 0.000000
0.589753 0.299029 0.000000
0.596040 0.306498 0.000000
0.662403 0.264638 0.000000
0.719397 0.232992 0.000000
0.787229 0.185115 0.000000
0.815490 0.194792 0.000000
0.831498 0.206551 0.000000
0.852220 0.184596 0.000000
0.901775 0.134766 0.000000
0.923518 0.124590 0.000000
0.954601 0.091514 0.000000
0.967370 0.078201 0.000000
0.990863 0.029161 0.000000
1.000000 0.009594 0.000000
1.000000 0.007807 0.000000
1.000000 0.009659 0.000000
0.250529 0.208248 0.000000
0.262656 0.216058 0.000000
0.272078 0.219979 0.000000
0.296247 0.232627 0.000000
0.325962 0.249838 0.000000
0.339432 0.257176 0.000000
0.346067 0.262483 0.000000
0.377803 0.282080 0.000000
0.396108 0.291199 0.000000
0.406438 0.302696 0.000000
0.418574 0.312924 0.000000
0.438925 0.314079 0.000000
0.463760 0.324074 0.000000
0.476714 0.330056 0.000000
0.497366 0.346564 0.000000
0.518944 0.349689 0.000000
0.544609 0.339691 0.000000
0.587086 0.330251 0.000000
0.596052 0.328270 0.000000
0.649635 0.322938 0.000000
0.687992 0.305174 0.000000
0.754901 0.255747 0.000000
0.817265 0.220983 0.000000
0.838943 0.234376 0.000000
0.843810 0.226996 0.000000
0.879076 0.211807 0.000000
0.917914 0.165086 0.000000
0.933903 0.144369 0.000000
0.965033 0.107294 0.000000
0.989850 0.104284 0.000000
0.999612 0.067869 0.000000
1.000000 0.010534 0.000000
1.000000 0.011686 0.000000
0.255260 0.213337 0.000000
0.265438 0.216477 0.000000
0.289795 0.229800 0.000000
0.321643 0.247481 0.000000
0.331763 0.253731 0.000000
0.345890 0.262386 0.000000
0.370700 0.279300 0.000000
0.397965 0.299171 0.000000
0.407651 0.305457 0.000000
0.412065 0.309921 0.000000
0.423817 0.317387 0.000000
0.457447 0.336354 0.000000
0.474962 0.342981 0.000000
0.488168 0.348305 0.000000
0.503089 0.354948 0.000000
0.519925 0.357640 0.000000
0.548318 0.357622 0.000000
0.570287 0.355943 0.000000
0.604790 0.350354 0.000000
0.655492 0.329952 0.000000
0.688411 0.338011 0.000000
0.705030 0.346364 0.000000
0.825701 0.232189 0.000000
0.836960 0.236962 0.000000
0.850271 0.247402 0.000000
0.857808 0.246759 0.000000
0.893926 0.212232 0.000000
0.922857 0.179521 0.000000
0.962870 0.137384 0.000000
0.998807 0.153296 0.000000
0.998820 0.123917 0.000000
1.000000 0.017593 0.000000
1.000000 0.024233 0.000000
0.262701 0.216083 0.000000
0.276805 0.222733 0.000000
0.305211 0.240044 0.000000
0.334849 0.257977 0.000000
0.345427 0.264667 0.000000
0.363562 0.278835 0.000000
0.393388 0.296934 0.000000
0.403911 0.305162 0.000000
0.412433 0.313735 0.000000
0.421795 0.324997 0.000000
0.442581 0.330613 0.000000
0.467594 0.341921 0.000000
0.483590 0.347758 0.000000
0.498884 0.355065 0.000000
0.510917 0.361240 0.000000
0.531039 0.373694 0.000000
0.544934 0.384450 0.000000
0.578913 0.374420 0.000000
0.596839 0.369925 0.000000
0.646840 0.356242 0.000000
0.698909 0.349973 0.000000
0.704154 0.351012 0.000000
0.784976 0.301933 0.000000
0.843620 0.263219 0.000000
0.849522 0.261138 0.000000
0.851071 0.260149 0.000000
0.882522 0.238788 0.000000
0.918244 0.205579 0.000000
0.968037 0.181509 0.000000
0.998808 0.173266 0.000000
0.998815 0.177959 0.000000
0.999609 0.095713 0.000000
1.000000 0.046226 0.000000
0.268185 0.219211 0.000000
0.297272 0.234916 0.000000
0.334863 0.257996 0.000000
0.341145 0.263110 0.000000
0.355342 0.274153 0.000000
0.388302 0.296909 0.000000
0.397759 0.302490 0.000000
0.407844 0.312619 0.000000
0.418337 0.321584 0.000000
0.426176 0.328618 0.000000
0.456741 0.342322 0.000000
0.481956 0.351301 0.000000
0.483755 0.348015 0.000000
0.511958 0.372730 0.000000
0.526018 0.380160 0.000000
0.539791 0.391175 0.000000
0.554259 0.403656 0.000000
0.563519 0.399935 0.000000
0.591432 0.393333 0.000000
0.641066 0.380957 0.000000
0.685290 0.372067 0.000000
0.701552 0.361614 0.000000
0.730003 0.354916 0.000000
0.845526 0.276060 0.000000
0.846701 0.275590 0.000000
0.863083 0.270531 0.000000
0.881971 0.259998 0.000000
0.903079 0.245542 0.000000
0.976504 0.192148 0.000000
0.993741 0.191631 0.000000
0.998819 0.191705 0.000000
1.000000 0.188650 0.000000
1.000000 0.117972 0.000000
0.290142 0.231358 0.000000
0.311869 0.245146 0.000000
0.341136 0.263106 0.000000
0.354128 0.284290 0.000000
0.376154 0.295816 0.000000
0.395755 0.310697 0.000000
0.406664 0.322703 0.000000
0.417945 0.324287 0.000000
0.421895 0.325148 0.000000
0.440718 0.341514 0.000000
0.461615 0.349817 0.000000
0.482451 0.353432 0.000000
0.503090 0.370858 0.000000
0.525930 0.380183 0.000000
0.539692 0.392690 0.000000
0.554179 0.403671 0.000000
0.559256 0.412063 0.000000
0.577406 0.424869 0.000000
0.592211 0.427042 0.000000
0.636170 0.402370 0.000000
0.671426 0.387912 0.000000
0.704388 0.368651 0.000000
0.735291 0.367494 0.000000
0.788453 0.354286 0.000000
0.850772 0.282523 0.000000
0.870027 0.292111 0.000000
0.884213 0.291495 0.000000
0.894428 0.291139 0.000000
0.956715 0.240233 0.000000
0.990592 0.203545 0.000000
0.998830 0.210796 0.000000
1.000000 0.223770 0.000000
1.000000 0.223370 0.000000
0.310981 0.245879 0.000000
0.342339 0.279579 0.001948
0.356491 0.297722 0.002347
0.380411 0.346269 0.015622
0.387081 0.361064 0.016765
0.398809 0.348920 0.005063
0.408572 0.344180 0.003107
0.415281 0.330207 0.000000
0.431729 0.335697 0.000000
0.446715 0.344743 0.000000
0.470730 0.354591 0.000000
0.501065 0.373218 0.000000
0.519258 0.381229 0.000000
0.540026 0.397677 0.000000
0.552186 0.407467 0.000000
0.562174 0.416202 0.000000
0.570557 0.424888 0.000000
0.583443 0.432394 0.000000
0.587943 0.435686 0.000000
0.625147 0.420523 0.000000
0.662214 0.418912 0.000000
0.707358 0.417135 0.000000
0.718968 0.417023 0.000000
0.750990 0.390768 0.000000
0.842464 0.319429 0.000000
0.872215 0.308356 0.000000
0.887751 0.314767 0.000000
0.898995 0.309226 0.000000
0.924003 0.294578 0.000000
0.983450 0.260536 0.000000
1.000000 0.251072 0.000000
1.000000 0.258133 0.000000
1.000000 0.264810 0.000000
0.359607 0.322375 0.014084
0.376466 0.361985 0.026225
0.381943 0.369422 0.019580
0.387029 0.361235 0.016840
0.388615 0.364338 0.018772
0.397616 0.380329 0.017202
0.399198 0.374043 0.014852
0.416053 0.351714 0.003123
0.445450 0.347430 0.000000
0.464717 0.352209 0.000000
0.492500 0.368975 0.000000
0.510211 0.379229 0.000000
0.532287 0.393440 0.000000
0.552113 0.407444 0.000000
0.562071 0.416167 0.000000
0.570461 0.424877 0.000000
0.583346 0.432378 0.000000
0.587855 0.435672 0.000000
0.588164 0.435908 0.000000
0.627340 0.440853 0.000000
0.664947 0.443308 0.000000
0.696871 0.447483 0.000000
0.719096 0.438946 0.000000
0.755992 0.417950 0.000000
0.790892 0.393341 0.000000
0.875983 0.317996 0.000000
0.891380 0.332608 0.000000
0.896774 0.330057 0.000000
0.919599 0.313812 0.000000
0.968101 0.297130 0.000000
0.991779 0.266743 0.000000
1.000000 0.266770 0.000000
1.000000 0.267234 0.000000
0.381940 0.370198 0.024671
0.381946 0.370209 0.024663
0.386638 0.375686 0.021537
0.388212 0.378822 0.023483
0.396432 0.386258 0.019574
0.396439 0.386260 0.019580
0.397624 0.380382 0.017234
0.404313 0.379184 0.014880
0.441275 0.352592 0.000000
0.483095 0.365106 0.000000
0.512051 0.381133 0.000000
0.523273 0.390684 0.000000
0.546279 0.403572 0.000000
0.561999 0.416140 0.000000
0.570382 0.424860 0.000000
0.576015 0.429301 0.000000
0.588143 0.437918 0.000000
0.592565 0.441884 0.000000
0.598019 0.447639 0.000000
0.645679 0.448420 0.000000
0.669283 0.447918 0.000000
0.699708 0.449832 0.000000
0.716137 0.456073 0.000000
0.744806 0.451913 0.000000
0.759077 0.441466 0.000000
0.868423 0.441003 0.000000
0.889332 0.374145 0.000000
0.903299 0.381660 0.000000
0.923986 0.398966 0.000000
0.949224 0.393677 0.000000
0.970545 0.322526 0.000000
1.000000 0.279285 0.000000
1.000000 0.275079 0.000000
0.382730 0.372557 0.028581
0.388205 0.378814 0.023497
0.389389 0.380387 0.024272
0.396437 0.386260 0.019578
0.396443 0.386262 0.019583
0.396449 0.386265 0.019589
0.396457 0.386268 0.019595
0.403144 0.385094 0.017247
0.426426 0.380356 0.018759
0.500326 0.378019 0.000000
0.521598 0.390624 0.000000
0.537362 0.401634 0.000000
0.566210 0.422697 0.000000
0.566470 0.422915 0.000000
0.575154 0.430784 0.000000
0.588032 0.438622 0.000000
0.593594 0.446389 0.000000
0.593778 0.446487 0.000000
0.598093 0.447713 0.000000
0.645822 0.448399 0.000000
0.686051 0.451409 0.000000
0.707231 0.456087 0.000000
0.725557 0.463898 0.000000
0.742334 0.470169 0.000000
0.820490 0.526054 0.000000
0.845786 0.530220 0.000000
0.856506 0.530187 0.000000
0.899698 0.483238 0.000000
0.929405 0.450670 0.000000
0.934859 0.435662 0.000000
0.946618 0.428181 0.000000
0.973756 0.360298 0.000000
1.000000 0.290639 0.000000
0.388209 0.378816 0.023501
0.389392 0.380388 0.024278
0.396442 0.386262 0.019582
0.396446 0.386264 0.019586
0.396451 0.386266 0.019591
0.396457 0.386269 0.019596
0.396464 0.386272 0.019602
0.407854 0.388233 0.025879
0.433814 0.382719 0.018780
0.514512 0.389030 0.000000
0.529514 0.396557 0.000000
0.562700 0.420753 0.000000
0.566402 0.422870 0.000000
0.575073 0.430734 0.000000
0.581803 0.440120 0.000000
0.593504 0.446371 0.000000
0.593665 0.446458 0.000000
0.599898 0.450718 0.000000
0.610601 0.459851 0.000000
0.634849 0.457608 0.000000
0.693588 0.458409 0.000000
0.716696 0.464671 0.000000
0.742336 0.470178 0.000000
0.813429 0.539301 0.000000
0.834215 0.558513 0.000000
0.849312 0.572839 0.000000
0.849409 0.572937 0.000000
0.863586 0.565543 0.000000
0.893024 0.533006 0.000000
0.923863 0.504322 0.000000
0.931372 0.492754 0.000000
0.950550 0.450528 0.000000
0.974157 0.383689 0.000000
0.389394 0.380388 0.024282
0.396445 0.386263 0.019585
0.396448 0.386265 0.019588
0.396453 0.386267 0.019592
0.396458 0.386269 0.019597
0.396464 0.386272 0.019602
0.398431 0.388235 0.025883
0.407852 0.388234 0.025882
0.469792 0.409785 0.051725
0.523966 0.401580 0.007801
0.562681 0.420741 0.000000
0.567129 0.430211 0.000000
0.572685 0.437662 0.000000
0.581735 0.440091 0.000000
0.593436 0.446356 0.000000
0.593572 0.446430 0.000000
0.599824 0.450707 0.000000
0.610560 0.459871 0.000000
0.620222 0.465295 0.000000
0.656999 0.465403 0.000000
0.692219 0.464271 0.000000
0.728508 0.467442 0.000000
0.803221 0.530270 0.000000
0.836133 0.561597 0.000000
0.849311 0.572839 0.000000
0.849404 0.572932 0.000000
0.854177 0.576923 0.000000
0.854296 0.577033 0.000000
0.869160 0.569725 0.000000
0.907649 0.527710 0.000000
0.918284 0.518013 0.000000
0.928937 0.510322 0.000000
0.950543 0.473015 0.000000
0.396448 0.386264 0.019588
0.396451 0.386266 0.019590
0.396454 0.386267 0.019594
0.396458 0.386269 0.019597
0.396463 0.386271 0.019602
0.398430 0.388235 0.025881
0.401177 0.389412 0.028238
0.435697 0.412568 0.063558
0.460803 0.424310 0.070956
0.526752 0.420394 0.017976
0.572533 0.437621 0.000000
0.572636 0.437691 0.000000
0.578184 0.442034 0.000000
0.583725 0.446363 0.000000
0.593500 0.446406 0.000000
0.593619 0.446471 0.000000
0.610529 0.459890 0.000000
0.620217 0.465319 0.000000
0.625742 0.473097 0.001151
0.657230 0.465506 0.000000
0.698947 0.478363 0.003907
0.775792 0.514981 0.000000
0.836115 0.561588 0.000000
0.849314 0.572843 0.000000
0.849399 0.572928 0.000000
0.854164 0.576912 0.000000
0.854280 0.577020 0.000000
0.859830 0.581007 0.000000
0.870367 0.589216 0.000000
0.881240 0.580418 0.000000
0.899855 0.559404 0.000000
0.923624 0.525364 0.000000
0.931591 0.514131 0.000000
0.396453 0.386267 0.019592
0.396456 0.386268 0.019595
0.396459 0.386270 0.019598
0.396463 0.386271 0.019602
0.398429 0.388234 0.025880
0.405490 0.393334 0.034904
0.430599 0.420790 0.082360
0.448242 0.434910 0.096085
0.474897 0.447843 0.098425
0.550221 0.437272 0.017996
0.572600 0.437711 0.000000
0.578131 0.442048 0.000000
0.583666 0.446378 0.000000
0.584526 0.449515 0.000000
0.594293 0.453016 0.000000
0.600521 0.457238 0.000000
0.620218 0.465342 0.000000
0.625757 0.473157 0.001159
0.638272 0.482562 0.005028
0.675309 0.494022 0.006262
0.737089 0.506698 0.003954
0.836100 0.561580 0.000000
0.836117 0.561588 0.000000
0.849395 0.572924 0.000000
0.854152 0.576901 0.000000
0.854262 0.577003 0.000000
0.859810 0.580989 0.000000
0.870352 0.589202 0.000000
0.874674 0.593516 0.000000
0.874730 0.593565 0.000000
0.879757 0.597817 0.002306
0.908669 0.568094 0.002308
0.915797 0.556215 0.000000
0.396457 0.386269 0.019596
0.396460 0.386270 0.019599
0.396463 0.386271 0.019602
0.398428 0.388234 0.025879
0.405492 0.393335 0.034906
0.430606 0.420817 0.082405
0.452528 0.439223 0.101203
0.463516 0.448246 0.107087
0.487070 0.462754 0.104694
0.534617 0.456094 0.054762
0.578096 0.442447 0.000000
0.584398 0.449494 0.000000
0.584468 0.449526 0.000000
0.595760 0.456122 0.000000
0.600451 0.457266 0.000000
0.610184 0.462674 0.000000
0.628862 0.477456 0.001165
0.629008 0.477583 0.001173
0.662167 0.502953 0.012059
0.696615 0.522591 0.020707
0.824640 0.559602 0.003950
0.836102 0.561581 0.000000
0.849392 0.572922 0.000000
0.849465 0.572995 0.000000
0.854242 0.576985 0.000000
0.859787 0.580967 0.000000
0.865689 0.585314 0.000000
0.871963 0.591192 0.000000
0.874715 0.593552 0.000000
0.879748 0.597811 0.002306
0.888228 0.604362 0.006930
0.892082 0.606671 0.014262
0.901383 0.606674 0.030556
0.396460 0.386270 0.019599
0.396463 0.386271 0.019602
0.398427 0.388233 0.025879
0.407468 0.401206 0.047894
0.430612 0.420838 0.082439
0.451751 0.449426 0.119257
0.456462 0.453365 0.122807
0.469008 0.469418 0.139630
0.485521 0.471764 0.121517
0.524474 0.462378 0.072366
0.584365 0.450281 0.000000
0.584424 0.449533 0.000000
0.588739 0.453423 0.000000
0.595755 0.456126 0.000000
0.605877 0.461539 0.000000
0.628882 0.477508 0.001170
0.629009 0.477619 0.001177
0.656746 0.499891 0.006252
0.672525 0.512525 0.020722
0.711009 0.537271 0.028259
0.819209 0.563522 0.011368
0.849391 0.572921 0.000000
0.849455 0.572985 0.000000
0.854222 0.576967 0.000000
0.859763 0.580945 0.000000
0.862570 0.583357 0.000000
0.871941 0.591171 0.000000
0.874696 0.593919 0.000770
