lut/ame3.cube
TITLE
LUT_3D_SIZE 33
DOMAIN_MIN 0.0 0.0 0.0
DOMAIN_MAX 1.0 1.0 1.0
0.099265 0.014932 0.000000
0.066667 0.000000 0.035294
0.065271 0.000000 0.094238
0.073468 0.000000 0.121934
0.083554 0.003809 0.144304
0.086485 0.002729 0.148410
0.091442 0.002680 0.153133
0.096558 0.000391 0.155839
0.098906 0.003824 0.156219
0.109726 0.008856 0.156967
0.115671 0.012000 0.156572
0.125039 0.013200 0.156559
0.125113 0.013229 0.156548
0.125159 0.013250 0.156540
0.125189 0.013265 0.156533
0.132173 0.017146 0.155754
0.134904 0.019873 0.154972
0.134920 0.019891 0.154965
0.134931 0.019906 0.154959
0.180994 0.071453 0.163536
0.249999 0.152258 0.169457
0.265877 0.175250 0.172633
0.274675 0.185669 0.176179
0.302940 0.217889 0.185620
0.350175 0.270570 0.214536
0.362008 0.281230 0.222832
0.424081 0.380756 0.342628
0.452526 0.446236 0.433283
0.477234 0.489001 0.489749
0.477243 0.489010 0.489775
0.478421 0.491750 0.496823
0.484300 0.502720 0.521507
0.484316 0.502746 0.521572
0.096639 0.053784 0.000000
0.088112 0.039231 0.011279
0.071575 0.025633 0.097358
0.077007 0.028043 0.111469
0.085537 0.008931 0.141432
0.090772 0.007424 0.146698
0.097622 0.005042 0.152659
0.105906 0.015490 0.154242
0.111772 0.018645 0.153838
0.121884 0.019845 0.154593
0.129704 0.021019 0.154592
0.129781 0.021028 0.154590
0.129828 0.021037 0.154587
0.139931 0.026864 0.153418
0.139962 0.026893 0.153407
0.139984 0.026915 0.153398
0.140390 0.033551 0.151445
0.174005 0.066031 0.156499
0.249992 0.152270 0.169416
0.262017 0.172196 0.169097
0.290318 0.205634 0.174609
0.312202 0.236491 0.183991
0.330178 0.252912 0.196517
0.350182 0.270578 0.214545
0.362022 0.281246 0.222847
0.408051 0.356477 0.313243
0.445461 0.429378 0.409768
0.466731 0.470329 0.460572
0.477237 0.489005 0.489758
0.477246 0.489014 0.489785
0.478426 0.491759 0.496844
0.484308 0.502734 0.521543
0.486672 0.507063 0.530604
0.125890 0.076472 0.000000
0.110598 0.082400 0.003089
0.098519 0.061782 0.073149
0.092519 0.056426 0.117647
0.102011 0.044190 0.127817
0.107064 0.042095 0.132113
0.121581 0.048969 0.141190
0.123142 0.043478 0.146685
0.128965 0.047336 0.145536
0.128980 0.047334 0.145538
0.140695 0.049248 0.146333
0.144244 0.055477 0.144390
0.144277 0.055495 0.144386
0.145080 0.047704 0.146725
0.153296 0.052794 0.145159
0.200225 0.100517 0.149838
0.242236 0.153144 0.153746
0.276906 0.189868 0.167092
0.291867 0.212668 0.169512
0.300885 0.225567 0.172294
0.318040 0.241548 0.186719
0.321247 0.247479 0.188364
0.361888 0.281115 0.222743
0.362039 0.281264 0.222865
0.377309 0.296532 0.233828
0.431745 0.397648 0.366292
0.466719 0.470306 0.460541
0.477230 0.488998 0.489737
0.477240 0.489009 0.489768
0.478420 0.491749 0.496819
0.484299 0.502721 0.521508
0.484318 0.502751 0.521583
0.490586 0.511374 0.539622
0.135606 0.096212 0.000000
0.124342 0.101641 0.002317
0.105965 0.074670 0.082009
0.107854 0.072953 0.099615
0.118179 0.078211 0.119598
0.127487 0.079319 0.126283
0.132200 0.075236 0.132265
0.143828 0.076382 0.137296
0.144668 0.075673 0.137660
0.145872 0.076878 0.137256
0.145893 0.076902 0.137247
0.161156 0.095284 0.133726
0.163547 0.086709 0.137242
0.208206 0.130176 0.138034
0.239657 0.167889 0.142369
0.269421 0.192962 0.153338
0.287505 0.209877 0.164764
0.300825 0.225522 0.172243
0.305555 0.229458 0.175800
0.310267 0.236107 0.177779
0.321256 0.247490 0.188372
0.361889 0.281118 0.222747
0.362060 0.281287 0.222885
0.377328 0.296552 0.233846
0.431680 0.397510 0.366108
0.466704 0.470277 0.460500
0.476063 0.487832 0.483909
0.477233 0.489002 0.489747
0.477244 0.489013 0.489779
0.478426 0.491760 0.496844
0.484310 0.502738 0.521551
0.486675 0.507069 0.530617
0.490596 0.511388 0.539657
0.148135 0.110616 0.000000
0.138451 0.112974 0.000778
0.139217 0.119602 0.017052
0.134894 0.103918 0.104710
0.136015 0.103889 0.109882
0.136006 0.094154 0.121931
0.143113 0.096782 0.127106
0.157572 0.099909 0.131795
0.160750 0.102704 0.131383
0.163554 0.101622 0.131752
0.183901 0.122744 0.129012
0.208981 0.149381 0.132147
0.227080 0.165898 0.135693
0.251797 0.178089 0.144725
0.271400 0.196914 0.153351
0.289460 0.217678 0.165154
0.300826 0.225524 0.172245
0.304404 0.231028 0.175034
0.310279 0.236124 0.177789
0.321267 0.247504 0.188380
0.361892 0.281124 0.222754
0.366355 0.285973 0.225626
0.381999 0.302000 0.235414
0.424181 0.380937 0.342835
0.466685 0.470239 0.460448
0.476061 0.487831 0.483907
0.476063 0.487833 0.483910
0.477237 0.489007 0.489759
0.478418 0.491750 0.496814
0.484299 0.502723 0.521511
0.484321 0.502758 0.521597
0.490587 0.511378 0.539633
0.490608 0.511403 0.539695
0.158373 0.118427 0.000000
0.154497 0.134847 0.000000
0.157233 0.137633 0.013684
0.141582 0.113360 0.093334
0.136491 0.105911 0.109405
0.153688 0.114091 0.119605
0.172533 0.124299 0.121190
0.179614 0.130188 0.123532
0.185491 0.135281 0.122367
0.205073 0.149000 0.129008
0.218035 0.158429 0.131764
0.230626 0.168266 0.136486
0.262741 0.195293 0.147072
0.274921 0.209024 0.152963
0.291387 0.220011 0.165913
0.295769 0.223970 0.169521
0.310244 0.236099 0.177759
0.310294 0.236146 0.177798
0.321279 0.247521 0.188388
0.352171 0.275688 0.213034
0.374521 0.294530 0.230686
0.382015 0.302017 0.235428
0.418261 0.374525 0.324299
0.466660 0.470191 0.460381
0.474899 0.487443 0.481972
0.476061 0.487832 0.483908
0.477229 0.489000 0.489734
0.477241 0.489013 0.489772
0.481552 0.499970 0.513651
0.484311 0.502744 0.521561
0.486678 0.507076 0.530633
0.490599 0.511394 0.539673
0.495689 0.515707 0.553381
0.178038 0.141973 0.000000
0.165502 0.142806 0.000000
0.166675 0.145901 0.004707
0.178845 0.157284 0.034585
0.182335 0.158108 0.061115
0.183900 0.147957 0.095462
0.186280 0.146308 0.104706
0.199917 0.148968 0.123894
0.208238 0.154113 0.127456
0.231731 0.170560 0.136064
0.237699 0.177690 0.136881
0.260035 0.198069 0.144340
0.277645 0.213713 0.152956
0.292134 0.222332 0.165100
0.294988 0.226711 0.167565
0.309474 0.238449 0.177369
0.315340 0.244690 0.179736
0.325947 0.255307 0.189552
0.349065 0.273370 0.208759
0.366396 0.289898 0.224106
0.392087 0.319848 0.246279
0.404967 0.358466 0.280891
0.459232 0.453000 0.436547
0.474899 0.487443 0.481971
0.474899 0.487445 0.481973
0.476061 0.487833 0.483909
0.477233 0.489005 0.489748
0.478416 0.491750 0.496810
0.481563 0.499991 0.513701
0.486668 0.507062 0.530597
0.490589 0.511384 0.539646
0.490612 0.511412 0.539717
0.495694 0.515715 0.553399
0.181191 0.149445 0.000000
0.177569 0.152133 0.002327
0.173761 0.153361 0.014538
0.184685 0.164307 0.043593
0.189369 0.170565 0.046438
0.196362 0.174453 0.061993
0.193683 0.158099 0.095553
0.218801 0.163909 0.128619
0.236473 0.177657 0.134502
0.242812 0.184383 0.138441
0.264736 0.202801 0.146285
0.279973 0.219173 0.149833
0.289773 0.223503 0.160005
0.303151 0.236850 0.170267
0.309470 0.238470 0.177352
0.315363 0.244748 0.179730
0.331784 0.261175 0.191088
0.352567 0.282338 0.207970
0.367565 0.295344 0.222551
0.392098 0.343222 0.251338
0.395678 0.347333 0.255692
0.447458 0.440004 0.396541
0.474899 0.487444 0.481971
0.474899 0.487445 0.481972
0.474899 0.487446 0.481973
0.477223 0.488997 0.489719
0.477238 0.489012 0.489764
0.481552 0.499972 0.513653
0.484313 0.502751 0.521576
0.486682 0.507086 0.530654
0.490603 0.511403 0.539693
0.495690 0.515713 0.553392
0.498804 0.518828 0.559236
0.187844 0.152947 0.000000
0.184284 0.156072 0.002353
0.192549 0.171363 0.036792
0.193332 0.172954 0.039312
0.197633 0.178040 0.049092
0.197651 0.178060 0.049101
0.207794 0.179604 0.074085
0.245873 0.197249 0.120016
0.260393 0.213720 0.125532
0.269029 0.221191 0.132202
0.279203 0.226677 0.143142
0.290964 0.239593 0.150212
0.300004 0.241582 0.164326
0.308303 0.249822 0.169132
0.322382 0.257654 0.178539
0.337229 0.277962 0.190264
0.354489 0.291305 0.206749
0.380746 0.319864 0.233387
0.392107 0.343365 0.251344
0.393367 0.362326 0.254160
0.425851 0.408605 0.331693
0.469068 0.480065 0.464087
0.474899 0.487446 0.481972
0.474899 0.487447 0.481973
0.474899 0.487448 0.481974
0.477228 0.489004 0.489735
0.479975 0.496433 0.504609
0.481565 0.499997 0.513712
0.486670 0.507070 0.530614
0.490591 0.511391 0.539663
0.493346 0.513761 0.546759
0.498801 0.518828 0.559236
0.498804 0.518830 0.559237
0.214540 0.175737 0.000000
0.212564 0.183563 0.003130
0.203909 0.181952 0.034878
0.203925 0.181977 0.034976
0.200034 0.179651 0.046715
0.203539 0.182378 0.050230
0.243522 0.207470 0.095275
0.263938 0.223957 0.118800
0.272551 0.232588 0.123924
0.282739 0.240049 0.133324
0.292515 0.244753 0.147772
0.301162 0.255696 0.153700
0.311399 0.264705 0.162399
0.325887 0.274087 0.174189
0.336434 0.281901 0.186292
0.354066 0.301056 0.201217
0.380752 0.344570 0.229063
0.387060 0.353686 0.241199
0.397659 0.374147 0.253777
0.403146 0.397234 0.263566
0.455369 0.465190 0.420635
0.474898 0.487447 0.481971
0.474899 0.487448 0.481973
0.474899 0.487449 0.481974
0.474899 0.487450 0.481975
0.476456 0.490179 0.490532
0.481551 0.499976 0.513658
0.484316 0.503541 0.522376
0.486687 0.507875 0.531456
0.490607 0.511413 0.539718
0.495690 0.515720 0.553406
0.498801 0.518830 0.559238
0.498804 0.518832 0.559239
0.229903 0.188009 0.000000
0.225537 0.197690 0.000782
0.214124 0.191386 0.019995
0.214498 0.191767 0.028293
0.218763 0.194867 0.034192
0.241957 0.209814 0.074547
0.265125 0.228276 0.104348
0.271414 0.233801 0.117663
0.279641 0.242798 0.123588
0.288662 0.251031 0.134161
0.300386 0.258482 0.148966
0.306718 0.264006 0.154509
0.320826 0.277672 0.164762
0.337614 0.299113 0.177676
0.355658 0.325018 0.196084
0.374535 0.354926 0.218463
0.384320 0.371748 0.228272
0.393753 0.384738 0.247125
0.403152 0.397296 0.263565
0.448551 0.457173 0.398192
0.469085 0.480088 0.464140
0.474898 0.487449 0.481972
0.474899 0.487451 0.481974
0.474899 0.487452 0.481975
0.476450 0.490167 0.490501
0.479193 0.497606 0.505390
0.481567 0.500006 0.513728
0.486673 0.507857 0.531410
0.490594 0.511400 0.539684
0.493350 0.513771 0.546781
0.498798 0.518831 0.559238
0.498801 0.518832 0.559240
0.498804 0.518834 0.559241
0.246230 0.204731 0.000000
0.240395 0.207085 0.000000
0.227858 0.201598 0.014850
0.229367 0.201942 0.028211
0.247836 0.214508 0.056500
0.266281 0.230207 0.098465
0.272953 0.236118 0.111417
0.279634 0.242800 0.123544
0.288655 0.251039 0.134117
0.302730 0.263936 0.147792
0.313331 0.274132 0.154501
0.328625 0.298772 0.164724
0.345500 0.332956 0.176863
0.361159 0.366678 0.183907
0.370580 0.376473 0.202340
0.381961 0.379215 0.222367
0.392571 0.391010 0.243582
0.401984 0.402388 0.259278
0.413706 0.416062 0.274517
0.455406 0.465234 0.420751
0.474898 0.487451 0.481971
0.474898 0.487452 0.481973
0.474899 0.487453 0.481975
0.474899 0.487454 0.481976
0.476456 0.490183 0.490533
0.479208 0.497638 0.505463
0.484319 0.503551 0.522394
0.486691 0.507885 0.531480
0.490613 0.511425 0.539747
0.498795 0.518832 0.559238
0.498798 0.518833 0.559240
0.498801 0.518834 0.559242
0.499581 0.520001 0.558466
0.250529 0.208248 0.000000
0.247444 0.211001 0.000000
0.243897 0.212158 0.006626
0.242351 0.210591 0.029801
0.260796 0.224327 0.076910
0.272159 0.236097 0.102808
0.281955 0.245901 0.124287
0.290596 0.253764 0.134479
0.306237 0.267453 0.147789
0.324624 0.295561 0.160720
0.342778 0.331034 0.174125
0.356471 0.359287 0.180387
0.365060 0.374524 0.185851
0.368203 0.375313 0.198363
0.370968 0.378038 0.203509
0.390601 0.390991 0.240033
0.397694 0.397318 0.252646
0.405137 0.406715 0.264389
0.443501 0.451348 0.378761
0.474898 0.487453 0.481970
0.474898 0.487454 0.481972
0.474899 0.487455 0.481974
0.474899 0.487456 0.481975
0.476449 0.490170 0.490501
0.479195 0.497611 0.505400
0.484300 0.503917 0.521550
0.486675 0.507865 0.531428
0.490598 0.511411 0.539709
0.493354 0.513783 0.546807
0.498795 0.518834 0.559240
0.499575 0.520000 0.558465
0.499578 0.520001 0.558466
0.499581 0.520002 0.558466
0.255260 0.213337 0.000000
0.257602 0.215307 0.000000
0.247073 0.214139 0.003914
0.257259 0.221182 0.064706
0.267863 0.231797 0.096907
0.281175 0.245895 0.115732
0.290209 0.254154 0.130593
0.312495 0.278406 0.150915
0.330595 0.314897 0.161963
0.356469 0.359287 0.180381
0.362324 0.375293 0.181952
0.363106 0.375308 0.183511
0.363506 0.375319 0.184299
0.370933 0.378045 0.203433
0.375681 0.383924 0.212544
0.397683 0.398475 0.253404
0.405134 0.406713 0.264384
0.413711 0.416066 0.274520
0.456219 0.466054 0.421257
0.474898 0.487457 0.481970
0.474898 0.487458 0.481972
0.474899 0.487459 0.481974
0.474899 0.487459 0.481976
0.478013 0.494856 0.498320
0.479212 0.497648 0.505485
0.486656 0.507841 0.531363
0.486696 0.507897 0.531507
0.490618 0.511439 0.539778
0.498791 0.518835 0.559240
0.499571 0.520000 0.558465
0.499575 0.520001 0.558466
0.499578 0.520002 0.558467
0.499582 0.520003 0.558467
0.262701 0.216083 0.000000
0.261533 0.218827 0.000000
0.258437 0.221966 0.010179
0.265504 0.229824 0.076132
0.276106 0.240435 0.108683
0.296442 0.265057 0.133713
0.322316 0.300736 0.155650
0.346331 0.346008 0.172582
0.362319 0.374894 0.181169
0.362325 0.375296 0.181953
0.362331 0.375310 0.181961
0.361950 0.375323 0.181192
0.367786 0.378051 0.194021
0.375624 0.385073 0.213205
0.382793 0.392585 0.224794
0.405129 0.406708 0.264375
0.414878 0.419185 0.275685
0.439629 0.448648 0.360508
0.474898 0.487459 0.481968
0.474898 0.487460 0.481971
0.474899 0.487461 0.481973
0.474899 0.487462 0.481975
0.474899 0.487462 0.481976
0.479198 0.497620 0.505418
0.484300 0.503922 0.521559
0.486678 0.507875 0.531448
0.490602 0.511423 0.539736
0.499563 0.519999 0.558463
0.499567 0.520001 0.558465
0.499572 0.520002 0.558466
0.499576 0.520003 0.558467
0.499579 0.520004 0.558468
0.499582 0.520005 0.558468
0.268185 0.219211 0.000000
0.267802 0.220008 0.000000
0.269007 0.227453 0.010967
0.283912 0.247060 0.094915
0.300028 0.272976 0.111917
0.332601 0.323634 0.162770
0.363095 0.373720 0.178448
0.362323 0.374897 0.181170
0.362327 0.374910 0.181177
0.361944 0.375311 0.181185
0.361950 0.375324 0.181192
0.362733 0.375723 0.182363
0.368959 0.381552 0.195978
0.379189 0.389015 0.217592
0.402000 0.407477 0.255389
0.414879 0.419188 0.275682
0.419198 0.425074 0.279610
0.458171 0.469175 0.423622
0.474898 0.487463 0.481968
0.474899 0.487464 0.481971
0.474899 0.487464 0.481973
0.474899 0.487465 0.481975
0.479183 0.497588 0.505342
0.479217 0.497661 0.505512
0.486657 0.507848 0.531378
0.486701 0.507909 0.531534
0.496453 0.516892 0.552632
0.499564 0.520001 0.558464
0.499568 0.520002 0.558465
0.499572 0.520004 0.558467
0.499576 0.520005 0.558468
0.499580 0.520005 0.558468
0.499583 0.520006 0.558468
0.290142 0.231358 0.000000
0.274867 0.225490 0.000000
0.345517 0.320443 0.020375
0.372157 0.359225 0.048558
0.373302 0.368235 0.067217
0.363104 0.374889 0.162853
0.362326 0.374900 0.181171
0.362330 0.374911 0.181177
0.361946 0.375312 0.181184
0.361952 0.375323 0.181191
0.363898 0.377275 0.182750
0.363900 0.377275 0.182753
0.377955 0.389365 0.210851
0.385518 0.396097 0.228288
0.414881 0.419582 0.274899
0.419204 0.425085 0.279610
0.442754 0.452953 0.363569
0.474898 0.487465 0.481966
0.474899 0.487466 0.481969
0.474899 0.487467 0.481971
0.474899 0.487468 0.481973
0.476451 0.492121 0.489733
0.479203 0.497632 0.505442
0.484300 0.503929 0.521570
0.486681 0.507885 0.531469
0.490606 0.511435 0.539763
0.499560 0.520002 0.558462
0.499565 0.520003 0.558464
0.499569 0.520004 0.558466
0.499573 0.520005 0.558467
0.499577 0.520006 0.558468
0.500747 0.521950 0.557691
0.500751 0.521952 0.557691
0.310981 0.245879 0.000000
0.370206 0.347497 0.023893
0.373724 0.359628 0.031329
0.374121 0.365901 0.052075
0.367829 0.373720 0.111402
0.363111 0.374902 0.162845
0.362333 0.374912 0.181177
0.361948 0.375312 0.181184
0.361953 0.375322 0.181190
0.363899 0.377274 0.182749
0.363901 0.377274 0.182751
0.371695 0.385064 0.195992
0.384650 0.396037 0.223430
0.412933 0.421154 0.266302
0.422337 0.429394 0.280390
0.429021 0.449020 0.287067
0.460449 0.485125 0.407350
0.474899 0.487468 0.481966
0.474899 0.487469 0.481969
0.475286 0.490179 0.481971
0.475287 0.490182 0.481973
0.479188 0.497600 0.505367
0.479223 0.497675 0.505541
0.486659 0.507857 0.531394
0.489811 0.511027 0.537380
0.499557 0.520002 0.558459
0.499562 0.520004 0.558462
0.499566 0.520005 0.558464
0.499571 0.520006 0.558466
0.500741 0.521950 0.557690
0.500745 0.521951 0.557690
0.500749 0.521953 0.557690
0.500753 0.521954 0.557690
0.359607 0.322375 0.014084
0.377247 0.365894 0.035233
0.378810 0.367858 0.033301
0.378031 0.372550 0.054406
0.367046 0.372948 0.107511
0.363117 0.374913 0.162837
0.361950 0.375311 0.181183
0.361954 0.375321 0.181189
0.363900 0.377272 0.182748
0.363902 0.377273 0.182750
0.367417 0.381175 0.187044
0.384601 0.401068 0.215154
0.411382 0.429826 0.248236
0.427079 0.448314 0.273317
0.441183 0.477322 0.283904
0.445498 0.493389 0.284696
0.470589 0.496855 0.436176
0.475286 0.490181 0.481966
0.475287 0.490183 0.481969
0.475287 0.490184 0.481971
0.476065 0.490964 0.482751
0.479209 0.497646 0.505471
0.484301 0.503936 0.521583
0.486684 0.507894 0.531487
0.493723 0.514558 0.545620
0.499559 0.520004 0.558459
0.500341 0.521171 0.558850
0.500734 0.521949 0.557687
0.500739 0.521951 0.557688
0.500744 0.521953 0.557688
0.500749 0.521954 0.557689
0.500753 0.521956 0.557689
0.500756 0.521957 0.557688
0.381940 0.370198 0.024671
0.382333 0.374117 0.034069
0.382332 0.374116 0.034078
0.381942 0.374506 0.037605
0.366266 0.373738 0.120809
0.362734 0.375310 0.162832
0.361955 0.375319 0.181187
0.363902 0.377270 0.182747
0.363903 0.377271 0.182749
0.367420 0.381177 0.187045
0.389708 0.414007 0.211264
0.431402 0.478102 0.246675
0.445096 0.503944 0.259973
0.449401 0.510605 0.263136
0.449028 0.510243 0.264741
0.454893 0.510652 0.294043
0.467068 0.505849 0.397043
0.475288 0.490186 0.481966
0.475288 0.490188 0.481969
0.476067 0.490968 0.482750
0.479584 0.499952 0.506176
0.480783 0.501574 0.507895
0.486661 0.507865 0.531410
0.489818 0.511038 0.537400
0.500335 0.521171 0.558843
0.500728 0.521949 0.557681
0.500734 0.521951 0.557683
0.500739 0.521953 0.557685
0.500744 0.521954 0.557686
0.500748 0.521956 0.557686
0.500752 0.521957 0.557687
0.500756 0.521958 0.557687
0.500759 0.521959 0.557687
0.382730 0.372557 0.028581
0.382339 0.374121 0.034060
0.381948 0.374511 0.037587
0.381949 0.374511 0.037594
0.370561 0.376477 0.105216
0.362738 0.375317 0.162828
0.364683 0.378047 0.181189
0.364684 0.378048 0.181191
0.374450 0.393277 0.192123
0.402315 0.440727 0.215265
0.436130 0.487567 0.249815
0.448213 0.510186 0.260746
0.449395 0.510603 0.263123
0.449411 0.510630 0.263166
0.449426 0.510656 0.263207
0.459183 0.517683 0.297170
0.467049 0.505889 0.396837
0.472558 0.492927 0.462061
0.476069 0.490973 0.482748
0.476071 0.490977 0.482752
0.480382 0.501549 0.506264
0.483136 0.503942 0.515367
0.489801 0.511016 0.537341
0.500724 0.521950 0.557673
0.500729 0.521952 0.557676
0.500734 0.521954 0.557679
0.500739 0.521955 0.557681
0.500743 0.521956 0.557682
0.500748 0.521958 0.557684
0.500752 0.521959 0.557684
0.500755 0.521960 0.557685
0.500759 0.521961 0.557685
0.500762 0.521962 0.557685
0.388209 0.378816 0.023501
0.389385 0.380382 0.024285
0.389388 0.380384 0.024286
0.389392 0.380386 0.024288
0.372519 0.378043 0.102879
0.365470 0.378047 0.162827
0.364688 0.378048 0.181188
0.397881 0.431539 0.212423
0.402459 0.440943 0.215377
0.449766 0.508606 0.249036
0.449382 0.511739 0.257238
0.450949 0.512934 0.257667
0.449405 0.510626 0.263152
0.449420 0.510652 0.263192
0.450603 0.511065 0.267517
0.465060 0.526301 0.308127
0.471728 0.518442 0.376712
0.474107 0.497623 0.463529
0.476462 0.492929 0.483140
0.480371 0.501524 0.506189
0.481957 0.502751 0.509069
0.485495 0.506314 0.523632
0.493720 0.515333 0.543646
0.500730 0.521954 0.557670
0.500735 0.521956 0.557674
0.500739 0.521957 0.557676
0.500744 0.521959 0.557678
0.500748 0.521960 0.557680
0.500752 0.521961 0.557681
0.500756 0.521962 0.557682
0.500759 0.521963 0.557683
0.500762 0.521963 0.557683
0.510124 0.528982 0.565476
0.389394 0.380388 0.024282
0.396444 0.386263 0.019585
0.396447 0.386264 0.019587
0.396450 0.386266 0.019590
0.377216 0.381951 0.099726
0.373283 0.390542 0.169081
0.402311 0.440721 0.215261
0.440807 0.494952 0.242773
0.449775 0.508609 0.249028
0.450948 0.512131 0.254894
0.450954 0.512932 0.257655
0.450963 0.512956 0.257692
0.450583 0.512981 0.259286
0.450206 0.512616 0.262436
0.465822 0.529797 0.292114
0.470539 0.533343 0.314386
0.470958 0.521255 0.364782
0.475280 0.507819 0.432953
0.478415 0.496443 0.485089
0.480388 0.501559 0.506271
0.482363 0.503952 0.508747
0.489808 0.511025 0.537354
0.500733 0.521957 0.557664
0.500737 0.521959 0.557668
0.500741 0.521960 0.557671
0.500745 0.521961 0.557674
0.500749 0.521962 0.557676
0.500753 0.521963 0.557678
0.500756 0.521964 0.557679
0.500759 0.521965 0.557680
0.500762 0.521965 0.557681
0.510126 0.528985 0.565476
0.510150 0.528999 0.565486
0.396448 0.386264 0.019588
0.396450 0.386266 0.019590
0.396453 0.386267 0.019592
0.396456 0.386268 0.019595
0.386235 0.402314 0.137272
0.409868 0.450681 0.213774
0.448610 0.504308 0.236513
0.450563 0.510564 0.247461
0.452128 0.510965 0.252160
0.450960 0.512150 0.254912
0.450967 0.512953 0.257678
0.450975 0.512976 0.257713
0.450594 0.512999 0.259306
0.464641 0.527836 0.288191
0.467802 0.532944 0.295290
0.474842 0.540364 0.313248
0.476437 0.540778 0.314873
0.477244 0.517670 0.403040
0.480768 0.501147 0.499949
0.482356 0.503934 0.508681
0.485501 0.507491 0.516215
0.498014 0.520793 0.549485
0.500739 0.521961 0.557662
0.500743 0.521962 0.557666
0.500747 0.521963 0.557669
0.500750 0.521964 0.557671
0.500754 0.521965 0.557673
0.500757 0.521966 0.557675
0.500760 0.521967 0.557677
0.500763 0.521967 0.557678
0.510129 0.528988 0.565475
0.514830 0.532900 0.567824
0.514855 0.532915 0.567834
0.396453 0.386267 0.019592
0.396455 0.386268 0.019594
0.396458 0.386269 0.019597
0.396461 0.386270 0.019599
0.448615 0.504291 0.236455
0.450178 0.505479 0.236881
0.450571 0.510570 0.247453
0.451355 0.511751 0.250201
0.451358 0.511761 0.250215
0.450971 0.512950 0.257666
0.450978 0.512971 0.257698
0.454891 0.516115 0.259291
0.459182 0.520029 0.262438
0.467788 0.532930 0.295260
0.475609 0.540356 0.308948
0.475644 0.540380 0.309003
0.476459 0.540792 0.314905
0.479215 0.525180 0.391486
0.483526 0.510588 0.494863
0.484716 0.507478 0.511859
0.496844 0.521180 0.540076
0.499967 0.521965 0.554931
0.499967 0.521965 0.554935
0.500749 0.521966 0.557663
0.500752 0.521967 0.557666
0.500755 0.521967 0.557669
0.500758 0.521968 0.557671
0.500761 0.521969 0.557673
0.500764 0.521969 0.557674
0.510912 0.530161 0.564696
0.514834 0.532903 0.567823
0.514859 0.532918 0.567833
0.514881 0.532930 0.567842
0.396457 0.386269 0.019596
0.396459 0.386270 0.019598
0.396462 0.386271 0.019600
0.441184 0.491379 0.211399
0.450184 0.505479 0.236864
0.450577 0.510575 0.247447
0.451362 0.511756 0.250196
0.451365 0.511765 0.250208
0.450193 0.512950 0.252963
0.456066 0.518442 0.258075
0.457238 0.520796 0.257711
0.457237 0.520805 0.257738
0.466220 0.530189 0.288996
0.472488 0.536847 0.301538
0.475634 0.540372 0.308983
0.476445 0.540783 0.314875
0.476478 0.540804 0.314932
0.484688 0.547057 0.327843
0.489801 0.531386 0.450542
0.491767 0.514928 0.524016
0.498802 0.522745 0.545161
0.499972 0.521968 0.554927
0.501531 0.523526 0.556488
0.500754 0.521969 0.557661
0.500757 0.521969 0.557664
0.500760 0.521970 0.557666
0.500763 0.521970 0.557669
0.500765 0.521971 0.557671
0.510915 0.530164 0.564693
0.514838 0.532907 0.567823
0.514863 0.532921 0.567833
0.514886 0.532934 0.567842
0.514906 0.532945 0.567850
0.396460 0.386270 0.019599
0.396463 0.386271 0.019601
0.436082 0.480000 0.192548
0.450189 0.505479 0.236851
0.451757 0.509407 0.244705
0.451368 0.511760 0.250191
0.451370 0.511768 0.250202
0.453330 0.513343 0.250997
0.457243 0.520786 0.257667
0.457242 0.520794 0.257691
0.457241 0.520802 0.257715
0.457240 0.520810 0.257739
0.467807 0.532944 0.295286
0.475625 0.540365 0.308966
0.475655 0.540386 0.309012
0.476465 0.540796 0.314903
0.484680 0.547053 0.327820
0.486651 0.548236 0.332148
0.489800 0.534925 0.437149
0.496068 0.524696 0.514254
0.498807 0.522748 0.545164
0.502315 0.525476 0.554144
0.501536 0.523528 0.556485
0.501538 0.523528 0.556489
0.503099 0.525477 0.556882
0.503101 0.525477 0.556885
0.503104 0.525477 0.556887
0.510919 0.530167 0.564691
