lut/com_it.cube
TITLE
LUT_3D_SIZE 5
DOMAIN_MIN 0.0 0.0 0.0
DOMAIN_MAX 1.0 1.0 1.0
0.003922 0.000000 0.023529
0.381412 0.021053 0.000000
0.404091 0.085529 0.000000
0.424334 0.086706 0.000000
0.449875 0.107719 0.019598
0.000000 0.098890 0.036539
0.153228 0.111964 0.000386
0.374137 0.157255 0.000000
0.453719 0.105227 0.008567
0.428626 0.167440 0.047038
0.007470 0.200821 0.131707
0.266394 0.228959 0.042809
0.408663 0.241698 0.045289
0.452110 0.308707 0.088550
0.513345 0.463157 0.211098
0.023540 0.250594 0.178408
0.373941 0.267778 0.055756
0.415868 0.318266 0.086367
0.451092 0.488410 0.206745
0.582641 0.493327 0.248757
0.261931 0.322770 0.117033
0.405871 0.323243 0.089759
0.420277 0.470978 0.188649
0.542353 0.508208 0.251688
0.623458 0.483061 0.247337
0.000000 0.040133 0.164717
0.074836 0.079960 0.120954
0.301182 0.124639 0.058748
0.423537 0.132548 0.037218
0.344230 0.209050 0.150249
0.000000 0.128623 0.206816
0.078431 0.156863 0.192157
0.419049 0.151408 0.036260
0.339129 0.224485 0.143163
0.343571 0.251417 0.260975
0.001520 0.222160 0.199144
0.077229 0.301819 0.195252
0.407870 0.277253 0.073143
0.546047 0.323345 0.132922
0.567497 0.495806 0.255486
0.050027 0.288302 0.213932
0.184628 0.382083 0.179818
0.347874 0.422655 0.136445
0.471801 0.544290 0.262521
0.626392 0.492738 0.250091
0.136984 0.380705 0.232691
0.292389 0.492517 0.223241
0.397327 0.551561 0.262184
0.578383 0.510972 0.264888
0.635552 0.501920 0.262111
0.001957 0.096971 0.242075
0.039598 0.125120 0.260814
0.199013 0.170503 0.228994
0.274898 0.201950 0.248785
0.340081 0.242385 0.287892
0.005886 0.154781 0.287863
0.066751 0.172746 0.312856
0.225425 0.213719 0.286324
0.361414 0.257845 0.303036
0.451893 0.318890 0.325166
0.055659 0.248425 0.286846
0.095019 0.297849 0.336342
0.235294 0.333333 0.305882
0.503320 0.368337 0.314276
0.543152 0.434491 0.358797
0.088915 0.309155 0.301050
0.174011 0.466302 0.305899
0.269158 0.533939 0.315468
0.501449 0.569387 0.354197
0.757564 0.526236 0.348561
0.201119 0.487709 0.316623
0.272678 0.535036 0.311873
0.395258 0.597212 0.363003
0.497682 0.584976 0.406892
0.754478 0.541112 0.374484
0.029397 0.149431 0.289807
0.093329 0.186279 0.326672
0.114197 0.207552 0.355502
0.311301 0.247414 0.339219
0.451740 0.336822 0.361581
0.048579 0.208203 0.343576
0.058676 0.243841 0.395678
0.176974 0.276948 0.425165
0.416083 0.334952 0.409095
0.533654 0.417637 0.419176
0.046683 0.271829 0.388584
0.054141 0.320816 0.485151
0.249347 0.378512 0.509488
0.486537 0.416968 0.462254
0.648913 0.421545 0.498961
0.096361 0.359754 0.420757
0.192853 0.442971 0.487831
0.290201 0.502943 0.510158
0.505882 0.643137 0.529412
0.629414 0.646235 0.587745
0.207686 0.474636 0.447874
0.287881 0.536383 0.458307
0.449583 0.643387 0.464333
0.576422 0.682997 0.539280
0.705884 0.657801 0.462168
0.052126 0.200803 0.347080
0.113720 0.224641 0.374115
0.171203 0.274105 0.423921
0.305021 0.364320 0.511477
0.490095 0.412508 0.449027
0.036072 0.277595 0.427014
0.075353 0.316826 0.483894
0.274322 0.363856 0.516913
0.344247 0.414424 0.540775
0.618048 0.429802 0.556460
0.051795 0.318066 0.481216
0.207112 0.415835 0.518032
0.307529 0.450345 0.523541
0.483727 0.496154 0.588557
0.612159 0.482731 0.588637
0.167126 0.417422 0.512113
0.300229 0.478039 0.519254
0.349101 0.554242 0.555350
0.613546 0.681976 0.649758
0.647071 0.712975 0.664708
0.284077 0.480685 0.515671
0.330950 0.547737 0.543093
0.551880 0.696121 0.595735
0.637625 0.726311 0.639629
0.952125 0.891350 0.766924
