lut/com_it.cube
TITLE
LUT_3D_SIZE 9
DOMAIN_MIN 0.0 0.0 0.0
DOMAIN_MAX 1.0 1.0 1.0
0.003922 0.000000 0.023529
0.368741 0.012908 0.000000
0.381412 0.021053 0.000000
0.363981 0.047962 0.000000
0.404091 0.085529 0.000000
0.403744 0.095305 0.000000
0.424334 0.086706 0.000000
0.450350 0.097361 0.014042
0.449875 0.107719 0.019598
0.000000 0.044356 0.002770
0.228262 0.109188 0.000000
0.337384 0.069186 0.000000
0.407878 0.044126 0.000000
0.396188 0.107595 0.000000
0.406308 0.112901 0.000000
0.468288 0.066952 0.000000
0.457702 0.096403 0.014092
0.442394 0.130948 0.033302
0.000000 0.098890 0.036539
0.041710 0.124033 0.009039
0.153228 0.111964 0.000386
0.349564 0.162403 0.000378
0.374137 0.157255 0.000000
0.446933 0.100997 0.000000
0.453719 0.105227 0.008567
0.436961 0.141819 0.024973
0.428626 0.167440 0.047038
0.002357 0.172377 0.127131
0.053776 0.196142 0.053840
0.157800 0.210296 0.033330
0.335037 0.193073 0.007501
0.418117 0.128148 0.003090
0.444309 0.118526 0.008641
0.443816 0.128867 0.014944
0.423795 0.192943 0.044888
0.499139 0.281005 0.102496
0.007470 0.200821 0.131707
0.061358 0.228566 0.085029
0.266394 0.228959 0.042809
0.388150 0.212548 0.030087
0.408663 0.241698 0.045289
0.421682 0.283087 0.064395
0.452110 0.308707 0.088550
0.478426 0.351388 0.121611
0.513345 0.463157 0.211098
0.008248 0.217254 0.148976
0.155389 0.240436 0.075037
0.364411 0.221342 0.036121
0.401290 0.258494 0.051610
0.402121 0.296901 0.071148
0.430676 0.317056 0.087447
0.458490 0.365337 0.124280
0.488364 0.467707 0.203900
0.541423 0.494126 0.237121
0.023540 0.250594 0.178408
0.244697 0.282611 0.101057
0.373941 0.267778 0.055756
0.398235 0.301652 0.073198
0.415868 0.318266 0.086367
0.436327 0.374950 0.123379
0.451092 0.488410 0.206745
0.535062 0.497185 0.238482
0.582641 0.493327 0.248757
0.113073 0.292802 0.166869
0.311367 0.307210 0.091315
0.390190 0.321206 0.083271
0.406308 0.322639 0.089479
0.419669 0.391422 0.130119
0.437544 0.491858 0.209834
0.505129 0.487412 0.226083
0.576327 0.496679 0.250290
0.623296 0.482830 0.247250
0.261931 0.322770 0.117033
0.389718 0.322019 0.083677
0.405871 0.323243 0.089759
0.412122 0.399548 0.137431
0.420277 0.470978 0.188649
0.486146 0.485664 0.217356
0.542353 0.508208 0.251688
0.595426 0.491399 0.249488
0.623458 0.483061 0.247337
0.000000 0.027345 0.041502
0.013880 0.030004 0.047345
0.169752 0.038383 0.000000
0.345250 0.076972 0.001477
0.403692 0.095281 0.000000
0.402037 0.109758 0.000000
0.445673 0.098100 0.014394
0.447121 0.111655 0.023892
0.424362 0.149395 0.051347
0.000000 0.058617 0.097392
0.019608 0.070588 0.082353
0.176862 0.061922 0.001113
0.390792 0.092821 0.000000
0.398374 0.114544 0.000000
0.461364 0.071422 0.001938
0.447199 0.111564 0.023886
0.435675 0.145536 0.042386
0.389767 0.197327 0.087146
0.000000 0.130400 0.121853
0.012519 0.151185 0.088354
0.122985 0.163511 0.030182
0.363860 0.164118 0.000000
0.454872 0.084788 0.000000
0.458117 0.101587 0.012424
0.430713 0.159843 0.041878
0.392873 0.193944 0.083223
0.340882 0.230670 0.154262
0.000391 0.183234 0.162825
0.014834 0.214240 0.129572
0.165272 0.234455 0.044422
0.355077 0.186351 0.016594
0.427707 0.138812 0.014289
0.413776 0.172224 0.035626
0.378653 0.217717 0.079280
0.335970 0.253225 0.157308
0.419431 0.286322 0.176781
0.001163 0.210337 0.175055
0.027050 0.238453 0.154153
0.240127 0.246240 0.062682
0.351795 0.229569 0.044427
0.419914 0.252508 0.047881
0.434699 0.279459 0.065039
0.490851 0.316748 0.103368
0.491290 0.405408 0.160314
0.568838 0.474638 0.236897
0.008149 0.234040 0.185188
0.072388 0.292860 0.184179
0.254295 0.286531 0.096578
0.382087 0.275499 0.058838
0.398888 0.307051 0.076222
0.433712 0.335763 0.100904
0.465307 0.410751 0.154480
0.507008 0.491525 0.228486
0.603589 0.492984 0.250359
0.033224 0.270230 0.199621
0.098571 0.307760 0.179895
0.327591 0.315107 0.087550
0.388318 0.318326 0.080639
0.397629 0.356565 0.107754
0.422971 0.447408 0.169050
0.450584 0.491745 0.209122
0.568407 0.500744 0.251374
0.621471 0.483526 0.246515
0.081036 0.305286 0.194197
0.215660 0.335586 0.141911
0.373105 0.334979 0.087825
0.396406 0.358108 0.108523
0.399795 0.450045 0.168154
0.437157 0.493824 0.211235
0.534081 0.514181 0.253254
0.610189 0.486663 0.248092
0.623530 0.482893 0.247314
0.112335 0.333025 0.191057
0.310768 0.360185 0.121235
0.380928 0.373329 0.115035
0.398195 0.450992 0.168532
0.431932 0.492515 0.209158
0.511152 0.518792 0.248850
0.556134 0.508041 0.257623
0.623277 0.482757 0.247233
0.625977 0.485147 0.248932
0.000000 0.040133 0.164717
0.001588 0.046953 0.171234
0.074836 0.079960 0.120954
0.173172 0.093032 0.075486
0.301182 0.124639 0.058748
0.431713 0.104317 0.014442
0.423537 0.132548 0.037218
0.385740 0.176936 0.089188
0.344230 0.209050 0.150249
0.000000 0.058605 0.203340
0.000685 0.075539 0.204142
0.078373 0.101246 0.165690
0.146228 0.126511 0.134314
0.376387 0.120475 0.036640
0.423739 0.132512 0.037057
0.378058 0.186612 0.099586
0.341557 0.219583 0.141218
0.326697 0.231356 0.203484
0.000000 0.128623 0.206816
0.000000 0.153895 0.217563
0.078431 0.156863 0.192157
0.156080 0.166844 0.166691
0.419049 0.151408 0.036260
0.407197 0.178397 0.068631
0.339129 0.224485 0.143163
0.324411 0.236030 0.189669
0.343571 0.251417 0.260975
0.000000 0.210339 0.189415
0.008301 0.234293 0.200810
0.075918 0.255618 0.184859
0.187732 0.262547 0.136102
0.290176 0.258473 0.112731
0.340884 0.245689 0.133554
0.320444 0.258529 0.179169
0.345225 0.285102 0.258931
0.419855 0.319060 0.280455
0.001520 0.222160 0.199144
0.037307 0.271621 0.203880
0.077229 0.301819 0.195252
0.195447 0.338561 0.144733
0.407870 0.277253 0.073143
0.386369 0.328214 0.151654
0.546047 0.323345 0.132922
0.549616 0.339072 0.172488
0.567497 0.495806 0.255486
0.025845 0.262319 0.204253
0.059117 0.294954 0.208440
0.119196 0.324003 0.190391
0.270725 0.372894 0.133402
0.329505 0.396202 0.111844
0.454390 0.373716 0.124688
0.483177 0.416782 0.168781
0.543782 0.499869 0.252467
0.617283 0.490554 0.247839
0.050027 0.288302 0.213932
0.094338 0.313150 0.200481
0.184628 0.382083 0.179818
0.291082 0.412320 0.135127
0.347874 0.422655 0.136445
0.398626 0.469488 0.181811
0.471801 0.544290 0.262521
0.609631 0.490454 0.247873
0.626392 0.492738 0.250091
0.077485 0.306479 0.212067
0.165028 0.383765 0.199071
0.270110 0.448925 0.185190
0.317861 0.461902 0.177818
0.389733 0.468398 0.182190
0.427124 0.546330 0.255738
0.563842 0.519901 0.267705
0.621486 0.482370 0.246297
0.635633 0.493475 0.256112
0.136984 0.380705 0.232691
0.231731 0.476532 0.244743
0.292389 0.492517 0.223241
0.355377 0.497361 0.198889
0.397327 0.551561 0.262184
0.524442 0.539591 0.274045
0.578383 0.510972 0.264888
0.622690 0.496042 0.253450
0.635552 0.501920 0.262111
0.000000 0.074131 0.219263
0.004989 0.085180 0.217461
0.028290 0.106648 0.242333
0.124277 0.130529 0.201948
0.199474 0.159241 0.193013
0.247669 0.174499 0.192012
0.263310 0.193772 0.220618
0.303504 0.214112 0.210953
0.325848 0.230585 0.238939
0.000000 0.082739 0.232582
0.004592 0.107573 0.246893
0.040344 0.121744 0.256612
0.137180 0.153462 0.231734
0.192442 0.168727 0.223892
0.259991 0.191734 0.225042
0.289842 0.211779 0.232425
0.328888 0.233681 0.244912
0.340871 0.250200 0.281641
0.000000 0.125189 0.276579
0.004536 0.143373 0.288340
0.055487 0.150196 0.287748
0.144903 0.179861 0.246420
0.227368 0.184791 0.235195
0.284073 0.208728 0.233875
0.321036 0.236243 0.260314
0.350305 0.258070 0.290266
0.388691 0.281576 0.310963
0.001554 0.204112 0.231889
0.021486 0.215134 0.263258
0.073780 0.242830 0.270588
0.137255 0.243137 0.262745
0.240218 0.247334 0.242227
0.313704 0.245906 0.255457
0.348667 0.274163 0.284020
0.408950 0.294460 0.311704
0.493624 0.350482 0.306315
0.011283 0.240303 0.217146
0.049243 0.276798 0.250990
0.086501 0.292928 0.262624
0.156674 0.325632 0.244321
0.258203 0.341625 0.226598
0.320430 0.346664 0.242173
0.438427 0.362956 0.272644
0.491644 0.370967 0.289716
0.514486 0.418113 0.332217
0.050622 0.285214 0.240265
0.067002 0.296074 0.242620
0.110855 0.322671 0.262628
0.182366 0.413972 0.245515
0.298990 0.452905 0.198355
0.511964 0.398799 0.172153
0.584106 0.406326 0.201834
0.503275 0.567770 0.321769
0.618858 0.523672 0.284903
0.059281 0.296312 0.247729
0.102996 0.323359 0.262345
0.172736 0.432367 0.272574
0.268183 0.483418 0.234018
0.329469 0.505980 0.228816
0.391911 0.558738 0.270562
0.473224 0.574034 0.329939
0.574689 0.542447 0.291796
0.660189 0.511285 0.277799
0.088556 0.317031 0.256993
0.173614 0.425882 0.262663
0.242701 0.509310 0.283702
0.282600 0.528412 0.279481
0.375329 0.566259 0.288317
0.411076 0.592341 0.336260
0.498937 0.571996 0.326935
0.626663 0.509981 0.259928
0.682067 0.514071 0.294969
0.208502 0.476312 0.280625
0.242722 0.509684 0.284344
0.291008 0.541704 0.293590
0.309607 0.554378 0.302443
0.406927 0.595389 0.336011
0.428154 0.594261 0.351506
0.563597 0.551312 0.304191
0.620863 0.530242 0.285820
0.680116 0.525922 0.306134
0.001957 0.096971 0.242075
0.025985 0.112607 0.248067
0.039598 0.125120 0.260814
0.068719 0.157314 0.296937
0.199013 0.170503 0.228994
0.248141 0.189736 0.243108
0.274898 0.201950 0.248785
0.325048 0.231720 0.278832
0.340081 0.242385 0.287892
0.005834 0.125687 0.272775
0.027685 0.143540 0.281988
0.063500 0.154937 0.294901
0.086290 0.173356 0.313349
0.212429 0.187064 0.247858
0.270708 0.204634 0.260472
0.316511 0.227042 0.276563
0.356067 0.254063 0.297652
0.408495 0.288906 0.323080
0.005886 0.154781 0.287863
0.035304 0.167231 0.303084
0.066751 0.172746 0.312856
0.099285 0.191476 0.330367
0.225425 0.213719 0.286324
0.302784 0.228742 0.287944
0.361414 0.257845 0.303036
0.410866 0.290478 0.325423
0.451893 0.318890 0.325166
0.022285 0.188985 0.293042
0.059209 0.212951 0.313737
0.079208 0.235244 0.324711
0.127983 0.233027 0.338504
0.247785 0.236065 0.314965
0.351205 0.259329 0.309503
0.411736 0.291092 0.325792
0.480667 0.343682 0.328209
0.513436 0.395625 0.335940
0.055659 0.248425 0.286846
0.071010 0.260727 0.310288
0.095019 0.297849 0.336342
0.138008 0.322048 0.336122
0.235294 0.333333 0.305882
0.378740 0.344276 0.318079
0.503320 0.368337 0.314276
0.518878 0.414217 0.333368
0.543152 0.434491 0.358797
0.069421 0.281777 0.295943
0.099473 0.310834 0.317061
0.113131 0.346847 0.342820
0.159803 0.461655 0.319999
0.273216 0.496097 0.284148
0.410495 0.497851 0.307824
0.489855 0.453285 0.343126
0.518641 0.463051 0.364629
0.645498 0.462140 0.349370
0.088915 0.309155 0.301050
0.117938 0.357531 0.333208
0.174011 0.466302 0.305899
0.228424 0.519101 0.313875
0.269158 0.533939 0.315468
0.454048 0.558999 0.309142
0.501449 0.569387 0.354197
0.527945 0.579184 0.359971
0.757564 0.526236 0.348561
0.116980 0.352735 0.316793
0.208221 0.500241 0.314826
0.227427 0.517930 0.311413
0.275911 0.539027 0.317004
0.346383 0.580370 0.342640
0.425736 0.600623 0.356155
0.472014 0.584304 0.388862
0.665244 0.544348 0.302034
0.763319 0.534771 0.378574
0.201119 0.487709 0.316623
0.226839 0.517561 0.311277
0.272678 0.535036 0.311873
0.328733 0.570168 0.333573
0.395258 0.597212 0.363003
0.447871 0.603002 0.381797
0.497682 0.584976 0.406892
0.706020 0.545460 0.346827
0.754478 0.541112 0.374484
0.019842 0.137429 0.279423
0.033249 0.147001 0.286612
0.069849 0.160856 0.300463
0.092096 0.182668 0.322285
0.104260 0.197196 0.340714
0.262495 0.205839 0.267042
0.306664 0.220755 0.275736
0.342739 0.244275 0.295286
0.380845 0.268652 0.314151
0.031691 0.154831 0.293639
0.046928 0.161220 0.300832
0.087056 0.181168 0.321559
0.104214 0.198328 0.341811
0.120403 0.208750 0.352502
0.266449 0.227833 0.313430
0.334226 0.246190 0.307657
0.399957 0.283070 0.324690
0.438843 0.311352 0.335727
0.036035 0.179826 0.306677
0.061801 0.189307 0.323539
0.076454 0.205956 0.352243
0.114037 0.209330 0.358320
0.171830 0.243002 0.395305
0.305140 0.253123 0.351696
0.383140 0.281912 0.349752
0.472399 0.339054 0.337768
0.512557 0.406273 0.363567
0.058012 0.207804 0.315336
0.052580 0.242340 0.367470
0.033697 0.260984 0.406928
0.095058 0.267968 0.424165
0.186591 0.269368 0.416837
0.357207 0.285562 0.384334
0.437299 0.333250 0.382295
0.514122 0.420309 0.379154
0.580774 0.418408 0.372975
0.078835 0.264091 0.333783
0.058969 0.272307 0.374379
0.039592 0.303561 0.454929
0.060807 0.320557 0.483297
0.231622 0.328234 0.453040
0.392092 0.350315 0.417447
0.492182 0.410048 0.386727
0.547511 0.427446 0.379142
0.675350 0.401017 0.370732
0.081845 0.287579 0.350340
0.093445 0.327367 0.374100
0.100038 0.360762 0.422863
0.112617 0.393885 0.478931
0.241331 0.460826 0.453790
0.385116 0.482353 0.404724
0.510712 0.483584 0.378347
0.698502 0.405306 0.360011
0.702781 0.445899 0.458004
0.103944 0.334698 0.366088
0.111488 0.349560 0.373565
0.145555 0.416276 0.384664
0.242371 0.497070 0.415753
0.280249 0.520854 0.421247
0.395716 0.546743 0.403509
0.492750 0.565933 0.397248
0.705647 0.493910 0.426706
0.749029 0.547401 0.378848
0.123555 0.372490 0.355760
0.198188 0.486473 0.340121
0.221099 0.507957 0.325229
0.283090 0.539286 0.362217
0.335654 0.567429 0.380064
0.458543 0.621351 0.420142
0.485929 0.601894 0.414282
0.729961 0.548482 0.371331
0.744715 0.557156 0.376523
0.204302 0.484451 0.332714
0.220063 0.510979 0.323334
0.280946 0.540838 0.322139
0.365475 0.604900 0.394330
0.434320 0.627882 0.429776
0.463204 0.629887 0.440675
0.540159 0.619672 0.448299
0.692086 0.600907 0.413152
0.729657 0.599000 0.394494
0.029397 0.149431 0.289807
0.047087 0.160819 0.301201
0.093329 0.186279 0.326672
0.106657 0.201166 0.347059
0.114197 0.207552 0.355502
0.219781 0.236034 0.361106
0.311301 0.247414 0.339219
0.376091 0.276846 0.345860
0.451740 0.336822 0.361581
0.043464 0.164744 0.302823
0.058429 0.187394 0.329763
0.106666 0.201964 0.347857
0.116505 0.209898 0.358669
0.158992 0.249672 0.403113
0.220432 0.258689 0.391077
0.363497 0.287022 0.382339
0.434122 0.340040 0.399661
0.505061 0.415653 0.416071
0.048579 0.208203 0.343576
0.041438 0.230734 0.382889
0.058676 0.243841 0.395678
0.139296 0.258046 0.414961
0.176974 0.276948 0.425165
0.292708 0.300014 0.443105
0.416083 0.334952 0.409095
0.482697 0.408191 0.433339
0.533654 0.417637 0.419176
0.048036 0.243540 0.378227
0.033310 0.262687 0.408191
0.041593 0.305895 0.464364
0.098078 0.307776 0.469378
0.225385 0.321009 0.472643
0.279635 0.346637 0.510627
0.450479 0.386350 0.434589
0.508927 0.418787 0.428283
0.625084 0.408923 0.444052
0.046683 0.271829 0.388584
0.040394 0.308236 0.465498
0.054141 0.320816 0.485151
0.098991 0.354812 0.534320
0.249347 0.378512 0.509488
0.316535 0.402114 0.533621
0.486537 0.416968 0.462254
0.632626 0.405500 0.467370
0.648913 0.421545 0.498961
0.058944 0.314150 0.418334
0.071385 0.339291 0.461319
0.119137 0.389091 0.509682
0.198544 0.438123 0.510170
0.270379 0.442437 0.512824
0.346776 0.443835 0.525490
0.510373 0.436960 0.525050
0.634109 0.438388 0.544310
0.636299 0.510293 0.528868
0.096361 0.359754 0.420757
0.131483 0.405270 0.481811
0.192853 0.442971 0.487831
0.239259 0.464226 0.499663
0.290201 0.502943 0.510158
0.326625 0.570158 0.533397
0.505882 0.643137 0.529412
0.630388 0.664922 0.605909
0.629414 0.646235 0.587745
0.125494 0.391402 0.457279
0.200917 0.458320 0.478956
0.236106 0.484278 0.466442
0.281402 0.509794 0.493827
0.323165 0.565540 0.537667
0.428556 0.669154 0.501678
0.599539 0.719946 0.596192
0.642731 0.720379 0.612892
0.650645 0.722375 0.615686
0.207686 0.474636 0.447874
0.238772 0.496605 0.429880
0.287881 0.536383 0.458307
0.370669 0.600272 0.458909
0.449583 0.643387 0.464333
0.499067 0.660512 0.491795
0.576422 0.682997 0.539280
0.694343 0.666494 0.499263
0.705884 0.657801 0.462168
0.045067 0.161229 0.301626
0.084295 0.187441 0.328622
0.106698 0.201218 0.347139
0.113419 0.207168 0.355503
0.149342 0.250544 0.403944
0.179923 0.260801 0.409438
0.348216 0.280769 0.383539
0.423192 0.349095 0.422397
0.481150 0.402756 0.433756
0.050140 0.202351 0.346685
0.070809 0.225202 0.378528
0.097401 0.216537 0.365264
0.149252 0.250572 0.403984
0.171186 0.274148 0.423950
0.235682 0.327050 0.483137
0.390492 0.352534 0.449871
0.470819 0.396431 0.434253
0.502696 0.416841 0.434126
0.035250 0.241973 0.392177
0.034895 0.268948 0.415631
0.057299 0.291367 0.454913
0.127195 0.304595 0.459821
0.211677 0.320694 0.472828
0.288615 0.360308 0.517276
0.366865 0.385593 0.498442
0.490015 0.412482 0.449052
0.581226 0.409818 0.474583
0.034102 0.271704 0.419937
0.041191 0.306679 0.464743
0.064688 0.318437 0.487062
0.117325 0.344662 0.516782
0.260826 0.367418 0.513017
0.311521 0.389118 0.531143
0.362666 0.408286 0.523647
0.561224 0.417644 0.503970
0.621186 0.427441 0.549781
0.040398 0.308240 0.465507
0.051808 0.318081 0.481239
0.109289 0.369291 0.528191
0.231438 0.422512 0.519553
0.278911 0.423483 0.519595
0.340250 0.413695 0.538972
0.382957 0.438270 0.546282
0.617611 0.432221 0.559734
0.621964 0.448219 0.570596
0.066296 0.338853 0.487857
0.120630 0.384231 0.521773
0.171360 0.417286 0.517156
0.246872 0.438838 0.515687
0.310884 0.473109 0.520874
0.364948 0.456052 0.540338
0.502884 0.484271 0.578918
0.616561 0.457500 0.574973
0.615791 0.582589 0.586047
0.119150 0.388979 0.509735
0.189092 0.433719 0.507426
0.219401 0.443935 0.511375
0.309855 0.481969 0.519622
0.321999 0.506571 0.527844
0.358372 0.587090 0.565853
0.617962 0.674580 0.630307
0.643565 0.701915 0.627073
0.650199 0.715679 0.620000
0.188318 0.436803 0.496954
0.200740 0.443962 0.505503
0.294049 0.484679 0.516065
0.320790 0.519534 0.530572
0.344944 0.582259 0.556006
0.471359 0.677573 0.550889
0.629103 0.719585 0.619934
0.643137 0.717647 0.623529
0.668648 0.718118 0.628580
0.204259 0.460001 0.482056
0.256320 0.484756 0.493984
0.331366 0.548207 0.534897
0.366102 0.602510 0.530670
0.434340 0.662447 0.513028
0.543947 0.693823 0.553860
0.642198 0.719344 0.617224
0.645869 0.736849 0.625104
0.724934 0.637277 0.428016
0.052126 0.200803 0.347080
0.094110 0.213766 0.362028
0.113720 0.224641 0.374115
0.141951 0.246332 0.398553
0.171203 0.274105 0.423921
0.235679 0.327062 0.483150
0.305021 0.364320 0.511477
0.405604 0.382404 0.468240
0.490095 0.412508 0.449027
0.037607 0.240017 0.390610
0.053798 0.263033 0.415605
0.097800 0.272838 0.432845
0.140905 0.288533 0.442211
0.223455 0.322325 0.476435
0.288696 0.360434 0.517323
0.323113 0.387488 0.524811
0.416170 0.403920 0.490097
0.530212 0.414897 0.486246
0.036072 0.277595 0.427014
0.046674 0.301601 0.463574
0.075353 0.316826 0.483894
0.163080 0.323125 0.477997
0.274322 0.363856 0.516913
0.311491 0.389063 0.531057
0.344247 0.414424 0.540775
0.505441 0.418067 0.523975
0.618048 0.429802 0.556460
0.041186 0.306678 0.464734
0.059979 0.316506 0.483555
0.107068 0.355301 0.523883
0.245113 0.406431 0.514928
0.309783 0.415433 0.530607
0.344360 0.414870 0.540405
0.364438 0.429415 0.543559
0.567038 0.453359 0.575409
0.617671 0.445859 0.573698
0.051795 0.318066 0.481216
0.132120 0.386635 0.525438
0.207112 0.415835 0.518032
0.274443 0.437199 0.519594
0.307529 0.450345 0.523541
0.372523 0.444239 0.543576
0.483727 0.496154 0.588557
0.561969 0.561955 0.631185
0.612159 0.482731 0.588637
0.125257 0.386463 0.512928
0.159909 0.409303 0.518763
0.250775 0.443127 0.515686
0.307608 0.468729 0.520447
0.318054 0.487635 0.525800
0.389970 0.532421 0.564333
0.559765 0.576651 0.633507
0.614789 0.668041 0.643470
0.641570 0.709800 0.644640
0.167126 0.417422 0.512113
0.233042 0.443129 0.515657
0.300229 0.478039 0.519254
0.317682 0.490187 0.525455
0.349101 0.554242 0.555350
0.427591 0.613192 0.585104
0.613546 0.681976 0.649758
0.639838 0.713770 0.656897
0.647071 0.712975 0.664708
0.198709 0.439997 0.509021
0.288141 0.472548 0.518423
0.315722 0.495692 0.523919
0.330934 0.547571 0.543045
0.395274 0.613334 0.573342
0.591441 0.707138 0.613815
0.636388 0.719708 0.651311
0.644072 0.718816 0.686283
0.701589 0.725976 0.680877
0.284077 0.480685 0.515671
0.315703 0.503486 0.524698
0.330950 0.547737 0.543093
0.374098 0.605090 0.563152
0.551880 0.696121 0.595735
0.630987 0.719625 0.627920
0.637625 0.726311 0.639629
0.673156 0.777215 0.711943
0.952125 0.891350 0.766924
