lut/com_it.cube
TITLE
LUT_3D_SIZE 33
DOMAIN_MIN 0.0 0.0 0.0
DOMAIN_MAX 1.0 1.0 1.0
0.003922 0.000000 0.023529
0.141176 0.054902 0.000000
0.188282 0.047276 0.000000
0.294133 0.039869 0.000000
0.368741 0.012908 0.000000
0.366168 0.024654 0.000000
0.413729 0.000000 0.000000
0.395537 0.012984 0.000000
0.381412 0.021053 0.000000
0.361067 0.024933 0.000000
0.323717 0.044910 0.000000
0.324880 0.040599 0.000000
0.363981 0.047962 0.000000
0.394595 0.043229 0.000000
0.400018 0.060188 0.000734
0.400315 0.072596 0.000000
0.404091 0.085529 0.000000
0.402026 0.094380 0.000000
0.404024 0.094763 0.000000
0.403866 0.095069 0.000000
0.403744 0.095305 0.000000
0.404033 0.095871 0.000000
0.410557 0.089819 0.000000
0.413698 0.087927 0.000000
0.424334 0.086706 0.000000
0.438544 0.083031 0.000000
0.443335 0.084087 0.001946
0.456977 0.074358 0.001956
0.450350 0.097361 0.014042
0.453042 0.093940 0.014079
0.453019 0.098272 0.014107
0.449894 0.107654 0.019569
0.449875 0.107719 0.019598
0.000000 0.007843 0.000000
0.015686 0.023529 0.000000
0.356552 0.012666 0.000000
0.337738 0.035851 0.000000
0.392592 0.000000 0.000000
0.410428 0.000000 0.000000
0.413885 0.000000 0.000000
0.397758 0.012572 0.000000
0.419236 0.000000 0.000000
0.362282 0.024848 0.000000
0.320167 0.047273 0.000000
0.374448 0.034800 0.000000
0.392529 0.032670 0.000000
0.404221 0.049544 0.000734
0.406092 0.053826 0.000000
0.398664 0.085273 0.000000
0.404094 0.085632 0.000000
0.402005 0.094455 0.000000
0.403976 0.094876 0.000000
0.404182 0.095578 0.000000
0.404061 0.095828 0.000000
0.411295 0.090232 0.000000
0.413676 0.087962 0.000000
0.413414 0.103076 0.000000
0.436193 0.084603 0.000000
0.446074 0.078623 0.000000
0.456988 0.074341 0.001953
0.453099 0.089141 0.009355
0.453065 0.093899 0.014066
0.453039 0.098249 0.014096
0.449911 0.107634 0.019557
0.449888 0.107709 0.019592
0.450643 0.112047 0.023892
0.000000 0.015170 0.000548
0.001033 0.021954 0.000000
0.162684 0.113189 0.000000
0.363172 0.021545 0.000000
0.367704 0.018944 0.000000
0.411457 0.000000 0.000000
0.414730 0.000000 0.000000
0.418508 0.000000 0.000000
0.404917 0.012871 0.000000
0.338351 0.063014 0.000000
0.385576 0.027880 0.000000
0.399857 0.018893 0.000000
0.411092 0.026263 0.000000
0.404572 0.049612 0.000726
0.397342 0.061478 0.000000
0.398706 0.085333 0.000000
0.398282 0.094772 0.000000
0.401572 0.098995 0.000000
0.404265 0.095434 0.000000
0.404100 0.095770 0.000000
0.405514 0.096015 0.000000
0.408201 0.098506 0.000000
0.412605 0.104269 0.000000
0.436157 0.084641 0.000000
0.449962 0.074737 0.000000
0.461281 0.071598 0.001949
0.461673 0.072779 0.001958
0.452317 0.098520 0.014047
0.453064 0.098222 0.014082
0.453037 0.098296 0.014110
0.454559 0.103428 0.019580
0.450261 0.112431 0.023493
0.450623 0.112892 0.023911
0.000339 0.036608 0.002042
0.002459 0.043432 0.002097
0.003151 0.050354 0.000352
0.240587 0.114732 0.000000
0.302837 0.066776 0.000000
0.403194 0.000000 0.000000
0.414952 0.000000 0.000000
0.418218 0.000000 0.000000
0.362923 0.048208 0.000000
0.361657 0.046126 0.000000
0.391735 0.019094 0.000000
0.396928 0.020860 0.000000
0.411377 0.026198 0.000000
0.404596 0.057429 0.000000
0.399194 0.082942 0.000000
0.397148 0.090622 0.000000
0.398474 0.103443 0.000000
0.399158 0.102725 0.000000
0.401860 0.100274 0.000000
0.401677 0.100639 0.000000
0.415908 0.088486 0.000000
0.410229 0.108199 0.000000
0.425613 0.095965 0.000000
0.449939 0.074771 0.000000
0.464393 0.063816 0.000000
0.465182 0.073158 0.001954
0.468683 0.070083 0.001961
0.457752 0.093914 0.014058
0.457714 0.096338 0.014090
0.454574 0.105741 0.019558
0.454543 0.105825 0.019594
0.450627 0.112897 0.023903
0.446712 0.123076 0.027821
0.000000 0.044356 0.002770
0.002534 0.058360 0.000406
0.002153 0.070988 0.000000
0.096198 0.068714 0.000000
0.228262 0.109188 0.000000
0.264563 0.102905 0.000000
0.336978 0.051553 0.000000
0.352617 0.052874 0.000000
0.337384 0.069186 0.000000
0.360807 0.047389 0.000000
0.390095 0.021630 0.000000
0.407005 0.018573 0.000000
0.407878 0.044126 0.000000
0.395995 0.086257 0.000000
0.400588 0.079565 0.000000
0.393465 0.105089 0.000000
0.396188 0.107595 0.000000
0.396533 0.107943 0.000000
0.396227 0.108489 0.000000
0.399116 0.113866 0.000000
0.406308 0.112901 0.000000
0.425589 0.097157 0.000000
0.453382 0.072895 0.000000
0.464765 0.065011 0.000000
0.468288 0.066952 0.000000
0.468678 0.070105 0.001955
0.466716 0.079898 0.006640
0.457739 0.096318 0.014060
0.457702 0.096403 0.014092
0.454558 0.105817 0.019571
0.451028 0.116395 0.023884
0.451001 0.116458 0.023914
0.442394 0.130948 0.033302
0.000000 0.061812 0.003562
0.000000 0.070338 0.003440
0.000000 0.090207 0.000000
0.007504 0.098679 0.000000
0.123602 0.116589 0.000796
0.154846 0.115231 0.000669
0.260400 0.111783 0.000000
0.251945 0.137551 0.000000
0.306994 0.101038 0.000000
0.369593 0.043389 0.000000
0.385777 0.033933 0.000000
0.406567 0.021545 0.000000
0.393487 0.085029 0.000000
0.391763 0.092807 0.000000
0.386666 0.108668 0.000000
0.394484 0.109126 0.000000
0.394748 0.113406 0.000000
0.394404 0.113987 0.000000
0.385071 0.134924 0.000000
0.404575 0.117385 0.000000
0.412633 0.114803 0.000000
0.445932 0.085811 0.000000
0.461987 0.072875 0.000000
0.468258 0.069364 0.000000
0.471784 0.066261 0.000000
0.469828 0.071369 0.001955
0.466692 0.079999 0.006648
0.456947 0.097172 0.012116
0.449906 0.115927 0.021484
0.449873 0.116002 0.021522
0.449845 0.116063 0.021552
0.442416 0.134040 0.033270
0.442361 0.134142 0.033329
0.000000 0.083942 0.019996
0.000000 0.090425 0.010663
0.000750 0.101646 0.003838
0.009339 0.105135 0.000376
0.061492 0.109813 0.000830
0.115827 0.113672 0.004223
0.157724 0.113749 0.000854
0.221618 0.125244 0.000000
0.306860 0.103274 0.000000
0.365571 0.053219 0.000000
0.387157 0.044049 0.000000
0.387028 0.062349 0.000000
0.359008 0.131915 0.000000
0.379318 0.113480 0.000000
0.382305 0.124055 0.000386
0.382638 0.133549 0.000000
0.377922 0.142959 0.000000
0.377581 0.147144 0.000000
0.387698 0.138607 0.000000
0.414737 0.118204 0.000000
0.434546 0.100355 0.000000
0.460380 0.081558 0.000000
0.460411 0.081585 0.000000
0.471358 0.066767 0.000000
0.472536 0.065609 0.000000
0.461236 0.089387 0.008568
0.461198 0.089478 0.008604
0.457678 0.100793 0.012122
0.449877 0.116011 0.021483
0.450620 0.117250 0.022301
0.442043 0.134794 0.031663
0.441980 0.134910 0.031735
0.441929 0.135005 0.031794
0.000000 0.090708 0.028454
0.000000 0.095138 0.011901
0.005025 0.105922 0.003961
0.017491 0.109791 0.000768
0.047415 0.110660 0.003200
0.087851 0.113785 0.007453
0.120918 0.103141 0.002409
0.158553 0.110200 0.000390
0.232405 0.108637 0.000000
0.336589 0.070364 0.000000
0.363022 0.050796 0.000000
0.350024 0.133504 0.000378
0.350748 0.147412 0.000000
0.350968 0.150575 0.000390
0.365393 0.154252 0.000392
0.371674 0.151169 0.000383
0.372503 0.153846 0.000000
0.372986 0.157235 0.000000
0.402563 0.131181 0.000000
0.431253 0.107560 0.000000
0.444766 0.101904 0.000000
0.460029 0.086724 0.000000
0.463530 0.082099 0.000000
0.466237 0.083686 0.001951
0.467782 0.081381 0.001960
0.461564 0.094979 0.008566
0.461535 0.095039 0.008601
0.452195 0.116428 0.017555
0.448672 0.123863 0.021868
0.448643 0.123924 0.021910
0.439656 0.138397 0.031300
0.434158 0.152883 0.037202
0.426710 0.164652 0.045446
0.000000 0.098890 0.036539
0.003428 0.105211 0.020802
0.008954 0.111525 0.016493
0.022814 0.119700 0.010517
0.041710 0.124033 0.009039
0.070401 0.126570 0.012523
0.080564 0.122106 0.011284
0.143118 0.113422 0.000000
0.153228 0.111964 0.000386
0.239207 0.094228 0.001179
0.297550 0.124170 0.000383
0.349848 0.148321 0.000000
0.349564 0.162403 0.000378
0.355942 0.162739 0.000772
0.364660 0.159658 0.000773
0.369467 0.157707 0.000379
0.374137 0.157255 0.000000
0.403078 0.134504 0.000000
0.427727 0.113047 0.000000
0.446652 0.101160 0.000000
0.446933 0.100997 0.000000
0.458502 0.096041 0.001935
0.453069 0.104627 0.005042
0.448015 0.113965 0.008531
0.453719 0.105227 0.008567
0.450601 0.112606 0.013224
0.450568 0.112665 0.013265
0.440473 0.134399 0.020660
0.436961 0.141819 0.024973
0.431502 0.152355 0.032401
0.429134 0.162556 0.038704
0.425970 0.169270 0.045784
0.428626 0.167440 0.047038
0.000000 0.108655 0.051560
0.004267 0.116464 0.039763
0.012889 0.123615 0.027058
0.035637 0.129602 0.016073
0.054051 0.140657 0.017261
0.061919 0.156920 0.024303
0.068723 0.158762 0.025957
0.110087 0.143712 0.013814
0.154563 0.124538 0.005044
0.198404 0.107857 0.001228
0.273556 0.129326 0.000801
0.337120 0.155322 0.000000
0.351566 0.163183 0.000746
0.357180 0.162386 0.000769
0.364477 0.161911 0.000381
0.371117 0.159568 0.000000
0.395293 0.141149 0.000000
0.422939 0.117826 0.000000
0.446555 0.101210 0.000000
0.450711 0.098722 0.000000
0.450822 0.104870 0.005009
0.453041 0.104663 0.005052
0.447991 0.113998 0.008538
0.447910 0.114141 0.008582
0.447850 0.114245 0.008615
0.445892 0.120441 0.013239
0.444325 0.131634 0.019423
0.441601 0.140626 0.024907
0.441587 0.140712 0.024983
0.429154 0.162513 0.038635
0.422512 0.171158 0.044552
0.425939 0.169345 0.045824
0.419249 0.175299 0.055257
0.000000 0.119276 0.068740
0.002353 0.137560 0.070833
0.013298 0.150058 0.058244
0.035858 0.158214 0.039359
0.061756 0.167474 0.027552
0.063922 0.169168 0.028539
0.072053 0.171751 0.030731
0.084604 0.177487 0.029152
0.135018 0.154289 0.017674
0.206613 0.128515 0.003935
0.281663 0.139534 0.001577
0.328569 0.153778 0.000000
0.353270 0.163581 0.000374
0.364306 0.161960 0.000000
0.369965 0.161097 0.000000
0.385400 0.149540 0.000000
0.416162 0.124205 0.000000
0.424913 0.115916 0.000000
0.445265 0.107180 0.003051
0.444247 0.110662 0.005017
0.452991 0.104719 0.005072
0.447951 0.114043 0.008550
0.447864 0.114204 0.008598
0.447801 0.114318 0.008634
0.445470 0.117443 0.008659
0.444304 0.131647 0.019388
0.444282 0.131771 0.019477
0.441574 0.140710 0.024935
0.441564 0.140787 0.025008
0.422555 0.171091 0.044465
0.422476 0.171241 0.044594
0.416581 0.177580 0.054414
0.405206 0.188601 0.067756
0.000784 0.148978 0.110870
0.002376 0.161651 0.095586
0.017968 0.173464 0.074317
0.043840 0.178176 0.048676
0.052529 0.176957 0.042024
0.065704 0.189754 0.041856
0.068766 0.191073 0.040212
0.077438 0.191654 0.038828
0.128840 0.189918 0.029416
0.187280 0.184507 0.017384
0.257811 0.169459 0.005352
0.344838 0.165927 0.000378
0.361889 0.163659 0.000000
0.366003 0.163135 0.000000
0.380941 0.154338 0.000000
0.395336 0.142737 0.000000
0.422362 0.119219 0.000000
0.446993 0.105037 0.003075
0.445269 0.107327 0.003127
0.450621 0.107848 0.005096
0.444459 0.118294 0.008567
0.444380 0.118457 0.008617
0.444321 0.118573 0.008654
0.444279 0.118654 0.008680
0.443878 0.128664 0.014837
0.443868 0.128778 0.014910
0.433941 0.142207 0.022968
0.431171 0.151175 0.028428
0.422983 0.165999 0.037807
0.412063 0.181633 0.047999
0.411971 0.181790 0.048129
0.412654 0.180378 0.052915
0.431474 0.221888 0.090083
0.002357 0.172377 0.127131
0.006251 0.190941 0.121030
0.019399 0.192555 0.091992
0.034510 0.191839 0.070192
0.053776 0.196142 0.053840
0.061209 0.195209 0.047591
0.066918 0.197688 0.043579
0.115620 0.215332 0.042482
0.157800 0.210296 0.033330
0.203982 0.213748 0.025898
0.256306 0.206610 0.019302
0.322486 0.191989 0.005992
0.335037 0.193073 0.007501
0.370339 0.169037 0.004216
0.379382 0.161654 0.004219
0.409649 0.130763 0.000000
0.418117 0.128148 0.003090
0.444724 0.108229 0.003155
0.440289 0.115887 0.005120
0.444383 0.118356 0.008589
0.444309 0.118526 0.008641
0.444254 0.118649 0.008679
0.444216 0.118733 0.008706
0.443820 0.128749 0.014866
0.443816 0.128867 0.014944
0.444570 0.142309 0.020337
0.446128 0.161256 0.027317
0.431890 0.178095 0.035532
0.423795 0.192943 0.044888
0.450614 0.197467 0.051258
0.459111 0.226627 0.072141
0.476063 0.267782 0.094123
0.499139 0.281005 0.102496
0.004671 0.187480 0.127875
0.005904 0.192605 0.122247
0.013672 0.199990 0.106723
0.025915 0.198554 0.087869
0.046520 0.200741 0.063009
0.061413 0.203979 0.051924
0.114963 0.215588 0.042738
0.136155 0.216449 0.039842
0.167814 0.223513 0.034875
0.226203 0.214251 0.025654
0.280036 0.205233 0.017046
0.335851 0.197195 0.010195
0.355269 0.191964 0.012279
0.371121 0.181325 0.012508
0.373557 0.182443 0.014429
0.396600 0.171086 0.015394
0.416487 0.150849 0.013543
0.439073 0.130694 0.010479
0.438368 0.134823 0.013116
0.438308 0.134893 0.013141
0.439025 0.148429 0.018539
0.440893 0.148609 0.018601
0.440153 0.177123 0.031539
0.440271 0.177400 0.031701
0.440365 0.177614 0.031828
0.442430 0.195464 0.039631
0.442552 0.195649 0.039746
0.450856 0.215860 0.051833
0.481695 0.255971 0.076427
0.485847 0.283498 0.089886
0.486086 0.284024 0.090211
0.493916 0.362850 0.134315
0.495866 0.379030 0.148435
0.005863 0.196060 0.126700
0.007861 0.199642 0.123097
0.009094 0.198583 0.118729
0.031311 0.210594 0.092636
0.037321 0.210405 0.084568
0.080355 0.221581 0.054478
0.111422 0.221022 0.050681
0.157860 0.228759 0.041434
0.199577 0.231391 0.039941
0.258906 0.223037 0.031593
0.316716 0.210072 0.019604
0.337988 0.199563 0.012111
0.355730 0.192392 0.012724
0.376684 0.194770 0.019191
0.382384 0.200315 0.025092
0.387942 0.210159 0.028222
0.396651 0.219445 0.033743
0.414431 0.201288 0.032022
0.422239 0.192192 0.029043
0.436173 0.191139 0.031203
0.430171 0.199903 0.034581
0.438619 0.202577 0.038058
0.437402 0.212712 0.044147
0.437634 0.212712 0.044264
0.437805 0.212697 0.044349
0.451261 0.245056 0.060441
0.480844 0.265205 0.078625
0.490102 0.305009 0.098520
0.494292 0.320252 0.107628
0.483035 0.337396 0.112471
0.478483 0.351324 0.121606
0.495787 0.379037 0.148399
0.487609 0.434683 0.184575
0.007830 0.199618 0.123218
0.007895 0.199712 0.123123
0.009113 0.198663 0.118812
0.031315 0.210671 0.092738
0.044783 0.215040 0.080699
0.108553 0.225917 0.059180
0.120191 0.232316 0.062785
0.178723 0.234851 0.043598
0.217410 0.237615 0.044077
0.271398 0.225265 0.033937
0.298062 0.219708 0.027523
0.335987 0.202663 0.020435
0.377253 0.197000 0.020888
0.385491 0.209072 0.026419
0.388959 0.213585 0.030617
0.399494 0.223250 0.037506
0.400201 0.224057 0.037833
0.410467 0.231143 0.042904
0.425253 0.242010 0.048123
0.426449 0.250060 0.051638
0.433037 0.239907 0.048331
0.428667 0.247137 0.052795
0.429803 0.265882 0.059172
0.451073 0.290757 0.078072
0.439210 0.305653 0.085214
0.452209 0.309005 0.088749
0.489831 0.304922 0.098363
0.479038 0.322061 0.103372
0.478435 0.350648 0.121171
0.478467 0.351346 0.121608
0.481086 0.395568 0.155653
0.487492 0.434733 0.184553
0.505946 0.436664 0.192916
0.007470 0.200821 0.131707
0.007532 0.203595 0.132351
0.011041 0.208662 0.130343
0.029408 0.213411 0.102008
0.061358 0.228566 0.085029
0.118520 0.232425 0.063575
0.130890 0.236605 0.060570
0.205512 0.236738 0.050431
0.266394 0.228959 0.042809
0.274923 0.229618 0.036501
0.321659 0.224234 0.034470
0.324622 0.223946 0.034494
0.388150 0.212548 0.030087
0.393011 0.218758 0.032111
0.398048 0.223327 0.036243
0.400607 0.224700 0.037988
0.408663 0.241698 0.045289
0.417320 0.247714 0.049090
0.419694 0.268438 0.058315
0.420092 0.269135 0.058831
0.421682 0.283087 0.064395
0.417878 0.292049 0.070129
0.438476 0.304395 0.084208
0.439115 0.305252 0.084930
0.452110 0.308707 0.088550
0.468359 0.315546 0.098165
0.478911 0.321963 0.103268
0.478374 0.350560 0.121087
0.478426 0.351388 0.121611
0.481048 0.395580 0.155625
0.487326 0.434818 0.184533
0.487198 0.435244 0.184806
0.513345 0.463157 0.211098
0.007478 0.203956 0.136780
0.008299 0.207881 0.135134
0.011049 0.212171 0.132376
0.033629 0.221549 0.107506
0.106707 0.228655 0.068727
0.127792 0.240924 0.069616
0.204978 0.238655 0.052052
0.265141 0.229512 0.043350
0.267280 0.228906 0.042959
0.296704 0.228670 0.039711
0.347434 0.222877 0.031282
0.388269 0.212717 0.030151
0.393119 0.218874 0.032156
0.398156 0.223468 0.036286
0.398829 0.234825 0.040361
0.408800 0.241949 0.045289
0.417379 0.247849 0.049014
0.419564 0.268219 0.058097
0.420094 0.268975 0.058683
0.421747 0.282551 0.064158
0.410261 0.296956 0.070906
0.417050 0.313052 0.082995
0.438930 0.304777 0.084573
0.451937 0.308348 0.088295
0.452601 0.309447 0.089106
0.478718 0.321847 0.103128
0.478269 0.350471 0.120984
0.478349 0.351457 0.121615
0.480978 0.395618 0.155596
0.476512 0.424219 0.174218
0.488511 0.444200 0.190177
0.513050 0.463216 0.211041
0.526746 0.461988 0.213368
0.007095 0.209423 0.141092
0.009841 0.213727 0.138314
0.018014 0.219558 0.132456
0.027877 0.226619 0.127609
0.124018 0.241394 0.076654
0.138197 0.245647 0.070765
0.234199 0.233652 0.047135
0.265965 0.229413 0.043416
0.295369 0.229332 0.040188
0.346556 0.223483 0.031576
0.365689 0.220835 0.035713
0.393139 0.218872 0.032150
0.394306 0.220253 0.032816
0.398694 0.234934 0.040389
0.416069 0.247143 0.048494
0.417350 0.247948 0.048989
0.413075 0.264162 0.056118
0.408242 0.280958 0.063631
0.402918 0.296372 0.071051
0.403266 0.309879 0.076585
0.417223 0.312161 0.082524
0.438623 0.304264 0.084158
0.451661 0.307941 0.087984
0.452503 0.309271 0.088976
0.453396 0.329092 0.100379
0.478105 0.350388 0.120859
0.478220 0.351565 0.121620
0.481991 0.396117 0.157114
0.476375 0.424372 0.174241
0.483318 0.450023 0.192061
0.494219 0.461764 0.202517
0.526447 0.462098 0.213349
0.536411 0.477395 0.226081
0.006705 0.212564 0.148901
0.011002 0.217240 0.143415
0.020348 0.221919 0.134455
0.046983 0.230975 0.112920
0.125677 0.243827 0.078926
0.202129 0.239217 0.057330
0.265110 0.229735 0.043716
0.294459 0.229781 0.040514
0.345922 0.223914 0.031778
0.364951 0.221141 0.035955
0.393109 0.218811 0.032119
0.394073 0.219951 0.032672
0.398374 0.234901 0.040375
0.401894 0.257846 0.051286
0.411814 0.264455 0.056094
0.407320 0.280596 0.063176
0.407887 0.281252 0.063687
0.402831 0.296208 0.070901
0.403388 0.309221 0.076264
0.417187 0.311477 0.082130
0.417589 0.313006 0.083139
0.430750 0.317460 0.087661
0.452308 0.309096 0.088820
0.453363 0.328940 0.100279
0.458684 0.363618 0.123308
0.478028 0.351723 0.121628
0.481793 0.396319 0.157130
0.476180 0.424591 0.174278
0.465760 0.443465 0.183066
0.493794 0.461887 0.202458
0.512952 0.463799 0.211406
0.531062 0.478256 0.224510
0.531605 0.499578 0.240027
0.008248 0.217254 0.148976
0.010997 0.219599 0.149706
0.019210 0.227799 0.147728
0.107644 0.241152 0.094543
0.155389 0.240436 0.075037
0.264568 0.229934 0.043908
0.293867 0.230072 0.040726
0.325406 0.232542 0.039110
0.364411 0.221342 0.036121
0.372130 0.228058 0.039547
0.393833 0.219644 0.032527
0.381445 0.247208 0.046215
0.401290 0.258494 0.051610
0.411319 0.265111 0.056459
0.406468 0.281764 0.063716
0.407096 0.282145 0.064054
0.402121 0.296901 0.071148
0.402943 0.309389 0.076279
0.416837 0.311335 0.081981
0.417426 0.312743 0.082968
0.430676 0.317056 0.087447
0.451988 0.308967 0.088657
0.453233 0.328827 0.100176
0.458775 0.363420 0.123189
0.458490 0.365337 0.124280
0.461908 0.410184 0.159807
0.475915 0.424885 0.174331
0.465506 0.443793 0.183161
0.488364 0.467707 0.203900
0.510186 0.484556 0.223186
0.511173 0.484778 0.223656
0.531325 0.499606 0.239969
0.541423 0.494126 0.237121
0.010185 0.222325 0.156027
0.014107 0.225849 0.154827
0.034812 0.240696 0.150894
0.111533 0.249445 0.100343
0.159469 0.256322 0.095120
0.294523 0.236491 0.047095
0.323298 0.234816 0.042420
0.323243 0.242460 0.055309
0.371543 0.228164 0.039671
0.341747 0.256809 0.058829
0.375532 0.265971 0.054913
0.400777 0.259037 0.051888
0.410881 0.265690 0.056796
0.405594 0.282986 0.064301
0.400580 0.297940 0.071403
0.401016 0.298205 0.071693
0.402008 0.310412 0.076660
0.416196 0.311912 0.082187
0.416932 0.312995 0.083020
0.430396 0.316978 0.087365
0.431220 0.318837 0.088600
0.452971 0.328806 0.100092
0.452859 0.357469 0.117970
0.458529 0.365453 0.124334
0.461887 0.410311 0.159814
0.456186 0.438625 0.176977
0.465174 0.444209 0.183281
0.487791 0.467849 0.203812
0.496321 0.477315 0.213123
0.510787 0.484791 0.223558
0.531296 0.478545 0.224817
0.541118 0.494188 0.237103
0.575242 0.496970 0.250009
0.007462 0.222351 0.162309
0.020749 0.240700 0.167745
0.039724 0.248698 0.154040
0.148611 0.259301 0.108233
0.233570 0.262313 0.083857
0.281188 0.254751 0.059220
0.322468 0.242818 0.055643
0.334792 0.256428 0.063407
0.338855 0.259133 0.062223
0.374659 0.266657 0.055256
0.400391 0.259445 0.052100
0.410551 0.266122 0.057057
0.404873 0.283983 0.064785
0.399506 0.299443 0.072095
0.399882 0.299604 0.072299
0.400904 0.311848 0.077228
0.415444 0.313002 0.082667
0.416213 0.313728 0.083297
0.418394 0.317068 0.086475
0.431187 0.321160 0.090425
0.432248 0.341118 0.101920
0.436672 0.372433 0.121951
0.458510 0.365613 0.124397
0.448181 0.418596 0.157622
0.456149 0.438701 0.176950
0.464776 0.444694 0.183419
0.465433 0.466903 0.196718
0.495649 0.477312 0.212917
0.510266 0.484806 0.223423
0.530732 0.478633 0.224732
0.536235 0.496900 0.238578
0.553199 0.501901 0.247762
0.575701 0.496745 0.249961
0.017996 0.240706 0.174053
0.025120 0.250978 0.174841
0.059367 0.269583 0.160388
0.163079 0.270797 0.111591
0.234594 0.271749 0.096831
0.273673 0.266420 0.079995
0.315259 0.267053 0.069822
0.337727 0.259524 0.062598
0.359745 0.261584 0.058902
0.374549 0.267432 0.055570
0.394511 0.279304 0.061297
0.404340 0.284710 0.065142
0.398662 0.300628 0.072644
0.398940 0.300776 0.072812
0.399913 0.313235 0.077784
0.414775 0.314211 0.083231
0.415471 0.314683 0.083691
0.417687 0.317803 0.086763
0.430632 0.321581 0.090558
0.431786 0.341426 0.102019
0.429131 0.362352 0.114332
0.436602 0.374821 0.123355
0.448309 0.418603 0.157652
0.456086 0.438790 0.176932
0.455597 0.440666 0.178102
0.451158 0.488747 0.206994
0.490120 0.482823 0.214156
0.509604 0.484821 0.223249
0.511050 0.485093 0.223895
0.535735 0.497019 0.238537
0.537145 0.496748 0.238780
0.575443 0.496780 0.249960
0.576199 0.496506 0.249911
0.023540 0.250594 0.178408
0.042874 0.260991 0.168683
0.105406 0.279120 0.153476
0.200119 0.277085 0.112033
0.244697 0.282611 0.101057
0.283184 0.277275 0.086550
0.336917 0.259802 0.062865
0.358938 0.261910 0.059188
0.373941 0.267778 0.055756
0.394138 0.279740 0.061519
0.402883 0.283407 0.064670
0.398046 0.301497 0.073050
0.398235 0.301652 0.073198
0.392069 0.318671 0.082152
0.407122 0.319608 0.087685
0.407623 0.319965 0.088066
0.415868 0.318266 0.086367
0.430058 0.322089 0.090725
0.431197 0.341874 0.102155
0.428590 0.362720 0.114447
0.436327 0.374950 0.123379
0.448323 0.418691 0.157716
0.442947 0.446542 0.174732
0.455492 0.440872 0.178164
0.451092 0.488410 0.206745
0.467985 0.481622 0.206614
0.495821 0.477778 0.213372
0.510465 0.485159 0.223784
0.535062 0.497185 0.238482
0.536731 0.496859 0.238764
0.575068 0.496859 0.249966
0.575984 0.496522 0.249905
0.582641 0.493327 0.248757
0.030300 0.258611 0.179283
0.064826 0.280255 0.170304
0.154184 0.288847 0.146815
0.214206 0.292840 0.117661
0.245123 0.282603 0.100959
0.285675 0.281089 0.087998
0.352241 0.280851 0.067409
0.352973 0.280853 0.067254
0.393874 0.280044 0.061675
0.402608 0.283705 0.064826
0.397610 0.302117 0.073341
0.391247 0.319553 0.082474
0.391346 0.319672 0.082606
0.406619 0.320589 0.088197
0.407011 0.320870 0.088497
0.407494 0.321236 0.088878
0.429571 0.322567 0.090884
0.421430 0.337949 0.098993
0.427952 0.363152 0.114568
0.428415 0.379603 0.127488
0.433971 0.434088 0.164319
0.442931 0.446495 0.174702
0.442664 0.448475 0.176064
0.451012 0.488165 0.206557
0.467588 0.481482 0.206413
0.495069 0.477815 0.213174
0.509776 0.485219 0.223638
0.525434 0.482892 0.226542
0.536142 0.497020 0.238733
0.547660 0.505851 0.249242
0.575651 0.496584 0.249909
0.582418 0.493344 0.248756
0.600379 0.488733 0.248354
0.045606 0.269693 0.182078
0.075838 0.293186 0.178459
0.187230 0.284924 0.133468
0.214741 0.292782 0.117483
0.251571 0.288269 0.103456
0.328374 0.287222 0.073337
0.344770 0.297859 0.074697
0.372190 0.290408 0.071955
0.402420 0.283904 0.064933
0.397304 0.302558 0.073551
0.390773 0.320281 0.082822
0.390826 0.320406 0.082941
0.406279 0.321317 0.088587
0.406579 0.321555 0.088831
0.406954 0.321856 0.089139
0.420161 0.324875 0.092526
0.420824 0.338350 0.099094
0.427350 0.363563 0.114677
0.420701 0.391033 0.130112
0.425005 0.435364 0.165438
0.435565 0.450812 0.178613
0.435611 0.452532 0.179790
0.450920 0.488064 0.206468
0.467259 0.481361 0.206240
0.494388 0.477818 0.212969
0.509069 0.485254 0.223467
0.524770 0.482969 0.226417
0.535393 0.497228 0.238684
