lut/combgr.cube
TITLE
LUT_3D_SIZE 9
DOMAIN_MIN 0.0 0.0 0.0
DOMAIN_MAX 1.0 1.0 1.0
0.023529 0.023529 0.000000
0.068155 0.048514 0.000000
0.136935 0.068882 0.000000
0.191361 0.095722 0.000000
0.237790 0.117265 0.000000
0.311994 0.157337 0.000000
0.334196 0.169413 0.000000
0.356539 0.180863 0.000000
0.396089 0.214131 0.001174
0.006353 0.059978 0.000000
0.077230 0.069751 0.000000
0.151721 0.088932 0.000000
0.201274 0.108262 0.000000
0.278068 0.148731 0.000000
0.338033 0.176743 0.000000
0.353091 0.188657 0.000000
0.393720 0.218039 0.000000
0.418451 0.244688 0.000000
0.003065 0.103544 0.000000
0.055673 0.141449 0.000000
0.127128 0.147651 0.000000
0.230823 0.163207 0.000000
0.282754 0.187734 0.000000
0.341787 0.204133 0.000000
0.383992 0.223900 0.000000
0.415712 0.247811 0.000000
0.446247 0.272500 0.000000
0.036015 0.175887 0.000000
0.061556 0.188316 0.000000
0.100639 0.214265 0.000000
0.167632 0.214108 0.000000
0.294697 0.209429 0.000000
0.350665 0.225468 0.000000
0.401307 0.251344 0.000000
0.437203 0.269748 0.000000
0.476501 0.301975 0.000000
0.031273 0.197309 0.000000
0.080133 0.211524 0.000000
0.113974 0.224107 0.000000
0.149615 0.236427 0.000000
0.278389 0.247129 0.000000
0.355282 0.269936 0.000000
0.398357 0.272606 0.000000
0.476495 0.303926 0.000000
0.495347 0.319233 0.000000
0.050131 0.211792 0.000000
0.091474 0.227855 0.000000
0.113233 0.253317 0.000000
0.178136 0.271080 0.000000
0.274015 0.277830 0.000000
0.359806 0.292532 0.000000
0.420954 0.313345 0.000000
0.503949 0.338459 0.012943
0.546324 0.381703 0.040134
0.077608 0.241576 0.000000
0.103806 0.256448 0.000000
0.123042 0.271766 0.000000
0.181375 0.282517 0.000000
0.274206 0.305252 0.000000
0.370161 0.331969 0.008418
0.422691 0.355461 0.028005
0.537338 0.385324 0.038359
0.560790 0.406347 0.084660
0.065580 0.288722 0.048370
0.083604 0.286046 0.020963
0.110409 0.287630 0.010773
0.197085 0.307161 0.016848
0.302324 0.346088 0.042450
0.361536 0.362375 0.053948
0.476930 0.381209 0.046651
0.542829 0.417610 0.116796
0.562383 0.425046 0.122459
0.018752 0.367151 0.177317
0.073842 0.309871 0.056206
0.151969 0.358710 0.083280
0.222477 0.462207 0.176298
0.288508 0.467989 0.174778
0.313556 0.468986 0.173348
0.463992 0.462183 0.150131
0.516613 0.444707 0.144097
0.645305 0.483755 0.220793
0.000000 0.034916 0.020751
0.065490 0.045112 0.004739
0.159097 0.065005 0.000795
0.221691 0.096900 0.000000
0.276903 0.124349 0.001910
0.334492 0.163822 0.000000
0.358095 0.177685 0.001179
0.398037 0.197247 0.029354
0.429075 0.214538 0.038779
0.000000 0.065100 0.017090
0.070588 0.070588 0.000000
0.194285 0.090277 0.000000
0.256959 0.124946 0.000000
0.326703 0.160389 0.000000
0.354980 0.181259 0.000000
0.383919 0.206617 0.001179
0.428247 0.227909 0.018348
0.447843 0.258719 0.008259
0.000000 0.117284 0.016184
0.011430 0.149179 0.000962
0.178727 0.162528 0.000000
0.276137 0.178415 0.000000
0.343327 0.193371 0.000000
0.376112 0.212096 0.000000
0.409166 0.241573 0.000000
0.437626 0.265015 0.000000
0.478859 0.295338 0.000000
0.000761 0.181874 0.033035
0.035728 0.206544 0.000000
0.116847 0.231062 0.000000
0.241558 0.221650 0.000000
0.341598 0.227849 0.000000
0.393623 0.250131 0.000000
0.428972 0.259956 0.000000
0.476511 0.301977 0.000000
0.500021 0.314551 0.003504
0.009242 0.210924 0.028095
0.054143 0.225912 0.000000
0.115013 0.255530 0.000000
0.199801 0.264649 0.000000
0.313626 0.261867 0.000000
0.383957 0.278447 0.000000
0.476486 0.303922 0.000000
0.495372 0.319246 0.000000
0.556861 0.384659 0.048135
0.008125 0.240077 0.068082
0.075964 0.273609 0.017359
0.110410 0.276816 0.003044
0.173801 0.282645 0.000000
0.306497 0.310377 0.000000
0.375029 0.326551 0.001148
0.470782 0.342800 0.005957
0.544732 0.385245 0.037477
0.564038 0.401699 0.073849
0.018393 0.314311 0.135076
0.061114 0.287355 0.035450
0.090280 0.293517 0.028323
0.208220 0.315058 0.025148
0.326476 0.351304 0.045225
0.379332 0.347590 0.029758
0.503176 0.395417 0.060062
0.561081 0.416437 0.109344
0.604504 0.435565 0.149318
0.009715 0.371272 0.201699
0.038683 0.351863 0.140409
0.079778 0.362837 0.121773
0.209929 0.408198 0.139539
0.289506 0.476880 0.187776
0.330060 0.464314 0.169952
0.511918 0.441081 0.138802
0.554984 0.429403 0.130720
0.659951 0.480734 0.217489
0.000000 0.432282 0.282037
0.020451 0.419264 0.240348
0.153915 0.460786 0.205424
0.231769 0.492469 0.216399
0.280808 0.489646 0.206499
0.301256 0.484944 0.199004
0.443644 0.486959 0.184917
0.565464 0.479234 0.201728
0.677737 0.510179 0.273666
0.000000 0.030742 0.114102
0.007033 0.040417 0.133726
0.116352 0.077967 0.125370
0.265851 0.118447 0.001548
0.296569 0.135315 0.005434
0.354711 0.169851 0.028583
0.396511 0.190968 0.048158
0.422442 0.203568 0.050911
0.446286 0.224256 0.064113
0.000000 0.067668 0.150168
0.016213 0.080157 0.145421
0.155538 0.101687 0.125769
0.289610 0.133105 0.002735
0.342563 0.166649 0.021809
0.390223 0.188587 0.035997
0.423551 0.204702 0.048971
0.431607 0.217299 0.048098
0.480027 0.266176 0.051430
0.000000 0.118489 0.144322
0.000000 0.159401 0.121918
0.156863 0.156863 0.098039
0.318295 0.165548 0.015098
0.371501 0.189297 0.005656
0.410267 0.214546 0.017326
0.432375 0.244171 0.008358
0.478450 0.285879 0.003147
0.508631 0.314466 0.024012
0.000000 0.205041 0.090960
0.000000 0.222340 0.093283
0.091485 0.243403 0.036308
0.248449 0.236070 0.000000
0.367162 0.241916 0.000000
0.428570 0.258260 0.000000
0.475363 0.300424 0.000000
0.504706 0.316865 0.010548
0.547094 0.361547 0.034081
0.000000 0.255875 0.127729
0.004762 0.261723 0.116476
0.081843 0.282025 0.015318
0.211432 0.285422 0.002272
0.343526 0.298869 0.000000
0.461179 0.302765 0.000000
0.497343 0.323147 0.000000
0.545891 0.375563 0.029621
0.591790 0.404002 0.109763
0.000000 0.303472 0.176674
0.009599 0.311319 0.145209
0.069371 0.304009 0.060617
0.211633 0.316353 0.031943
0.339109 0.343410 0.031525
0.427167 0.358798 0.028870
0.537267 0.385406 0.038500
0.566045 0.406086 0.087874
0.617185 0.437578 0.159310
0.000000 0.357875 0.221181
0.000000 0.380022 0.222029
0.042429 0.357491 0.148599
0.231039 0.407040 0.147832
0.299176 0.424321 0.157990
0.394541 0.398934 0.108330
0.529145 0.423771 0.128092
0.577263 0.431279 0.139833
0.670154 0.489510 0.238224
0.000000 0.431930 0.281768
0.000000 0.431034 0.278364
0.069657 0.447450 0.246581
0.230841 0.492084 0.216390
0.280676 0.490502 0.206922
0.305105 0.485679 0.195853
0.496734 0.472170 0.180399
0.649721 0.489767 0.239104
0.682091 0.506286 0.267785
0.000000 0.447720 0.298976
0.000000 0.470631 0.317888
0.094048 0.506025 0.282460
0.192874 0.539774 0.270595
0.275743 0.520594 0.245090
0.294639 0.526319 0.258870
0.469294 0.543024 0.274577
0.659629 0.554482 0.316055
0.691382 0.542289 0.317520
0.000000 0.059499 0.186772
0.016040 0.070644 0.223828
0.093394 0.092175 0.202044
0.192562 0.124273 0.203894
0.344432 0.166705 0.037055
0.389747 0.187753 0.061345
0.422357 0.203515 0.050915
0.430806 0.209897 0.056001
0.469951 0.245506 0.106904
0.000000 0.086319 0.206165
0.003478 0.075588 0.254406
0.123168 0.111007 0.234376
0.230662 0.145277 0.223885
0.370438 0.180752 0.068317
0.417099 0.201067 0.052088
0.433217 0.212616 0.065099
0.474619 0.250501 0.117582
0.501960 0.282614 0.123279
0.000000 0.134486 0.224933
0.000000 0.153729 0.241544
0.136734 0.153459 0.234879
0.255699 0.169972 0.220342
0.401539 0.196412 0.057642
0.430354 0.213469 0.061707
0.478027 0.256830 0.103910
0.509415 0.297875 0.110426
0.531387 0.317225 0.144626
0.000000 0.228766 0.161384
0.000000 0.234759 0.174163
0.067514 0.232963 0.197513
0.235294 0.235294 0.176471
0.385819 0.233421 0.104089
0.465544 0.269486 0.036393
0.507074 0.302661 0.064737
0.545863 0.348558 0.066807
0.602427 0.394250 0.168904
0.000000 0.304232 0.186683
0.000000 0.290244 0.174169
0.006373 0.317949 0.158574
0.191227 0.314043 0.156301
0.345474 0.324317 0.084461
0.490838 0.328630 0.000000
0.543634 0.368789 0.023803
0.601266 0.408679 0.140274
0.641115 0.437593 0.194734
0.000000 0.369143 0.235042
0.000000 0.369242 0.227830
0.010547 0.371561 0.210461
0.185254 0.389187 0.163598
0.323928 0.413423 0.154381
0.478837 0.387247 0.071077
0.563731 0.418397 0.116084
0.609776 0.431731 0.154617
0.677695 0.484532 0.239398
0.000000 0.416398 0.271157
0.000000 0.425235 0.276318
0.010681 0.429607 0.262691
0.149402 0.471047 0.241856
0.289187 0.490691 0.206456
0.422339 0.486133 0.199599
0.554986 0.452012 0.180832
0.674339 0.495326 0.255994
0.691106 0.504686 0.259562
0.000000 0.447504 0.298826
0.000000 0.469898 0.319358
0.029125 0.494225 0.305385
0.184508 0.525389 0.263351
0.287774 0.524565 0.249317
0.346632 0.529555 0.261881
0.542512 0.509404 0.274119
0.682802 0.522699 0.290120
0.691455 0.542183 0.317330
0.000000 0.507440 0.358405
0.000000 0.533823 0.383215
0.009019 0.536246 0.370318
0.178517 0.558640 0.292222
0.231074 0.582989 0.308956
0.343867 0.644826 0.344970
0.452276 0.645482 0.358120
0.611591 0.615849 0.369756
0.708237 0.576848 0.368615
0.002248 0.080040 0.258354
0.004645 0.082458 0.269184
0.085249 0.109403 0.275708
0.195956 0.135683 0.281824
0.220366 0.143463 0.295898
0.415993 0.200718 0.052909
0.430035 0.209896 0.062956
0.474562 0.250516 0.117747
0.494531 0.271702 0.157788
0.000000 0.088903 0.267331
0.006237 0.101543 0.276110
0.091607 0.126494 0.305246
0.216000 0.141517 0.291236
0.243543 0.161550 0.301379
0.423190 0.211090 0.078301
0.471419 0.251215 0.130347
0.494563 0.271727 0.157825
0.547432 0.318390 0.217946
0.000000 0.142784 0.271467
0.004274 0.152195 0.304308
0.095756 0.149938 0.330968
0.219786 0.155097 0.318887
0.290792 0.200787 0.290846
0.460905 0.251142 0.146595
0.495016 0.275658 0.173034
0.540695 0.314796 0.206215
0.593819 0.361573 0.258991
0.000000 0.182227 0.277542
0.000000 0.189170 0.303049
0.057197 0.225647 0.305996
0.204166 0.227726 0.300331
0.337932 0.229957 0.293984
0.487468 0.274967 0.183382
0.540858 0.319720 0.209563
0.587499 0.364044 0.228652
0.645397 0.418550 0.274906
0.000000 0.354102 0.227496
0.000000 0.361412 0.241697
0.002793 0.342878 0.255839
0.179586 0.317162 0.288928
0.329412 0.329412 0.270588
0.496733 0.334716 0.232274
0.579622 0.373686 0.206089
0.630212 0.421186 0.212467
0.673234 0.463428 0.240846
0.000000 0.415301 0.270634
0.000000 0.424113 0.276542
0.000000 0.433217 0.287063
0.109007 0.439537 0.280943
0.301573 0.443582 0.271497
0.470248 0.440243 0.236314
0.610059 0.444965 0.190520
0.682081 0.490969 0.246885
0.692741 0.502992 0.258197
0.000000 0.448329 0.300735
0.000000 0.469527 0.319116
0.000000 0.483578 0.329334
0.093864 0.512725 0.321386
0.290067 0.521541 0.248365
0.418163 0.511869 0.270884
0.585642 0.501373 0.283358
0.690484 0.514849 0.277028
0.718680 0.544689 0.333235
0.000000 0.503144 0.356897
0.000000 0.534071 0.383731
0.000000 0.539775 0.387717
0.032119 0.575228 0.388479
0.206435 0.589170 0.335164
0.351348 0.579053 0.318984
0.620842 0.545922 0.352179
0.693976 0.564269 0.352784
0.720383 0.580372 0.380369
0.000000 0.551064 0.406892
0.000000 0.562922 0.423631
0.000000 0.584076 0.424692
0.042810 0.619695 0.421781
0.205104 0.631351 0.390002
0.372022 0.697031 0.421760
0.449787 0.698620 0.440516
0.583531 0.657890 0.418092
0.725147 0.612565 0.434135
0.004586 0.082736 0.269302
0.017238 0.096862 0.280401
0.079726 0.131700 0.316463
0.188470 0.143906 0.317210
0.226686 0.162254 0.330170
0.256441 0.185026 0.332316
0.406195 0.234852 0.227965
0.478085 0.261955 0.166542
0.553368 0.325099 0.228984
0.006285 0.110926 0.285090
0.041082 0.137132 0.314579
0.093287 0.143909 0.331332
0.207385 0.159542 0.337663
0.244833 0.180724 0.341701
0.329929 0.218819 0.318914
0.448587 0.259095 0.230023
0.553329 0.325089 0.229005
0.593885 0.361622 0.279220
0.000000 0.170693 0.300091
0.034157 0.163366 0.321956
0.106261 0.166691 0.349113
0.204455 0.179203 0.356271
0.282339 0.213378 0.364038
0.385062 0.257402 0.343559
0.491711 0.309809 0.296674
0.593780 0.361527 0.279089
0.624190 0.388692 0.304738
0.000000 0.185149 0.307148
0.012615 0.200563 0.316580
0.118710 0.208299 0.356854
0.213737 0.223429 0.388671
0.315007 0.252878 0.404542
0.421183 0.295758 0.383590
0.568569 0.350977 0.277022
0.624281 0.388692 0.304751
0.666881 0.426991 0.333751
0.000000 0.407982 0.272939
0.000000 0.407002 0.281474
0.054588 0.357040 0.333862
0.202849 0.324661 0.393166
0.319171 0.336917 0.413289
0.459075 0.347435 0.399617
0.617762 0.394193 0.320392
0.660427 0.422854 0.330156
0.695932 0.468913 0.357284
0.000000 0.453946 0.310735
0.000000 0.468228 0.328170
0.000000 0.477971 0.366444
0.097726 0.463159 0.399431
0.297664 0.444790 0.406423
0.458824 0.458824 0.384314
0.611230 0.454850 0.354847
0.697826 0.478276 0.345578
0.727916 0.534995 0.371674
0.000000 0.498145 0.355915
0.000000 0.538645 0.395296
0.000000 0.543261 0.401869
0.005198 0.559918 0.401652
0.190897 0.572755 0.426378
0.450540 0.523257 0.417300
0.588108 0.544285 0.378686
0.713659 0.563986 0.365740
0.738496 0.572903 0.389337
0.000000 0.563776 0.425158
0.000000 0.564527 0.425804
0.000000 0.582427 0.446367
0.010979 0.611527 0.437235
0.127510 0.636001 0.435964
0.354090 0.696230 0.450160
0.533388 0.653686 0.428410
0.700678 0.598557 0.409873
0.742094 0.614167 0.448919
0.000000 0.589835 0.460327
0.000000 0.614912 0.484342
0.000000 0.634410 0.505662
0.031853 0.640661 0.460340
0.200604 0.673134 0.455438
0.382730 0.716903 0.457679
0.430589 0.740482 0.463647
0.565021 0.698476 0.462833
0.729553 0.643127 0.478368
0.015704 0.101194 0.285524
0.073968 0.135270 0.321938
0.093358 0.143906 0.331354
0.202189 0.159616 0.341260
0.228084 0.174538 0.349375
0.266326 0.203100 0.373315
0.364722 0.247022 0.355598
0.421979 0.287838 0.373711
0.589183 0.363175 0.297524
0.025590 0.145427 0.313359
0.074806 0.144690 0.329820
0.123112 0.165053 0.352143
0.200273 0.182304 0.361633
0.262868 0.210181 0.381989
0.314182 0.238292 0.389598
0.421938 0.294089 0.385868
0.506759 0.347066 0.401431
0.614768 0.384775 0.318737
0.005390 0.179700 0.311017
0.073960 0.170595 0.341901
0.142320 0.185096 0.362896
0.224656 0.215020 0.393584
0.292051 0.247263 0.419979
0.369309 0.283477 0.416129
0.454613 0.332578 0.428245
0.583113 0.378849 0.370446
0.665933 0.425338 0.335586
0.002338 0.188306 0.311866
0.062165 0.204673 0.339566
0.155215 0.219695 0.372642
0.250263 0.258119 0.422652
0.313047 0.282065 0.454853
0.419141 0.327001 0.447069
0.492393 0.366348 0.472839
0.631325 0.409061 0.365332
0.683882 0.449069 0.358397
0.000000 0.457466 0.318834
0.000000 0.469596 0.353990
0.001503 0.454962 0.394416
0.256045 0.339068 0.450115
0.345681 0.341517 0.488258
0.448312 0.374825 0.509126
0.525473 0.404978 0.511630
0.682948 0.463332 0.380682
0.737262 0.514764 0.430767
0.000000 0.499824 0.364800
0.000000 0.524516 0.402788
0.000000 0.523365 0.418642
0.052711 0.506086 0.447392
0.355262 0.416442 0.509867
0.435838 0.451780 0.530237
0.580459 0.465251 0.517991
0.722558 0.520818 0.445842
0.760793 0.549524 0.472702
0.000000 0.566332 0.431201
0.000000 0.567705 0.432294
0.000000 0.589902 0.469249
0.000000 0.583874 0.505002
0.199310 0.580600 0.520850
0.453426 0.545292 0.504390
0.568627 0.568627 0.501961
0.733327 0.576044 0.482395
0.780530 0.592436 0.498134
0.000000 0.601099 0.477238
0.000000 0.627095 0.506678
0.000000 0.641633 0.526182
0.000000 0.647586 0.534895
0.133843 0.661523 0.515697
0.327369 0.689980 0.491281
0.592084 0.638671 0.522613
0.702532 0.644384 0.486132
0.774466 0.636934 0.522375
0.000000 0.633833 0.519948
0.000000 0.641411 0.530490
0.000000 0.653811 0.546569
0.000000 0.687510 0.581910
0.176002 0.712166 0.545240
0.327078 0.744527 0.526908
0.438021 0.762202 0.499812
0.636216 0.718652 0.556081
0.731385 0.701624 0.574103
0.056856 0.139566 0.323898
0.074862 0.144691 0.329801
0.118505 0.159242 0.347880
0.190911 0.180359 0.363949
0.258874 0.214854 0.391325
0.285898 0.231732 0.403157
0.367006 0.278407 0.410239
0.471452 0.342010 0.438501
0.538835 0.370220 0.416233
0.049375 0.150999 0.325100
0.089404 0.157260 0.341586
0.144751 0.178790 0.362023
0.219705 0.209382 0.393330
0.282753 0.242308 0.417294
0.315297 0.274845 0.445870
0.442039 0.332975 0.447859
0.498172 0.374485 0.490848
0.574779 0.394456 0.425645
0.031550 0.176158 0.324273
0.107959 0.178858 0.353816
0.170575 0.200308 0.375312
0.262389 0.243567 0.419733
0.312484 0.281457 0.454459
0.358424 0.321093 0.481528
0.499229 0.383098 0.505070
0.516087 0.394405 0.510840
0.593258 0.438428 0.496422
0.020954 0.241720 0.318419
0.134029 0.218688 0.366310
0.222088 0.262768 0.416551
0.296718 0.281493 0.451028
0.348846 0.324517 0.485038
0.445813 0.386551 0.527056
0.497295 0.396030 0.526612
0.547508 0.438077 0.552183
0.648352 0.493752 0.532432
0.000000 0.496303 0.369790
0.000000 0.523990 0.413145
0.045578 0.454314 0.427769
0.304070 0.345105 0.477551
0.372228 0.382099 0.515823
0.464271 0.407840 0.547868
0.535075 0.443612 0.570643
0.597383 0.484761 0.586250
0.746337 0.540911 0.484666
0.000000 0.571082 0.448515
0.000000 0.587119 0.476581
0.000000 0.580443 0.496900
0.006004 0.583078 0.525809
0.400426 0.440252 0.541536
0.492092 0.457568 0.584009
0.581997 0.492086 0.603125
0.607898 0.504314 0.602499
0.769729 0.578742 0.513793
0.000000 0.621253 0.507586
0.000000 0.637373 0.536566
0.000000 0.649882 0.575730
0.000000 0.631385 0.582172
0.100380 0.637590 0.587445
0.470527 0.544594 0.606767
0.580225 0.548946 0.623357
0.715122 0.608128 0.566281
0.794414 0.627224 0.560391
0.000000 0.646929 0.551920
0.000000 0.659293 0.574778
0.000000 0.665231 0.598976
0.000000 0.679698 0.625250
0.094520 0.682774 0.632253
0.257719 0.694377 0.625680
0.594072 0.660193 0.599191
0.678431 0.678431 0.611765
0.805923 0.679671 0.596467
0.000000 0.654375 0.565797
0.000000 0.669395 0.602785
0.000000 0.682121 0.611525
0.000000 0.709663 0.630387
0.040386 0.728300 0.632756
0.295948 0.753149 0.607001
0.407254 0.767817 0.588349
0.665511 0.730604 0.634912
0.778608 0.727281 0.635064
0.064315 0.147803 0.328240
0.093315 0.155689 0.341966
0.151400 0.176838 0.362779
0.213804 0.203933 0.390994
0.269855 0.228283 0.405194
0.305120 0.259641 0.432227
0.388609 0.321934 0.474899
0.500812 0.381173 0.500392
0.516075 0.394446 0.510899
0.073251 0.156505 0.337236
0.116914 0.174918 0.355743
0.183535 0.197617 0.380018
0.250294 0.232580 0.412622
0.310899 0.279497 0.453274
0.338443 0.300389 0.467078
0.484306 0.388595 0.523508
0.503523 0.394478 0.520375
0.538805 0.420770 0.533737
0.063883 0.180800 0.340005
0.148525 0.194495 0.369415
0.232673 0.230275 0.407166
0.290569 0.269024 0.443972
0.329128 0.303998 0.471836
0.422028 0.374104 0.520413
0.496807 0.401527 0.535271
0.534555 0.429449 0.552973
0.594107 0.481170 0.585498
0.015569 0.408045 0.373942
0.122127 0.315202 0.402830
0.265114 0.300634 0.448620
0.329018 0.329713 0.483901
0.388500 0.361132 0.510552
0.472570 0.413303 0.556457
0.524299 0.438460 0.569899
0.587813 0.479580 0.590194
0.609003 0.497629 0.594550
0.000000 0.587607 0.472713
0.000000 0.601597 0.513948
0.005446 0.581459 0.530781
0.360779 0.386378 0.514578
0.427819 0.415283 0.549017
0.491894 0.441974 0.582848
0.553396 0.471334 0.594453
0.604341 0.501145 0.603555
0.640770 0.510987 0.583583
0.000000 0.623190 0.518205
0.000000 0.644506 0.574923
0.000000 0.653008 0.591505
0.000000 0.645270 0.621446
0.325485 0.519110 0.599701
0.534913 0.497263 0.607086
0.576846 0.518504 0.619287
0.606318 0.529487 0.617671
0.778073 0.623461 0.572518
0.000000 0.649814 0.559406
0.000000 0.665265 0.599891
0.000000 0.665749 0.613231
0.000000 0.669905 0.653672
0.018488 0.679105 0.667789
0.236999 0.688138 0.664706
0.588997 0.545205 0.626286
0.663179 0.664708 0.657648
0.799193 0.661192 0.599658
0.000000 0.669288 0.602789
0.000000 0.669805 0.603735
0.000000 0.681967 0.636817
0.000000 0.685723 0.664800
0.047660 0.698645 0.683784
0.238984 0.710112 0.672841
0.610612 0.695075 0.661772
0.673809 0.698530 0.695716
0.768695 0.716083 0.683911
0.000000 0.669569 0.603263
0.000000 0.673806 0.610948
0.000000 0.690036 0.643989
0.000000 0.708364 0.652876
0.061438 0.722625 0.672717
0.282659 0.747846 0.652157
0.384694 0.757005 0.640107
0.639196 0.745315 0.696426
0.760701 0.755098 0.692269
