lut/combgr.cube
TITLE
LUT_3D_SIZE 33
DOMAIN_MIN 0.0 0.0 0.0
DOMAIN_MAX 1.0 1.0 1.0
0.023529 0.023529 0.000000
0.028596 0.023529 0.000000
0.032101 0.021968 0.000000
0.054513 0.035569 0.000000
0.068155 0.048514 0.000000
0.077528 0.051021 0.000000
0.078824 0.052830 0.000000
0.103028 0.060254 0.000000
0.136935 0.068882 0.000000
0.145901 0.071717 0.000000
0.161911 0.078773 0.000000
0.173682 0.084289 0.000000
0.191361 0.095722 0.000000
0.206470 0.104720 0.000000
0.206726 0.104756 0.000000
0.213876 0.108659 0.000000
0.237790 0.117265 0.000000
0.249135 0.123479 0.000000
0.255082 0.125901 0.000000
0.280621 0.138720 0.000000
0.311994 0.157337 0.000000
0.312246 0.157515 0.000000
0.328968 0.166497 0.000000
0.329070 0.166604 0.000000
0.334196 0.169413 0.000000
0.342422 0.176464 0.000000
0.349076 0.177677 0.000000
0.356484 0.180818 0.000000
0.356539 0.180863 0.000000
0.368620 0.190981 0.001169
0.378782 0.196469 0.001172
0.386647 0.203535 0.001174
0.396089 0.214131 0.001174
0.003922 0.023529 0.000000
0.019559 0.023529 0.000000
0.027487 0.036190 0.000000
0.056347 0.037870 0.000000
0.069803 0.053365 0.000000
0.072923 0.055347 0.000000
0.101347 0.066965 0.000000
0.120911 0.072891 0.000000
0.145807 0.071940 0.000000
0.154769 0.079981 0.000000
0.173602 0.084330 0.000000
0.182765 0.097258 0.000000
0.206140 0.104706 0.000000
0.206534 0.104757 0.000000
0.213739 0.108641 0.000000
0.232949 0.116442 0.000000
0.244477 0.120795 0.000000
0.255030 0.125881 0.000000
0.275592 0.138690 0.000000
0.301874 0.153028 0.000000
0.312181 0.157474 0.000000
0.312433 0.157651 0.000000
0.329074 0.166608 0.000000
0.334204 0.169423 0.000000
0.342417 0.176463 0.000000
0.342495 0.176524 0.000000
0.356481 0.180826 0.000000
0.356544 0.180877 0.000000
0.368606 0.190992 0.001164
0.379545 0.201530 0.001168
0.389360 0.207825 0.001170
0.396085 0.214141 0.001170
0.403554 0.223550 0.000000
0.003922 0.023529 0.000000
0.004757 0.031050 0.000000
0.043057 0.038093 0.000000
0.061853 0.054636 0.000000
0.071785 0.057736 0.000000
0.093800 0.070715 0.000000
0.108775 0.074994 0.000000
0.123342 0.077732 0.000000
0.146176 0.086440 0.000000
0.154509 0.085476 0.000000
0.182620 0.097197 0.000000
0.186797 0.099301 0.000000
0.206157 0.104755 0.000000
0.206610 0.104804 0.000000
0.220387 0.113696 0.000000
0.244286 0.120762 0.000000
0.249212 0.123578 0.000000
0.276248 0.142479 0.000000
0.288726 0.150676 0.000000
0.312084 0.157420 0.000000
0.312400 0.157638 0.000000
0.327929 0.167002 0.000000
0.338070 0.176768 0.000000
0.339325 0.176464 0.000000
0.342503 0.176534 0.000000
0.347594 0.180068 0.000000
0.357326 0.185930 0.000000
0.364338 0.191391 0.000000
0.379143 0.205803 0.000000
0.384283 0.211328 0.000000
0.393742 0.218040 0.000000
0.403553 0.223554 0.000000
0.407888 0.230614 0.000000
0.007843 0.058824 0.000000
0.007843 0.058824 0.000000
0.020318 0.061750 0.000000
0.057558 0.062335 0.000000
0.080257 0.069262 0.000000
0.100361 0.075152 0.000000
0.119043 0.077337 0.000000
0.138691 0.085101 0.000000
0.150172 0.086900 0.000000
0.173133 0.093258 0.000000
0.186738 0.099289 0.000000
0.190384 0.104005 0.000000
0.201637 0.107847 0.000000
0.213577 0.108700 0.000000
0.232808 0.116497 0.000000
0.249821 0.127400 0.000000
0.262015 0.138281 0.000000
0.284012 0.148352 0.000000
0.305770 0.157748 0.000000
0.312344 0.157619 0.000000
0.327941 0.167018 0.000000
0.338055 0.176756 0.000000
0.338170 0.176854 0.000000
0.339421 0.176547 0.000000
0.347613 0.180088 0.000000
0.360812 0.190969 0.000000
0.369748 0.198355 0.000000
0.379130 0.205798 0.000000
0.384276 0.211327 0.000000
0.393732 0.218040 0.000000
0.403163 0.226676 0.000000
0.407110 0.231789 0.000000
0.412588 0.238434 0.000000
0.006353 0.059978 0.000000
0.008878 0.065380 0.000000
0.022290 0.079084 0.000000
0.026865 0.080288 0.000000
0.077230 0.069751 0.000000
0.101345 0.077667 0.000000
0.125357 0.080001 0.000000
0.143031 0.085966 0.000000
0.151721 0.088932 0.000000
0.182708 0.100712 0.000000
0.189999 0.104038 0.000000
0.191214 0.108239 0.000000
0.201274 0.108262 0.000000
0.221018 0.120261 0.000000
0.247954 0.130040 0.000000
0.252658 0.133328 0.000000
0.278068 0.148731 0.000000
0.286056 0.152368 0.000000
0.306056 0.157994 0.000000
0.314119 0.161676 0.000000
0.338033 0.176743 0.000000
0.338173 0.176860 0.000000
0.338282 0.176953 0.000000
0.342995 0.178954 0.000000
0.353091 0.188657 0.000000
0.364339 0.195269 0.000000
0.379114 0.205792 0.000000
0.384268 0.211326 0.000000
0.393720 0.218039 0.000000
0.403163 0.226684 0.000000
0.407110 0.231797 0.000000
0.412586 0.240382 0.000000
0.418451 0.244688 0.000000
0.002379 0.067794 0.000000
0.003209 0.085470 0.000000
0.014531 0.087938 0.000000
0.017577 0.089163 0.000000
0.043359 0.091725 0.000000
0.096576 0.082277 0.000000
0.127337 0.085552 0.000000
0.146263 0.089998 0.000000
0.171335 0.100237 0.000000
0.183773 0.108192 0.000000
0.188553 0.108660 0.000000
0.193861 0.116615 0.000000
0.210824 0.118687 0.000000
0.227699 0.127373 0.000000
0.254275 0.137234 0.000000
0.267156 0.145025 0.000000
0.278171 0.148998 0.000000
0.295821 0.157247 0.000000
0.307857 0.169393 0.000000
0.326525 0.172929 0.000000
0.338173 0.176869 0.000000
0.338305 0.176978 0.000000
0.344954 0.183608 0.000000
0.354650 0.191758 0.000000
0.363565 0.196436 0.000000
0.375615 0.205400 0.000000
0.384259 0.211326 0.000000
0.393704 0.218039 0.000000
0.400432 0.227471 0.000000
0.407111 0.231806 0.000000
0.412972 0.242326 0.000000
0.416115 0.245080 0.000000
0.426260 0.256008 0.000000
0.001549 0.087454 0.000000
0.001610 0.092554 0.000000
0.015945 0.093591 0.000000
0.018137 0.105711 0.000000
0.029663 0.115584 0.000000
0.047723 0.120544 0.000000
0.115193 0.103503 0.000000
0.147990 0.105497 0.000000
0.175442 0.109049 0.000000
0.182482 0.110587 0.000000
0.193792 0.116748 0.000000
0.196152 0.120694 0.000000
0.215262 0.132831 0.000000
0.235543 0.143605 0.000000
0.257656 0.144490 0.000000
0.268999 0.150326 0.000000
0.283607 0.165450 0.000000
0.310238 0.173664 0.000000
0.310609 0.173732 0.000000
0.333929 0.178421 0.000000
0.338329 0.177009 0.000000
0.340357 0.181693 0.000000
0.349658 0.195227 0.000000
0.362784 0.196829 0.000000
0.373668 0.209636 0.000000
0.380761 0.210939 0.000000
0.389815 0.219212 0.000000
0.401203 0.228647 0.000000
0.407494 0.238412 0.000000
0.409089 0.241553 0.000000
0.416115 0.245085 0.000000
0.426253 0.256005 0.000000
0.426268 0.256024 0.000000
0.001542 0.094236 0.000000
0.004600 0.098797 0.000000
0.023330 0.109616 0.000000
0.031607 0.119892 0.000000
0.040687 0.125848 0.000000
0.056480 0.139188 0.000000
0.072674 0.143688 0.000000
0.128784 0.130261 0.000000
0.158214 0.123446 0.000000
0.168323 0.126309 0.000000
0.190622 0.129364 0.000000
0.204333 0.135753 0.000000
0.228978 0.151797 0.000000
0.242212 0.156187 0.000000
0.250030 0.162087 0.000000
0.272440 0.177967 0.000000
0.286663 0.177237 0.000000
0.310275 0.173796 0.000000
0.314528 0.184276 0.000000
0.330552 0.188216 0.000000
0.337601 0.193671 0.000000
0.344214 0.200258 0.000000
0.351218 0.204929 0.000000
0.367465 0.211949 0.000000
0.378426 0.214040 0.000000
0.385548 0.223883 0.000000
0.399248 0.230206 0.000000
0.406317 0.240354 0.000000
0.411799 0.244274 0.000000
0.415722 0.247806 0.000000
0.426245 0.256002 0.000000
0.426262 0.256024 0.000000
0.438779 0.267762 0.000000
0.003065 0.103544 0.000000
0.012563 0.111132 0.000000
0.028718 0.122505 0.000000
0.045939 0.132577 0.000000
0.055673 0.141449 0.000000
0.066427 0.149906 0.000000
0.071707 0.154061 0.000000
0.092873 0.160552 0.000000
0.127128 0.147651 0.000000
0.175073 0.135698 0.000000
0.192161 0.140426 0.000000
0.205908 0.147883 0.000000
0.230823 0.163207 0.000000
0.245356 0.168798 0.000000
0.257711 0.179970 0.000000
0.267441 0.184637 0.000000
0.282754 0.187734 0.000000
0.308402 0.184732 0.000000
0.328042 0.195597 0.000000
0.332103 0.197957 0.000000
0.341787 0.204133 0.000000
0.343422 0.206118 0.000000
0.349288 0.206568 0.000000
0.368720 0.213280 0.000000
0.383992 0.223900 0.000000
0.393020 0.236419 0.000000
0.406299 0.240356 0.000000
0.411788 0.244280 0.000000
0.415712 0.247811 0.000000
0.426234 0.256000 0.000000
0.426254 0.256023 0.000000
0.433693 0.263854 0.000000
0.446247 0.272500 0.000000
0.012409 0.114534 0.000000
0.026261 0.126709 0.000000
0.042829 0.136557 0.000000
0.059041 0.148509 0.000000
0.062440 0.154792 0.000000
0.070877 0.169052 0.000000
0.070614 0.173752 0.000000
0.074109 0.180529 0.000000
0.082420 0.186339 0.000000
0.132101 0.171416 0.000000
0.199174 0.152216 0.000000
0.208747 0.160827 0.000000
0.237926 0.174169 0.000000
0.253808 0.181126 0.000000
0.259283 0.185796 0.000000
0.278613 0.191237 0.000000
0.287864 0.190208 0.000000
0.311109 0.192579 0.000000
0.331860 0.198024 0.000000
0.335865 0.203048 0.000000
0.343284 0.206177 0.000000
0.343391 0.206237 0.000000
0.368706 0.213320 0.000000
0.376610 0.223924 0.000000
0.387958 0.235254 0.000000
0.398898 0.239583 0.000000
0.405969 0.241579 0.000000
0.415700 0.247819 0.000000
0.421169 0.254055 0.000000
0.426244 0.256024 0.000000
0.433679 0.263849 0.000000
0.438812 0.267808 0.000000
0.453333 0.279203 0.000000
0.019977 0.124402 0.000000
0.039629 0.144967 0.000000
0.055343 0.154125 0.000000
0.063645 0.158835 0.000000
0.070299 0.173976 0.000000
0.071004 0.178712 0.000000
0.073888 0.186872 0.000000
0.074453 0.187385 0.000000
0.083449 0.196441 0.000000
0.094892 0.205248 0.000000
0.105448 0.213322 0.000000
0.200173 0.187791 0.000000
0.237822 0.182296 0.000000
0.251872 0.186590 0.000000
0.261986 0.187043 0.000000
0.274560 0.192561 0.000000
0.287132 0.191895 0.000000
0.310284 0.195805 0.000000
0.335617 0.203158 0.000000
0.338840 0.204718 0.000000
0.343241 0.206315 0.000000
0.353861 0.216073 0.000000
0.373841 0.230532 0.000000
0.385606 0.235638 0.000000
0.396166 0.239973 0.000000
0.407098 0.244297 0.000000
0.412972 0.247055 0.000000
0.421149 0.254056 0.000000
0.426233 0.256026 0.000000
0.428984 0.259945 0.000000
0.438799 0.267806 0.000000
0.453326 0.279205 0.000000
0.462777 0.289431 0.000000
0.036379 0.155248 0.000000
0.043614 0.166431 0.000000
0.053304 0.176909 0.000000
0.060590 0.178533 0.000000
0.059303 0.185005 0.000000
0.072705 0.187134 0.000000
0.077166 0.192236 0.000000
0.081728 0.199491 0.000000
0.095196 0.207283 0.000000
0.101152 0.213063 0.000000
0.109058 0.219764 0.000000
0.135204 0.214519 0.000000
0.206170 0.199647 0.000000
0.248761 0.189005 0.000000
0.273269 0.194484 0.000000
0.273565 0.194601 0.000000
0.285345 0.198556 0.000000
0.314112 0.208288 0.000000
0.328582 0.211763 0.000000
0.338791 0.214497 0.000000
0.343253 0.221134 0.000000
0.360143 0.228196 0.000000
0.385570 0.235635 0.000000
0.391103 0.238812 0.000000
0.400881 0.244694 0.000000
0.412952 0.247070 0.000000
0.417638 0.252122 0.000000
0.423109 0.257194 0.000000
0.428971 0.259947 0.000000
0.438783 0.267804 0.000000
0.454489 0.283893 0.000000
0.462775 0.289430 0.000000
0.475714 0.301580 0.000000
0.036015 0.175887 0.000000
0.035762 0.185878 0.000000
0.043201 0.187426 0.000000
0.056730 0.187843 0.000000
0.061556 0.188316 0.000000
0.075992 0.195658 0.000000
0.079317 0.198099 0.000000
0.090296 0.207120 0.000000
0.100639 0.214265 0.000000
0.108079 0.219048 0.000000
0.110353 0.221077 0.000000
0.110580 0.221113 0.000000
0.167632 0.214108 0.000000
0.221151 0.205882 0.000000
0.269162 0.198477 0.000000
0.274035 0.202807 0.000000
0.294697 0.209429 0.000000
0.324894 0.214849 0.000000
0.326650 0.216428 0.000000
0.339989 0.221128 0.000000
0.350665 0.225468 0.000000
0.372252 0.233304 0.000000
0.385625 0.239988 0.000000
0.391548 0.245874 0.000000
0.401307 0.251344 0.000000
0.412188 0.253293 0.000000
0.423083 0.257196 0.000000
0.428957 0.259950 0.000000
0.437203 0.269748 0.000000
0.452131 0.282712 0.000000
0.460424 0.287472 0.000000
0.472589 0.300019 0.000000
0.476501 0.301975 0.000000
0.030198 0.188264 0.000000
0.042986 0.187503 0.000000
0.048526 0.188697 0.000000
0.059419 0.191400 0.000000
0.072001 0.197634 0.000000
0.079220 0.198141 0.000000
0.090178 0.208309 0.000000
0.100555 0.214274 0.000000
0.102016 0.215731 0.000000
0.109791 0.220737 0.000000
0.110455 0.221172 0.000000
0.114428 0.224194 0.000000
0.143085 0.232138 0.000000
0.187671 0.226750 0.000000
0.252350 0.209485 0.000000
0.269693 0.214922 0.000000
0.289138 0.220359 0.000000
0.308914 0.225006 0.000000
0.323484 0.225819 0.000000
0.343532 0.230552 0.000000
0.361583 0.234497 0.000000
0.382421 0.240392 0.000000
0.391485 0.245903 0.000000
0.391953 0.250190 0.000000
0.407111 0.254847 0.000000
0.415694 0.258743 0.000000
0.423507 0.261114 0.000000
0.432506 0.265836 0.000000
0.452119 0.282703 0.000000
0.460414 0.287467 0.000000
0.472587 0.300018 0.000000
0.479229 0.303925 0.000000
0.483921 0.308223 0.000000
0.030150 0.192968 0.000000
0.036426 0.192593 0.000000
0.044286 0.196817 0.000000
0.063038 0.197662 0.000000
0.072531 0.203513 0.000000
0.089338 0.209831 0.000000
0.094878 0.212371 0.000000
0.101907 0.215658 0.000000
0.108149 0.219225 0.000000
0.110286 0.221174 0.000000
0.114260 0.224190 0.000000
0.124991 0.228726 0.000000
0.146281 0.234431 0.000000
0.157258 0.232175 0.000000
0.215219 0.231369 0.000000
0.263234 0.227463 0.000000
0.287751 0.227849 0.000000
0.304522 0.232917 0.000000
0.319478 0.233751 0.000000
0.328666 0.240009 0.000000
0.359231 0.250168 0.000000
0.389051 0.250965 0.000000
0.391099 0.252918 0.000000
0.393494 0.253692 0.000000
0.407113 0.254865 0.000000
0.423491 0.261108 0.000000
0.432491 0.265828 0.000000
0.447024 0.279177 0.000000
0.463141 0.289808 0.000000
0.473755 0.300408 0.000000
0.477670 0.303536 0.000000
0.483916 0.308220 0.000000
0.483945 0.308241 0.000000
0.023947 0.195730 0.000000
0.042180 0.197663 0.000000
0.041244 0.198862 0.000000
0.065446 0.206230 0.000000
0.081137 0.206749 0.000000
0.089495 0.210039 0.000000
0.097673 0.214433 0.000000
0.106176 0.220258 0.000000
0.109774 0.220753 0.000000
0.114092 0.224155 0.000000
0.118795 0.226453 0.000000
0.138684 0.232133 0.000000
0.149442 0.236349 0.000000
0.164677 0.238781 0.000000
0.207994 0.239674 0.000000
0.259059 0.234650 0.000000
0.283237 0.235397 0.000000
0.306404 0.242355 0.000000
0.321367 0.245491 0.000000
0.331740 0.249795 0.000000
0.356493 0.258421 0.000000
0.385103 0.261553 0.000000
0.387145 0.259984 0.000000
0.386822 0.264643 0.000000
0.393855 0.268138 0.000000
0.427025 0.264268 0.000000
0.441539 0.277606 0.000000
0.453347 0.283541 0.000000
0.473746 0.300402 0.000000
0.476499 0.303926 0.000000
0.483910 0.308216 0.000000
0.483942 0.308240 0.000000
0.492178 0.314515 0.000000
0.031273 0.197309 0.000000
0.036071 0.200432 0.000000
0.056711 0.207801 0.000000
0.062813 0.207900 0.000000
0.080133 0.211524 0.000000
0.094914 0.215882 0.000000
0.098910 0.219058 0.000000
0.104438 0.222916 0.000000
0.113974 0.224107 0.000000
0.114195 0.224184 0.000000
0.127913 0.230970 0.000000
0.144912 0.236319 0.000000
0.149615 0.236427 0.000000
0.176592 0.243139 0.000000
0.211058 0.252150 0.000000
0.228726 0.252951 0.000000
0.278389 0.247129 0.000000
0.300472 0.249425 0.000000
0.319391 0.258036 0.000000
0.336047 0.262440 0.000000
0.355282 0.269936 0.000000
0.379098 0.268776 0.000000
0.381911 0.267209 0.000000
0.389748 0.267575 0.000000
0.398357 0.272606 0.000000
0.418754 0.281945 0.000000
0.454117 0.289402 0.000000
0.473734 0.300396 0.000000
0.476495 0.303926 0.000000
0.477676 0.305100 0.000000
0.483939 0.308239 0.000000
0.492174 0.314513 0.000000
0.495347 0.319233 0.000000
0.037123 0.201219 0.000000
0.047729 0.205895 0.000000
0.056822 0.207894 0.000000
0.070252 0.212637 0.000000
0.088306 0.215836 0.000000
0.093445 0.219008 0.000000
0.100842 0.223634 0.000000
0.106332 0.225202 0.000000
0.112928 0.229780 0.000000
0.116494 0.235521 0.000000
0.120829 0.237497 0.000000
0.134020 0.239853 0.000000
0.167583 0.240365 0.000000
0.186529 0.250609 0.000000
0.215735 0.258403 0.000000
0.224122 0.260703 0.000000
0.253228 0.259930 0.000000
0.301284 0.260833 0.000000
0.324910 0.267201 0.000000
0.338060 0.270074 0.000000
0.357958 0.272473 0.000000
0.379336 0.271311 0.000000
0.382535 0.274385 0.000000
0.391526 0.276677 0.000000
0.409878 0.279754 0.000000
0.436993 0.298439 0.000000
0.445102 0.301176 0.000000
0.476490 0.303927 0.000000
0.477673 0.305101 0.000000
0.483934 0.308237 0.000000
0.492169 0.314510 0.000000
0.495348 0.319236 0.000000
0.509455 0.335288 0.008197
0.039516 0.205519 0.000000
0.056708 0.207887 0.000000
0.063105 0.211447 0.000000
0.073048 0.216945 0.000000
0.091042 0.223948 0.000000
0.095749 0.223997 0.000000
0.102779 0.225950 0.000000
0.109774 0.231328 0.000000
0.114859 0.237482 0.000000
0.114988 0.237547 0.000000
0.129243 0.241044 0.000000
0.134080 0.239966 0.000000
0.170630 0.246303 0.000000
0.196668 0.258468 0.000000
0.212257 0.261921 0.000000
0.224084 0.260740 0.000000
0.253847 0.267030 0.000000
0.293328 0.268405 0.000000
0.323508 0.270550 0.000000
0.340049 0.271444 0.000000
0.367170 0.276883 0.000000
0.374998 0.275345 0.000000
0.380092 0.277245 0.000000
0.391399 0.285713 0.000000
0.422600 0.297326 0.000000
0.439259 0.299661 0.000000
0.452456 0.306285 0.000000
0.477670 0.305103 0.000000
0.483929 0.308235 0.000000
0.492163 0.314507 0.000000
0.495348 0.319239 0.000000
0.512582 0.344688 0.012911
0.530245 0.367452 0.029395
0.048885 0.209042 0.000000
0.054853 0.209873 0.000000
0.063983 0.217685 0.000000
0.080464 0.224317 0.000000
0.091064 0.223976 0.000000
0.095772 0.227471 0.000000
0.107017 0.233281 0.000000
0.114779 0.237533 0.000000
0.111410 0.241452 0.000000
0.117603 0.246151 0.000000
0.122690 0.247400 0.000000
0.128606 0.258043 0.000000
0.167995 0.269782 0.000000
0.193857 0.267778 0.000000
0.212185 0.261959 0.000000
0.248097 0.268567 0.000000
0.259836 0.269518 0.000000
0.277042 0.275555 0.000000
0.313289 0.274201 0.000000
0.340098 0.271615 0.000000
0.367133 0.277017 0.000000
0.376091 0.285836 0.000000
0.386580 0.291615 0.000000
0.399062 0.295469 0.000000
0.424884 0.298553 0.000000
0.446593 0.307486 0.000000
0.452373 0.306298 0.000000
0.465547 0.305892 0.000000
0.483961 0.308259 0.000000
0.498475 0.328644 0.004705
0.514144 0.349418 0.021537
0.534532 0.372562 0.029449
0.538486 0.376532 0.029521
0.050131 0.211792 0.000000
0.063857 0.217655 0.000000
0.069861 0.221195 0.000000
0.080529 0.224340 0.000000
0.091474 0.227855 0.000000
0.097722 0.239475 0.000000
0.105094 0.240721 0.000000
0.107055 0.248516 0.000000
0.113233 0.253317 0.000000
0.113218 0.253468 0.000000
0.118298 0.254778 0.000000
0.144820 0.268424 0.000000
0.178136 0.271080 0.000000
0.178583 0.270982 0.000000
0.193902 0.267827 0.000000
0.244067 0.271834 0.000000
0.274015 0.277830 0.000000
0.278391 0.278026 0.000000
0.304951 0.282018 0.000000
0.355099 0.290948 0.000000
0.359806 0.292532 0.000000
0.371020 0.291782 0.000000
0.385363 0.307933 0.000000
0.401334 0.305620 0.000000
0.420954 0.313345 0.000000
0.446524 0.307498 0.000000
0.453081 0.306699 0.000000
0.462790 0.320803 0.004710
0.503949 0.338459 0.012943
0.523130 0.361574 0.029392
0.530647 0.368338 0.029506
0.538488 0.376582 0.029580
0.546324 0.381703 0.040134
0.056793 0.216472 0.000000
0.069755 0.221174 0.000000
0.080383 0.224319 0.000000
0.093736 0.234830 0.000000
0.097663 0.239561 0.000000
0.100410 0.248551 0.000000
0.104663 0.249873 0.000000
0.108141 0.253507 0.000000
0.110824 0.254800 0.000000
0.115835 0.256088 0.000000
0.128272 0.262743 0.000000
0.149362 0.273163 0.000000
0.177897 0.271186 0.000000
0.178303 0.271095 0.000000
0.217935 0.278452 0.000000
0.240740 0.285517 0.000000
0.267675 0.283359 0.000000
0.278547 0.288914 0.000000
0.305796 0.301380 0.000000
0.339352 0.303022 0.000000
0.359782 0.307688 0.000000
0.373270 0.313839 0.000000
0.371857 0.318066 0.001151
0.398959 0.314221 0.000000
0.428230 0.316115 0.000000
0.433255 0.326206 0.004675
0.456992 0.321998 0.004723
0.478468 0.340056 0.012980
0.523145 0.361641 0.029450
0.530648 0.368392 0.029565
0.538490 0.376636 0.029643
0.551339 0.387938 0.040168
0.550628 0.388365 0.047981
0.063856 0.217663 0.000000
0.072935 0.224697 0.000000
0.086270 0.235265 0.000000
0.097623 0.239620 0.000000
0.100370 0.248698 0.000000
0.101541 0.251547 0.000000
0.105017 0.255167 0.000000
0.107708 0.256063 0.000000
0.110768 0.255031 0.000000
0.122353 0.260523 0.000000
0.139019 0.270544 0.000000
0.149296 0.273240 0.000000
0.171932 0.273579 0.000000
0.172284 0.273502 0.000000
0.220699 0.281684 0.000000
0.248180 0.290664 0.000000
0.274409 0.288869 0.000000
0.297535 0.299435 0.000000
0.319322 0.309546 0.000000
0.333310 0.316534 0.000000
0.361688 0.316995 0.001150
0.372484 0.320825 0.001153
0.373763 0.323133 0.001156
0.392777 0.329669 0.004233
0.422827 0.333594 0.007757
0.431337 0.332912 0.012087
0.464848 0.347036 0.014146
0.509033 0.365949 0.030649
0.524818 0.368837 0.030787
0.535775 0.378626 0.030865
0.551309 0.387968 0.040201
0.553698 0.391489 0.053036
0.553762 0.391529 0.053115
0.074044 0.232111 0.000000
0.078818 0.235684 0.000000
0.094108 0.247495 0.000000
0.101505 0.251513 0.000000
0.101508 0.251639 0.000000
0.104982 0.255245 0.000000
0.107673 0.256132 0.000000
0.107662 0.256243 0.000000
0.113437 0.265551 0.000000
0.131949 0.272511 0.000000
0.142100 0.275223 0.000000
0.159655 0.274444 0.000000
0.164888 0.276711 0.000000
0.188954 0.279409 0.000000
0.209946 0.284102 0.000000
0.248267 0.290779 0.000000
0.265289 0.298621 0.000000
0.305314 0.304531 0.000000
0.333186 0.316527 0.000000
0.339879 0.322711 0.001148
0.364383 0.327725 0.004964
0.373277 0.330809 0.004984
0.373407 0.330844 0.005002
0.394761 0.337832 0.008888
0.417908 0.338724 0.015166
0.445041 0.348177 0.021496
0.466982 0.360055 0.029443
0.510000 0.369263 0.030820
0.536919 0.384869 0.037499
0.537366 0.385294 0.038313
0.553668 0.391517 0.053060
0.553736 0.391557 0.053141
0.553797 0.391592 0.053212
0.077608 0.241576 0.000000
0.082793 0.243279 0.000000
0.096069 0.251578 0.000000
0.101486 0.251699 0.000000
0.103806 0.256448 0.000000
0.103806 0.256550 0.000000
0.106491 0.257806 0.000000
0.113406 0.265569 0.000000
0.123042 0.271766 0.000000
0.131960 0.272565 0.000000
0.142094 0.275265 0.000000
0.159988 0.276782 0.000000
0.181375 0.282517 0.000000
0.193697 0.286441 0.000000
0.239452 0.292703 0.000000
0.252983 0.296269 0.000000
0.274206 0.305252 0.000000
0.324592 0.319560 0.000000
0.331339 0.321164 0.000000
0.339945 0.322761 0.001153
0.370161 0.331969 0.008418
0.373706 0.334302 0.008068
0.373833 0.334353 0.008104
0.394905 0.345260 0.020142
0.422691 0.355461 0.028005
0.448404 0.365002 0.030138
0.475830 0.370722 0.038133
0.518291 0.382958 0.044898
0.537338 0.385324 0.038359
0.539327 0.391164 0.046141
0.554482 0.401269 0.068275
0.554538 0.401290 0.068334
0.560790 0.406347 0.084660
0.078852 0.246434 0.000000
0.094118 0.252008 0.000000
0.094142 0.252115 0.000000
0.100327 0.254540 0.000000
0.099942 0.260032 0.000000
0.100709 0.265895 0.003081
0.102249 0.270950 0.003076
0.106129 0.273680 0.003068
0.114262 0.273723 0.000000
0.141950 0.275287 0.000000
0.147864 0.277598 0.000000
0.159964 0.279107 0.000000
0.174597 0.284501 0.000000
0.193798 0.286479 0.000000
0.248483 0.302041 0.007736
0.264642 0.304436 0.000387
0.281539 0.312611 0.000386
0.331192 0.321146 0.000000
0.336754 0.324270 0.001151
0.351464 0.327020 0.004997
0.373656 0.334304 0.008067
0.373777 0.334351 0.008100
0.391292 0.342130 0.012773
0.402399 0.349208 0.019820
0.430276 0.358284 0.026149
0.468105 0.373683 0.038780
0.468746 0.373971 0.039024
0.531890 0.391165 0.060096
0.534656 0.391985 0.053577
0.554438 0.401301 0.068326
0.554497 0.401322 0.068384
0.560746 0.406374 0.084693
0.563516 0.418387 0.113389
0.083194 0.255924 0.008968
0.095675 0.256392 0.003101
0.095286 0.261900 0.003102
0.096443 0.264683 0.003102
0.102216 0.270905 0.003100
0.100301 0.273638 0.003094
0.106075 0.273678 0.003088
0.106124 0.273714 0.003080
0.114653 0.277983 0.000000
0.133523 0.281069 0.000000
0.149795 0.282985 0.000000
0.160739 0.287200 0.007707
0.188234 0.292284 0.007763
0.208224 0.296235 0.007802
0.251633 0.305215 0.008190
0.266962 0.322272 0.016674
0.295404 0.324210 0.008509
0.323554 0.326561 0.008456
0.346396 0.328147 0.004997
0.353038 0.334723 0.015758
0.364927 0.337419 0.015765
0.383463 0.340549 0.012744
0.394912 0.345295 0.020156
0.402553 0.349291 0.019872
0.448417 0.365022 0.030134
0.468415 0.373829 0.038894
0.489496 0.388800 0.053466
0.527283 0.395488 0.066771
