lut/default_lut.cube
TITLE
LUT_3D_SIZE 33
DOMAIN_MIN 0.0 0.0 0.0
DOMAIN_MAX 1.0 1.0 1.0
0.000000 0.023529 0.023529
0.000000 0.023529 0.023529
0.000000 0.015686 0.017092
0.000000 0.018801 0.002760
0.020751 0.034916 0.000000
0.056054 0.031159 0.000000
0.091096 0.029264 0.000000
0.093383 0.031030 0.000000
0.114102 0.030742 0.000000
0.130506 0.038965 0.000000
0.148050 0.046262 0.000000
0.165673 0.050251 0.000000
0.186772 0.059499 0.000000
0.214313 0.069231 0.000000
0.226780 0.069952 0.000000
0.243171 0.075149 0.002203
0.258354 0.080040 0.002248
0.267228 0.081358 0.003003
0.269158 0.082348 0.004511
0.269239 0.082565 0.004553
0.269302 0.082736 0.004586
0.270499 0.083639 0.003084
0.273269 0.084934 0.006972
0.274908 0.088186 0.005492
0.285524 0.101194 0.015704
0.298865 0.118049 0.029060
0.304388 0.123186 0.035378
0.312204 0.134492 0.039311
0.323898 0.139566 0.056856
0.323144 0.142690 0.060002
0.324713 0.146586 0.058084
0.328223 0.147777 0.064303
0.328240 0.147803 0.064315
0.000000 0.023529 0.003922
0.000000 0.023529 0.003922
0.000000 0.016400 0.006416
0.002790 0.027374 0.003112
0.032828 0.035347 0.000000
0.076923 0.028097 0.000000
0.091069 0.031031 0.000000
0.105393 0.030932 0.000000
0.122971 0.038478 0.000000
0.136484 0.039581 0.000000
0.153985 0.048756 0.000000
0.178275 0.067124 0.000000
0.204568 0.071191 0.000000
0.219258 0.069933 0.000000
0.228447 0.073923 0.000000
0.253875 0.079426 0.002187
0.258475 0.080035 0.002235
0.267257 0.081409 0.002993
0.269192 0.082423 0.004506
0.270406 0.083410 0.003050
0.270486 0.083603 0.003069
0.274787 0.086836 0.004630
0.274905 0.088191 0.005482
0.285516 0.107419 0.011412
0.296910 0.117269 0.022029
0.302447 0.122419 0.030693
0.312201 0.134492 0.039288
0.320775 0.138781 0.050983
0.323137 0.142688 0.059978
0.324709 0.146598 0.058052
0.328218 0.147788 0.064272
0.328238 0.147816 0.064288
0.330195 0.150168 0.066247
0.000000 0.023529 0.003922
0.000000 0.023529 0.003922
0.000000 0.039434 0.002760
0.003240 0.045776 0.006864
0.036904 0.035554 0.000000
0.083335 0.028918 0.000000
0.098620 0.031858 0.000000
0.115458 0.036240 0.000000
0.135181 0.039982 0.000000
0.153983 0.050672 0.000000
0.167807 0.067397 0.000000
0.183862 0.072217 0.000000
0.207835 0.072733 0.000000
0.219841 0.069942 0.000000
0.232090 0.078184 0.000000
0.253997 0.079410 0.002166
0.263578 0.080824 0.002219
0.269859 0.083711 0.002986
0.270363 0.083306 0.003022
0.270470 0.083560 0.003048
0.271697 0.086436 0.001540
0.277620 0.092087 0.005469
0.287055 0.107798 0.012169
0.296902 0.117272 0.022008
0.304389 0.129422 0.025991
0.314531 0.137215 0.040810
0.315323 0.139559 0.038115
0.324293 0.146196 0.057602
0.324703 0.146615 0.058008
0.324719 0.146641 0.058020
0.328233 0.149772 0.058433
0.329414 0.150960 0.062337
0.330595 0.150592 0.063912
0.000000 0.058824 0.007843
0.000000 0.059796 0.004194
0.000000 0.060320 0.000658
0.000000 0.055225 0.000000
0.027075 0.052457 0.000000
0.073809 0.045240 0.000000
0.110846 0.041205 0.000000
0.130493 0.036071 0.000000
0.143236 0.051630 0.000000
0.158543 0.065456 0.000000
0.174098 0.075425 0.000000
0.186913 0.076228 0.000000
0.208116 0.072934 0.000000
0.224854 0.079787 0.000000
0.240421 0.082871 0.000000
0.253393 0.083470 0.000000
0.266152 0.085764 0.002201
0.269215 0.085831 0.002236
0.271587 0.086184 0.000757
0.271697 0.086452 0.000769
0.276829 0.094033 0.005444
0.285091 0.109742 0.007080
0.292225 0.115725 0.017314
0.304386 0.129426 0.025970
0.309079 0.136828 0.029110
0.315705 0.145011 0.029526
0.315718 0.146604 0.031864
0.324302 0.148191 0.051735
0.325098 0.150937 0.049428
0.328610 0.152126 0.055664
0.328630 0.152149 0.055693
0.330591 0.150613 0.063885
0.332161 0.154519 0.066630
0.000000 0.059978 0.006353
0.000000 0.065887 0.000000
0.000000 0.066876 0.000000
0.002250 0.066105 0.000000
0.017090 0.065100 0.000000
0.052926 0.064572 0.000000
0.109318 0.047552 0.000000
0.136128 0.048770 0.000000
0.150168 0.067668 0.000000
0.165555 0.074669 0.000000
0.177754 0.080518 0.000000
0.191192 0.078777 0.000000
0.206165 0.086319 0.000000
0.235027 0.085583 0.000000
0.243890 0.083983 0.000000
0.262764 0.087602 0.000000
0.267331 0.088903 0.000000
0.270477 0.090079 0.000000
0.270576 0.090425 0.000000
0.274897 0.104175 0.001551
0.285090 0.110926 0.006285
0.294560 0.121198 0.013786
0.307870 0.132535 0.025926
0.309854 0.139168 0.026367
0.313359 0.145427 0.025590
0.315711 0.146634 0.031827
0.320008 0.151341 0.036494
0.325083 0.150979 0.049347
0.325100 0.150999 0.049375
0.328618 0.152186 0.055627
0.331360 0.155704 0.059937
0.331373 0.155713 0.059966
0.337236 0.156505 0.073251
0.000000 0.067794 0.002379
0.000000 0.072526 0.000000
0.000000 0.077960 0.000000
0.000000 0.084089 0.000000
0.027005 0.075994 0.000000
0.049814 0.073509 0.000000
0.108406 0.064642 0.000000
0.132294 0.079772 0.000000
0.152695 0.081494 0.000000
0.172646 0.084033 0.000000
0.181337 0.089807 0.000000
0.189456 0.090707 0.000000
0.219755 0.097121 0.000000
0.232165 0.094880 0.000000
0.250921 0.090488 0.000000
0.265786 0.090814 0.000000
0.268980 0.097352 0.000000
0.269096 0.097659 0.000000
0.278001 0.110088 0.001541
0.285838 0.114498 0.006236
0.293364 0.130956 0.006319
0.305522 0.137995 0.015357
0.312557 0.144638 0.020861
0.314133 0.148201 0.023203
0.314144 0.149812 0.025525
0.316494 0.151011 0.030581
0.320014 0.151425 0.036432
0.323140 0.155332 0.040338
0.329379 0.158852 0.051644
0.329397 0.158860 0.051683
0.329411 0.158867 0.051715
0.336827 0.160817 0.068115
0.336861 0.160831 0.068182
0.000000 0.087454 0.001549
0.000000 0.089230 0.000000
0.000000 0.092255 0.000000
0.002256 0.093714 0.000000
0.008231 0.090543 0.000000
0.054253 0.088095 0.000000
0.100201 0.091475 0.000000
0.131561 0.088134 0.000000
0.155454 0.086756 0.000000
0.175335 0.089931 0.000000
0.185856 0.092436 0.000000
0.194885 0.097602 0.000000
0.212502 0.114749 0.000000
0.230869 0.108483 0.000000
0.248636 0.106757 0.000000
0.264358 0.116045 0.000000
0.268303 0.116523 0.000000
0.271837 0.120816 0.000000
0.283868 0.127890 0.001552
0.295635 0.140387 0.005453
0.301585 0.145869 0.007063
0.310581 0.153304 0.012952
0.310607 0.153379 0.012951
0.313356 0.152250 0.023090
0.313367 0.153830 0.024250
0.319992 0.158131 0.031639
0.320016 0.158148 0.031672
0.322746 0.161261 0.036352
0.329368 0.158931 0.051549
0.329776 0.160485 0.051214
0.335234 0.165532 0.059427
0.335277 0.165541 0.059521
0.335313 0.165547 0.059599
0.000000 0.094236 0.001542
0.000000 0.092579 0.000000
0.000000 0.098952 0.000000
0.000000 0.101915 0.000000
0.008744 0.097082 0.000000
0.061971 0.099755 0.000000
0.097749 0.097459 0.000000
0.124973 0.101143 0.000000
0.153376 0.100741 0.000000
0.178840 0.098920 0.000000
0.187509 0.101379 0.000000
0.208683 0.117248 0.000000
0.216956 0.121685 0.000000
0.229403 0.124437 0.000000
0.254841 0.128984 0.000000
0.263271 0.132043 0.000000
0.267208 0.135632 0.000000
0.272283 0.139983 0.000000
0.288968 0.143947 0.000000
0.297611 0.155677 0.000000
0.302357 0.165511 0.000000
0.307464 0.162885 0.003879
0.307876 0.164474 0.009696
0.311008 0.169920 0.010493
0.312189 0.169148 0.013222
0.318408 0.166816 0.024880
0.318436 0.166800 0.024942
0.322726 0.171827 0.028874
0.326244 0.169874 0.037090
0.326267 0.169861 0.037158
0.333300 0.169861 0.050464
0.338786 0.171419 0.066115
0.341553 0.176481 0.072062
0.000000 0.103544 0.003065
0.000000 0.106020 0.000000
0.000000 0.110326 0.000000
0.004328 0.114168 0.000000
0.016184 0.117284 0.000000
0.056836 0.119843 0.000000
0.067137 0.118227 0.000000
0.134087 0.114965 0.000000
0.144322 0.118489 0.000000
0.170884 0.115917 0.000000
0.196464 0.122414 0.000000
0.214176 0.124881 0.000000
0.224933 0.134486 0.000000
0.240879 0.135698 0.000000
0.257191 0.136039 0.000000
0.262589 0.138881 0.000000
0.271467 0.142784 0.000000
0.282292 0.156321 0.000000
0.290201 0.163899 0.000000
0.299965 0.170586 0.000000
0.300091 0.170693 0.000000
0.305161 0.176896 0.000000
0.305588 0.181181 0.000000
0.308691 0.181985 0.000000
0.311017 0.179700 0.005390
0.315277 0.178155 0.013518
0.315303 0.178139 0.013579
0.320749 0.178122 0.023320
0.324273 0.176158 0.031550
0.328580 0.180016 0.038639
0.331358 0.183120 0.041105
0.336848 0.182736 0.053270
0.340005 0.180800 0.063883
0.000000 0.114534 0.012409
0.000000 0.118779 0.005364
0.001954 0.119327 0.000000
0.010235 0.124417 0.000000
0.030076 0.134242 0.000000
0.042604 0.147525 0.000000
0.055100 0.152130 0.000000
0.102303 0.141380 0.000000
0.142919 0.133966 0.000000
0.168273 0.133352 0.000000
0.196114 0.134578 0.000000
0.218464 0.136574 0.000000
0.229501 0.137886 0.000000
0.240191 0.142049 0.000000
0.254654 0.142977 0.000000
0.264460 0.146493 0.000000
0.278326 0.157231 0.000000
0.287003 0.166281 0.000000
0.299876 0.170601 0.000000
0.300424 0.173383 0.000000
0.305143 0.178464 0.000000
0.305582 0.181203 0.000000
0.307154 0.184309 0.000000
0.307185 0.184335 0.000000
0.307205 0.184353 0.000000
0.312574 0.181678 0.008061
0.316052 0.185886 0.010424
0.320725 0.185127 0.019376
0.320769 0.185123 0.019470
0.331291 0.183179 0.040916
0.333684 0.186666 0.044946
0.336856 0.182782 0.053262
0.341185 0.183177 0.067007
0.000000 0.124402 0.019977
0.000000 0.137953 0.010932
0.005063 0.145751 0.006222
0.015439 0.149502 0.001550
0.041706 0.156340 0.000000
0.047097 0.159140 0.000000
0.059398 0.162869 0.000000
0.070265 0.166887 0.000000
0.125607 0.154667 0.000000
0.160075 0.152480 0.000000
0.192155 0.144290 0.000000
0.210657 0.149963 0.000000
0.225525 0.151325 0.000000
0.245051 0.155336 0.000000
0.258873 0.153597 0.000000
0.269397 0.158583 0.000000
0.283775 0.167463 0.000000
0.286718 0.167945 0.000000
0.300725 0.177597 0.000000
0.302796 0.178865 0.000000
0.305565 0.181233 0.000000
0.307145 0.184326 0.000000
0.307186 0.184353 0.000000
0.307212 0.184372 0.000000
0.308369 0.184004 0.000000
0.316014 0.185942 0.010307
0.316060 0.185955 0.010390
0.320715 0.185190 0.019313
0.320760 0.185179 0.019415
0.333607 0.186716 0.044742
0.333689 0.186713 0.044940
0.339196 0.186321 0.058703
0.343533 0.192546 0.064699
0.000000 0.155248 0.036379
0.000000 0.162055 0.017183
0.005849 0.167656 0.006693
0.028462 0.168319 0.001585
0.037453 0.167238 0.000760
0.044503 0.175860 0.000000
0.049692 0.176447 0.000000
0.058317 0.177417 0.000000
0.104187 0.181662 0.000000
0.133936 0.188362 0.000000
0.156824 0.187230 0.000000
0.194990 0.177808 0.000000
0.218828 0.177536 0.000000
0.224389 0.180251 0.000000
0.249011 0.176419 0.000000
0.263814 0.173210 0.000000
0.282396 0.171009 0.000000
0.298711 0.178383 0.000000
0.300817 0.177742 0.000000
0.305149 0.183169 0.000000
0.307121 0.185106 0.000000
0.307174 0.185132 0.000000
0.307208 0.185151 0.000000
0.307230 0.185163 0.000000
0.311827 0.188244 0.002306
0.311858 0.188284 0.002334
0.313782 0.192124 0.007693
0.318404 0.191396 0.016575
0.325795 0.191793 0.029842
0.331293 0.192953 0.042040
0.331371 0.192953 0.042237
0.335713 0.190624 0.050574
0.363119 0.254090 0.064615
0.000000 0.175887 0.036015
0.000000 0.189794 0.027273
0.004220 0.187531 0.008677
0.020698 0.182402 0.004306
0.033035 0.181874 0.000761
0.041550 0.180787 0.000000
0.047221 0.180979 0.000000
0.063386 0.202873 0.000000
0.090960 0.205041 0.000000
0.120671 0.213904 0.000000
0.138879 0.222980 0.000000
0.155915 0.222819 0.000000
0.161384 0.228766 0.000000
0.211300 0.204214 0.000000
0.217815 0.205189 0.000000
0.263868 0.181988 0.000000
0.277542 0.182227 0.000000
0.298434 0.180434 0.000000
0.300541 0.182430 0.000000
0.307081 0.185121 0.000000
0.307148 0.185149 0.000000
0.307194 0.185168 0.000000
0.307225 0.185181 0.000000
0.311830 0.188264 0.002308
0.311866 0.188306 0.002338
0.309592 0.211237 0.002360
0.309955 0.237185 0.002373
0.311094 0.241059 0.007790
0.318419 0.241720 0.020954
0.329352 0.272333 0.015628
0.347871 0.304977 0.027705
0.364415 0.374777 0.027654
0.373942 0.408045 0.015569
0.000000 0.188264 0.030198
0.000000 0.191048 0.027279
0.000769 0.194192 0.016749
0.012512 0.190310 0.008565
0.026793 0.186059 0.003408
0.040837 0.186498 0.000000
0.063017 0.202858 0.000000
0.067753 0.206876 0.000000
0.098234 0.215346 0.000000
0.121046 0.222144 0.000000
0.140169 0.230140 0.000000
0.155296 0.241257 0.000000
0.159484 0.247454 0.000000
0.175956 0.241055 0.000000
0.180568 0.242980 0.000000
0.212966 0.246912 0.000000
0.254355 0.227396 0.000000
0.283395 0.214547 0.000000
0.300334 0.206021 0.000000
0.300471 0.205870 0.000000
0.298260 0.228866 0.000000
0.300202 0.229036 0.000000
0.303283 0.257545 0.002285
0.303359 0.257960 0.002312
0.303419 0.258282 0.002333
0.305016 0.285947 0.002344
0.305068 0.286329 0.002353
0.311741 0.316798 0.002356
0.343294 0.390044 0.002348
0.351814 0.425903 0.002329
0.352191 0.426620 0.002313
0.387525 0.506929 0.000000
0.397799 0.515997 0.000000
0.000000 0.192968 0.030150
0.000000 0.195752 0.023844
0.000000 0.195441 0.021778
0.012887 0.197350 0.010509
0.018670 0.195760 0.006465
0.047253 0.199597 0.000000
0.055595 0.208082 0.000000
0.083471 0.218466 0.000000
0.101968 0.231235 0.000000
0.125481 0.243459 0.000000
0.149112 0.250973 0.000000
0.156105 0.247419 0.000000
0.159404 0.248480 0.000000
0.175712 0.269602 0.000000
0.180170 0.280071 0.000000
0.192611 0.299183 0.000000
0.207981 0.316743 0.000000
0.241357 0.301273 0.000000
0.256259 0.291558 0.000000
0.283385 0.293790 0.000000
0.283794 0.295179 0.000000
0.293774 0.307272 0.000000
0.297035 0.310889 0.002231
0.297311 0.310914 0.002258
0.297530 0.310891 0.002279
0.306212 0.366306 0.002288
0.335219 0.409374 0.002286
0.344756 0.465728 0.000000
0.359825 0.476842 0.000000
0.366725 0.488192 0.000000
0.369811 0.496194 0.000000
0.397757 0.516020 0.000000
0.426918 0.546324 0.000000
0.000000 0.195730 0.023947
0.000000 0.195805 0.023845
0.000000 0.195499 0.021817
0.012857 0.197426 0.010527
0.024235 0.198164 0.006516
0.049679 0.212845 0.002267
0.058825 0.219745 0.002227
0.095865 0.229241 0.000000
0.108127 0.242675 0.000000
0.132113 0.251770 0.000000
0.143121 0.254857 0.000000
0.152797 0.252770 0.000000
0.172148 0.273021 0.000000
0.186422 0.298319 0.000000
0.188296 0.306105 0.000000
0.208540 0.323453 0.000000
0.209830 0.325308 0.000000
0.224238 0.342496 0.000000
0.242751 0.366982 0.000000
0.260246 0.368625 0.000000
0.272667 0.358034 0.000000
0.278183 0.365257 0.000000
0.281602 0.390687 0.000000
0.305453 0.436928 0.000000
0.310066 0.448377 0.000000
0.319111 0.457700 0.000000
0.344493 0.465659 0.000000
0.351717 0.477190 0.000000
0.369301 0.495798 0.000000
0.369805 0.496241 0.000000
0.398086 0.523348 0.000000
0.426871 0.546360 0.000000
0.442477 0.556957 0.000000
0.000000 0.197309 0.031273
0.000000 0.200061 0.031526
0.000000 0.203189 0.031047
0.012062 0.201695 0.014387
0.028095 0.210924 0.009242
0.058051 0.219626 0.002297
0.067792 0.224228 0.000000
0.100518 0.241534 0.000000
0.127729 0.255875 0.000000
0.132971 0.256693 0.000000
0.153019 0.277481 0.000000
0.154785 0.279040 0.000000
0.186683 0.304232 0.000000
0.195686 0.318632 0.000000
0.204617 0.324790 0.000000
0.210619 0.326850 0.000000
0.227496 0.354102 0.000000
0.239228 0.370745 0.000000
0.258334 0.391969 0.000000
0.259264 0.392937 0.000000
0.272939 0.407982 0.000000
0.281042 0.415736 0.000000
0.308477 0.447036 0.000000
0.309672 0.448061 0.000000
0.318834 0.457466 0.000000
0.338937 0.468492 0.000000
0.351519 0.477133 0.000000
0.369179 0.495776 0.000000
0.369790 0.496303 0.000000
0.398064 0.523393 0.000000
0.426811 0.546416 0.000000
0.426948 0.546570 0.000000
0.472713 0.587607 0.000000
0.000000 0.201219 0.037123
0.000000 0.203576 0.035858
0.000000 0.206693 0.034622
0.012014 0.207904 0.019858
0.048723 0.217261 0.006199
0.061065 0.228668 0.002311
0.102073 0.244133 0.000000
0.127513 0.255902 0.000000
0.128197 0.256271 0.000000
0.143781 0.271529 0.000000
0.164954 0.292493 0.000000
0.186893 0.304570 0.000000
0.195858 0.318921 0.000000
0.204808 0.325134 0.000000
0.213628 0.337686 0.000000
0.227861 0.354813 0.000000
0.239503 0.371287 0.000000
0.258220 0.392278 0.000000
0.259318 0.393415 0.000000
0.272696 0.408094 0.000000
0.277065 0.418890 0.000000
0.298339 0.443269 0.000000
0.309153 0.447656 0.000000
0.318461 0.457162 0.000000
0.319754 0.458348 0.000000
0.351249 0.477058 0.000000
0.369016 0.495756 0.000000
0.369759 0.496386 0.000000
0.398033 0.523459 0.000000
0.413409 0.539994 0.000000
0.437588 0.558492 0.000000
0.472468 0.587498 0.000000
0.478983 0.592282 0.000000
0.000000 0.205519 0.039516
0.000000 0.208645 0.038280
0.001936 0.210983 0.037041
0.001982 0.215268 0.030723
0.056743 0.230901 0.006201
0.070493 0.234208 0.002309
0.111349 0.249051 0.000000
0.127905 0.256211 0.000000
0.143554 0.271621 0.000000
0.164845 0.292740 0.000000
0.177166 0.303574 0.000000
0.195845 0.318959 0.000000
0.198090 0.321782 0.000000
0.213523 0.337605 0.000000
0.237731 0.369202 0.000000
0.239585 0.371508 0.000000
0.250954 0.387495 0.000000
0.259636 0.401987 0.000000
0.270805 0.415229 0.000000
0.282147 0.428354 0.000000
0.297761 0.442667 0.000000
0.308514 0.447170 0.000000
0.317981 0.456786 0.000000
0.319575 0.458241 0.000000
0.335805 0.472913 0.000000
0.368805 0.495742 0.000000
0.369709 0.496497 0.000000
0.399904 0.526990 0.000000
0.413391 0.540102 0.000000
0.431013 0.554727 0.000000
0.456017 0.576605 0.000000
0.478787 0.592226 0.000000
0.502813 0.607885 0.000000
0.000000 0.209042 0.048885
0.000000 0.210993 0.044547
0.001940 0.212945 0.037510
0.012096 0.217267 0.025769
0.057034 0.232614 0.008125
0.096611 0.245571 0.002298
0.127722 0.256167 0.000000
0.143407 0.271682 0.000000
0.164758 0.292900 0.000000
0.176895 0.303538 0.000000
0.195741 0.318860 0.000000
0.197594 0.321187 0.000000
0.213116 0.337052 0.000000
0.235110 0.369175 0.000000
0.248142 0.386391 0.000000
0.258489 0.400799 0.000000
0.259636 0.402134 0.000000
0.270647 0.415151 0.000000
0.281772 0.427987 0.000000
0.297188 0.442114 0.000000
0.298760 0.443665 0.000000
0.311070 0.454251 0.000000
0.319330 0.458102 0.000000
0.335683 0.472882 0.000000
0.363763 0.498700 0.000000
0.369636 0.496643 0.000000
0.399865 0.527140 0.000000
0.413363 0.540249 0.000000
0.421171 0.547696 0.000000
0.455694 0.576488 0.000000
0.472743 0.587912 0.000000
0.497883 0.610803 0.000000
0.509922 0.616328 0.000000
0.000000 0.211792 0.050131
0.000000 0.214124 0.049293
0.000000 0.218807 0.048080
0.042254 0.232524 0.019136
0.068082 0.240077 0.008125
0.127611 0.256137 0.000000
0.143319 0.271722 0.000000
0.159390 0.291482 0.000000
0.176674 0.303472 0.000000
0.189985 0.319433 0.000000
0.197093 0.320572 0.000000
0.209519 0.339426 0.000000
0.235042 0.369143 0.000000
0.248144 0.386456 0.000000
0.258639 0.401153 0.000000
0.259649 0.402330 0.000000
0.270634 0.415301 0.000000
0.281570 0.427891 0.000000
0.296806 0.441815 0.000000
0.298430 0.443390 0.000000
0.310735 0.453946 0.000000
0.319028 0.457945 0.000000
0.335524 0.472846 0.000000
0.363709 0.498721 0.000000
0.364800 0.499824 0.000000
0.394924 0.530358 0.000000
0.413323 0.540441 0.000000
0.421145 0.547889 0.000000
0.448515 0.571082 0.000000
0.477342 0.598075 0.000000
0.478392 0.598748 0.000000
0.509657 0.616222 0.000000
0.518205 0.623190 0.000000
0.000000 0.216472 0.056793
0.000000 0.218815 0.055194
0.008957 0.229352 0.051250
0.042471 0.239282 0.023807
0.069921 0.256516 0.016677
0.142098 0.277923 0.000000
0.158132 0.293471 0.000000
0.165848 0.304564 0.000000
0.189652 0.319213 0.000000
0.192887 0.330952 0.000000
0.221010 0.357276 0.000000
0.234979 0.369092 0.000000
0.248130 0.386474 0.000000
0.258785 0.401478 0.000000
0.270064 0.414863 0.000000
0.270759 0.415625 0.000000
0.281621 0.428129 0.000000
0.296772 0.441924 0.000000
0.298253 0.443327 0.000000
0.310491 0.453770 0.000000
0.312480 0.455725 0.000000
0.335337 0.472810 0.000000
0.353380 0.491801 0.000000
0.364925 0.500037 0.000000
0.395016 0.530539 0.000000
0.408433 0.543628 0.000000
0.421109 0.548129 0.000000
0.448139 0.571012 0.000000
0.468078 0.591309 0.000000
0.478074 0.598575 0.000000
0.498332 0.611130 0.000000
0.517929 0.623069 0.000000
0.549387 0.643146 0.000000
0.000000 0.217663 0.063856
0.000000 0.230926 0.066944
0.009071 0.236531 0.053612
0.057312 0.259252 0.033243
0.112059 0.285722 0.018312
0.150303 0.295427 0.000000
0.165579 0.304502 0.000000
0.187390 0.329224 0.000000
0.191122 0.332381 0.000000
0.220844 0.357232 0.000000
0.234931 0.369043 0.000000
0.248109 0.386463 0.000000
0.258887 0.401709 0.000000
0.270371 0.415347 0.000000
0.270921 0.415963 0.000000
0.281841 0.428552 0.000000
0.297062 0.442376 0.000000
0.298282 0.443506 0.000000
0.303841 0.448974 0.000000
0.313426 0.458893 0.000000
0.329864 0.473889 0.000000
0.354419 0.496583 0.000000
0.365043 0.500248 0.000000
0.390689 0.529995 0.000000
0.408477 0.543776 0.000000
0.421064 0.548405 0.000000
0.431934 0.560299 0.000000
0.467436 0.590932 0.000000
0.477638 0.598334 0.000000
0.497791 0.610843 0.000000
0.508590 0.621781 0.000000
0.528098 0.632152 0.000000
0.549863 0.643384 0.000000
0.000000 0.232111 0.074044
0.000000 0.240003 0.072862
0.018061 0.252708 0.060723
0.069412 0.269210 0.033360
0.121576 0.303126 0.018397
0.147755 0.308252 0.008432
0.181704 0.327535 0.000000
0.190597 0.332065 0.000000
0.204997 0.343358 0.000000
0.221408 0.358071 0.000000
0.245523 0.387553 0.000000
0.258947 0.401851 0.000000
0.270616 0.415714 0.000000
0.271059 0.416223 0.000000
0.282104 0.428984 0.000000
0.297512 0.442965 0.000000
0.298466 0.443835 0.000000
0.303902 0.449175 0.000000
0.313339 0.458934 0.000000
0.329774 0.473903 0.000000
0.345613 0.489671 0.000000
0.355997 0.498171 0.000000
0.390817 0.530130 0.000000
0.408516 0.543916 0.000000
0.409232 0.544661 0.000000
0.431374 0.566421 0.000000
0.459725 0.586457 0.000000
0.477076 0.598019 0.000000
0.478578 0.598972 0.000000
0.508164 0.621557 0.000000
0.509483 0.622301 0.000000
0.549601 0.643281 0.000000
0.550382 0.643644 0.000000
0.000000 0.241576 0.077608
0.009013 0.248407 0.067856
0.041096 0.271156 0.051836
0.099817 0.291540 0.026027
0.135076 0.314311 0.018393
0.163028 0.327407 0.009601
0.190217 0.331830 0.000000
0.204613 0.343094 0.000000
0.221181 0.357875 0.000000
0.245514 0.387593 0.000000
0.257171 0.400122 0.000000
0.270796 0.415972 0.000000
0.271157 0.416398 0.000000
0.281329 0.431152 0.000000
0.296931 0.445336 0.000000
0.297649 0.446017 0.000000
0.300735 0.448329 0.000000
0.313291 0.459011 0.000000
0.329685 0.473922 0.000000
0.345518 0.489678 0.000000
0.355915 0.498145 0.000000
0.390910 0.530225 0.000000
0.404244 0.543234 0.000000
0.409308 0.544828 0.000000
0.431201 0.566332 0.000000
0.443102 0.574083 0.000000
0.467851 0.591309 0.000000
0.478118 0.598726 0.000000
0.507586 0.621253 0.000000
0.509134 0.622126 0.000000
0.549223 0.643127 0.000000
0.550161 0.643562 0.000000
0.559406 0.649814 0.000000
0.000000 0.246434 0.078852
0.021130 0.263747 0.065183
0.068057 0.293778 0.048301
0.119499 0.313808 0.025966
0.135391 0.314564 0.018360
0.166510 0.332779 0.009600
0.214264 0.360072 0.000000
0.214870 0.360651 0.000000
0.245499 0.387608 0.000000
0.257135 0.400105 0.000000
0.270927 0.416150 0.000000
0.281294 0.431253 0.000000
0.281536 0.431500 0.000000
0.297346 0.445871 0.000000
0.297910 0.446407 0.000000
0.298619 0.447082 0.000000
0.313277 0.459101 0.000000
0.320802 0.466233 0.000000
0.345400 0.489658 0.000000
0.354615 0.499894 0.000000
0.392709 0.535671 0.000000
0.404227 0.543214 0.000000
0.405157 0.544163 0.000000
0.431067 0.566253 0.000000
0.442731 0.573873 0.000000
0.467167 0.590906 0.000000
0.477555 0.598414 0.000000
0.484748 0.606475 0.000000
0.508626 0.621866 0.000000
0.520366 0.629652 0.000000
0.549820 0.643427 0.000000
0.559163 0.649712 0.000000
0.573833 0.655913 0.000000
0.008968 0.255924 0.083194
0.024341 0.274338 0.071350
0.090091 0.306359 0.043161
0.119865 0.314032 0.025888
0.144690 0.327932 0.018296
0.204487 0.356125 0.000000
0.223355 0.373787 0.000000
0.239041 0.387944 0.000000
0.257103 0.400080 0.000000
0.271022 0.416272 0.000000
0.281496 0.431548 0.000000
0.281695 0.431758 0.000000
0.297681 0.446287 0.000000
0.298131 0.446719 0.000000
0.298698 0.447261 0.000000
0.307654 0.456558 0.000000
0.320671 0.466179 0.000000
0.345288 0.489627 0.000000
0.357340 0.503457 0.000000
0.387708 0.534050 0.000000
0.403047 0.544907 0.000000
0.404004 0.545793 0.000000
0.430994 0.566198 0.000000
0.442437 0.573692 0.000000
0.466536 0.590523 0.000000
0.476951 0.598066 0.000000
0.484235 0.606179 0.000000
0.507974 0.621527 0.000000
