lut/default_lut.cube
TITLE
LUT_3D_SIZE 5
DOMAIN_MIN 0.0 0.0 0.0
DOMAIN_MAX 1.0 1.0 1.0
0.000000 0.023529 0.023529
0.114102 0.030742 0.000000
0.258354 0.080040 0.002248
0.285524 0.101194 0.015704
0.328240 0.147803 0.064315
0.000000 0.103544 0.003065
0.144322 0.118489 0.000000
0.271467 0.142784 0.000000
0.311017 0.179700 0.005390
0.340005 0.180800 0.063883
0.000000 0.197309 0.031273
0.127729 0.255875 0.000000
0.227496 0.354102 0.000000
0.318834 0.457466 0.000000
0.472713 0.587607 0.000000
0.000000 0.241576 0.077608
0.221181 0.357875 0.000000
0.300735 0.448329 0.000000
0.431201 0.566332 0.000000
0.559406 0.649814 0.000000
0.177317 0.367151 0.018752
0.298976 0.447720 0.000000
0.406892 0.551064 0.000000
0.519948 0.633833 0.000000
0.603263 0.669569 0.000000
0.000000 0.068882 0.136935
0.125370 0.077967 0.116352
0.275708 0.109403 0.085249
0.331354 0.143906 0.093358
0.362779 0.176838 0.151400
0.000000 0.147651 0.127128
0.098039 0.156863 0.156863
0.330968 0.149938 0.095756
0.362896 0.185096 0.142320
0.407166 0.230275 0.232673
0.000000 0.224107 0.113974
0.015318 0.282025 0.081843
0.255839 0.342878 0.002793
0.394416 0.454962 0.001503
0.530781 0.581459 0.005446
0.000000 0.271766 0.123042
0.148599 0.357491 0.042429
0.329334 0.483578 0.000000
0.469249 0.589902 0.000000
0.613231 0.665749 0.000000
0.083280 0.358710 0.151969
0.282460 0.506025 0.094048
0.424692 0.584076 0.000000
0.546569 0.653811 0.000000
0.643989 0.690036 0.000000
0.000000 0.117265 0.237790
0.005434 0.135315 0.296569
0.295898 0.143463 0.220366
0.349375 0.174538 0.228084
0.405194 0.228283 0.269855
0.000000 0.187734 0.282754
0.005656 0.189297 0.371501
0.290846 0.200787 0.290792
0.419979 0.247263 0.292051
0.471836 0.303998 0.329128
0.000000 0.247129 0.278389
0.000000 0.298869 0.343526
0.270588 0.329412 0.329412
0.488258 0.341517 0.345681
0.549017 0.415283 0.427819
0.000000 0.305252 0.274206
0.157990 0.424321 0.299176
0.248365 0.521541 0.290067
0.520850 0.580600 0.199310
0.667789 0.679105 0.018488
0.174778 0.467989 0.288508
0.245090 0.520594 0.275743
0.390002 0.631351 0.205104
0.545240 0.712166 0.176002
0.672717 0.722625 0.061438
0.000000 0.169413 0.334196
0.048158 0.190968 0.396511
0.062956 0.209896 0.430035
0.355598 0.247022 0.364722
0.474899 0.321934 0.388609
0.000000 0.223900 0.383992
0.008358 0.244171 0.432375
0.173034 0.275658 0.495016
0.428245 0.332578 0.454613
0.535271 0.401527 0.496807
0.000000 0.272606 0.398357
0.000000 0.323147 0.497343
0.206089 0.373686 0.579622
0.511630 0.404978 0.525473
0.594453 0.471334 0.553396
0.028005 0.355461 0.422691
0.128092 0.423771 0.529145
0.283358 0.501373 0.585642
0.501961 0.568627 0.568627
0.626286 0.545205 0.588997
0.150131 0.462183 0.463992
0.274577 0.543024 0.469294
0.440516 0.698620 0.449787
0.499812 0.762202 0.438021
0.640107 0.757005 0.384694
0.001174 0.214131 0.396089
0.064113 0.224256 0.446286
0.157788 0.271702 0.494531
0.297524 0.363175 0.589183
0.510899 0.394446 0.516075
0.000000 0.272500 0.446247
0.024012 0.314466 0.508631
0.258991 0.361573 0.593819
0.335586 0.425338 0.665933
0.585498 0.481170 0.594107
0.000000 0.319233 0.495347
0.109763 0.404002 0.591790
0.240846 0.463428 0.673234
0.430767 0.514764 0.737262
0.583583 0.510987 0.640770
0.084660 0.406347 0.560790
0.238224 0.489510 0.670154
0.333235 0.544689 0.718680
0.498134 0.592436 0.780530
0.599658 0.661192 0.799193
0.220793 0.483755 0.645305
0.317520 0.542289 0.691382
0.434135 0.612565 0.725147
0.574103 0.701624 0.731385
0.692269 0.755098 0.760701
