lut/dtl.cube
TITLE
LUT_3D_SIZE 5
DOMAIN_MIN 0.0 0.0 0.0
DOMAIN_MAX 1.0 1.0 1.0
0.000671 0.010303 0.000000
0.093350 0.034458 0.000000
0.211850 0.090380 0.024992
0.332583 0.156998 0.077242
0.377681 0.183530 0.092849
0.004700 0.057184 0.000000
0.134142 0.085782 0.010496
0.294193 0.138437 0.069611
0.368448 0.177706 0.087491
0.447561 0.238066 0.142602
0.035646 0.105461 0.063074
0.188247 0.159212 0.090187
0.336138 0.166285 0.082720
0.433901 0.228412 0.133734
0.464476 0.250789 0.153442
0.097237 0.153716 0.121167
0.230591 0.201571 0.124314
0.316841 0.258035 0.170975
0.465256 0.254174 0.157674
0.465870 0.254625 0.158058
0.158796 0.204315 0.170978
0.300787 0.270604 0.186661
0.350889 0.311348 0.217613
0.461950 0.370185 0.262341
0.494126 0.383416 0.270092
0.022228 0.022075 0.062144
0.140804 0.065581 0.039412
0.270993 0.133188 0.075317
0.358652 0.173663 0.088177
0.434110 0.228592 0.133969
0.033075 0.117922 0.094810
0.145693 0.145614 0.096272
0.311406 0.161078 0.098237
0.419344 0.218433 0.126330
0.466244 0.253163 0.158018
0.092556 0.154510 0.141995
0.162351 0.207470 0.172545
0.311751 0.249377 0.164681
0.465818 0.254591 0.158077
0.467862 0.256187 0.159776
0.138811 0.209793 0.197250
0.224314 0.263144 0.225897
0.333319 0.300844 0.209816
0.455680 0.360779 0.256062
0.490636 0.374468 0.265088
0.199603 0.271778 0.256100
0.270940 0.315682 0.277652
0.397635 0.348643 0.252181
0.497244 0.416485 0.299612
0.508666 0.430998 0.316498
0.083512 0.084365 0.155835
0.136873 0.125486 0.206672
0.258443 0.154915 0.157268
0.369812 0.199215 0.144301
0.465676 0.252996 0.158035
0.112613 0.146265 0.229133
0.174444 0.171464 0.238634
0.312576 0.202279 0.210613
0.416161 0.261327 0.208024
0.465323 0.264783 0.176647
0.137987 0.216525 0.274660
0.199220 0.264884 0.260395
0.311100 0.302787 0.253775
0.455718 0.325462 0.259586
0.493800 0.355118 0.271937
0.145065 0.339576 0.411725
0.239235 0.319672 0.301573
0.331773 0.364374 0.317284
0.495610 0.414892 0.298733
0.520214 0.434973 0.327184
0.150964 0.346665 0.412942
0.230573 0.412160 0.443509
0.388956 0.430864 0.386503
0.515291 0.459981 0.365455
0.564437 0.489050 0.405134
0.146614 0.151235 0.282218
0.178451 0.166677 0.316882
0.193739 0.185524 0.340436
0.363525 0.249385 0.259199
0.432919 0.298418 0.276123
0.165881 0.173372 0.314535
0.197529 0.198751 0.350362
0.271361 0.273697 0.339574
0.423120 0.304572 0.302424
0.493675 0.372398 0.341089
0.145280 0.320970 0.406977
0.165306 0.333541 0.412628
0.322483 0.334898 0.391702
0.467998 0.370862 0.351300
0.543553 0.427767 0.384214
0.147068 0.343150 0.413341
0.212975 0.401169 0.446568
0.334561 0.429210 0.420904
0.476443 0.464264 0.410630
0.589641 0.488860 0.427595
0.196887 0.391011 0.456100
0.266670 0.447862 0.470206
0.356464 0.501564 0.501568
0.472057 0.556316 0.501236
0.620654 0.556019 0.481789
0.176862 0.178044 0.325491
0.195296 0.190970 0.345497
0.247481 0.265501 0.410607
0.315151 0.303533 0.405265
0.458475 0.335717 0.326715
0.155181 0.317351 0.409208
0.247585 0.265626 0.410719
0.285390 0.310793 0.446353
0.351404 0.370995 0.449829
0.518816 0.406594 0.376070
0.150930 0.325140 0.413362
0.209037 0.382351 0.455295
0.337332 0.382669 0.491050
0.408220 0.442750 0.507892
0.576448 0.490567 0.447837
0.187864 0.381596 0.449037
0.259117 0.431593 0.494029
0.332290 0.484742 0.529480
0.462123 0.502783 0.536316
0.618795 0.545478 0.499363
0.201187 0.393348 0.458839
0.301520 0.466247 0.516854
0.384730 0.523556 0.535701
0.497208 0.593763 0.562338
0.613496 0.634799 0.570708
