lut/dtl.cube
TITLE
LUT_3D_SIZE 33
DOMAIN_MIN 0.0 0.0 0.0
DOMAIN_MAX 1.0 1.0 1.0
0.000671 0.010303 0.000000
0.013443 0.007759 0.000000
0.009150 0.011520 0.000000
0.040845 0.006868 0.000000
0.052590 0.013288 0.000000
0.061935 0.016453 0.000000
0.072864 0.019912 0.000000
0.087254 0.029576 0.000000
0.093350 0.034458 0.000000
0.106871 0.045617 0.000000
0.119213 0.049876 0.000000
0.127606 0.054709 0.000738
0.141247 0.060740 0.003223
0.150413 0.066750 0.007081
0.156162 0.071896 0.009501
0.173535 0.078951 0.015621
0.211850 0.090380 0.024992
0.243408 0.107963 0.041496
0.261231 0.118241 0.049781
0.272636 0.124024 0.057707
0.302840 0.141295 0.069724
0.309275 0.144129 0.070230
0.332118 0.156682 0.077085
0.332371 0.156850 0.077166
0.332583 0.156998 0.077242
0.344793 0.164273 0.079195
0.353232 0.170415 0.083033
0.362528 0.173621 0.085050
0.366247 0.176098 0.087084
0.371029 0.179294 0.089849
0.371246 0.179452 0.089966
0.377485 0.183379 0.092728
0.377681 0.183530 0.092849
0.000000 0.011567 0.000000
0.010066 0.008982 0.000000
0.033593 0.007473 0.000000
0.048787 0.010944 0.000000
0.054245 0.015225 0.000000
0.069894 0.020365 0.000000
0.079705 0.028083 0.000000
0.091699 0.033389 0.000000
0.107040 0.044830 0.000000
0.115974 0.048361 0.000000
0.127378 0.054323 0.000696
0.128222 0.055071 0.000758
0.149824 0.066342 0.006814
0.155846 0.071647 0.009323
0.156749 0.072287 0.009684
0.174304 0.079444 0.015926
0.227954 0.097415 0.033218
0.244561 0.108490 0.041933
0.262201 0.118654 0.050129
0.302549 0.141122 0.069596
0.303199 0.141414 0.069751
0.309644 0.144266 0.070280
0.332276 0.156730 0.077071
0.332541 0.156910 0.077163
0.332757 0.157068 0.077248
0.353130 0.170289 0.082940
0.362314 0.173458 0.084929
0.366095 0.175971 0.086986
0.370927 0.179199 0.089770
0.371187 0.179388 0.089910
0.377430 0.183318 0.092672
0.377662 0.183496 0.092814
0.388460 0.189330 0.097488
0.000000 0.014259 0.000000
0.008553 0.015558 0.000000
0.027144 0.010117 0.000000
0.052580 0.015358 0.000000
0.063735 0.022025 0.000000
0.075116 0.027874 0.000000
0.082860 0.032192 0.000000
0.102074 0.042108 0.000000
0.107857 0.045599 0.000000
0.119618 0.049955 0.000000
0.129345 0.054887 0.000720
0.145218 0.065791 0.005110
0.155292 0.071310 0.009064
0.156555 0.072163 0.009554
0.173779 0.079201 0.015648
0.190682 0.084719 0.019548
0.243181 0.107936 0.041426
0.261367 0.118316 0.049817
0.273093 0.124226 0.057807
0.302942 0.141253 0.069626
0.309484 0.144129 0.070163
0.332135 0.156575 0.076955
0.332467 0.156796 0.077064
0.332739 0.156989 0.077167
0.344851 0.164219 0.079131
0.353238 0.170339 0.082962
0.362521 0.173564 0.084993
0.366307 0.176091 0.087060
0.371103 0.179304 0.089839
0.377353 0.183239 0.092601
0.377630 0.183450 0.092769
0.388411 0.189282 0.097438
0.388677 0.189477 0.097609
0.001997 0.025454 0.000000
0.007513 0.028005 0.000000
0.022625 0.029025 0.000000
0.056712 0.027872 0.000000
0.068451 0.029293 0.000000
0.081008 0.034759 0.000000
0.092145 0.041100 0.000000
0.106307 0.045865 0.000000
0.118610 0.049972 0.000000
0.128643 0.054755 0.000671
0.135913 0.060404 0.002712
0.154419 0.070924 0.008730
0.156137 0.072000 0.009363
0.157374 0.072776 0.009847
0.174851 0.079916 0.016098
0.241237 0.107148 0.040706
0.260069 0.117793 0.049344
0.272451 0.123964 0.057572
0.293900 0.138160 0.069471
0.303418 0.141419 0.069670
0.323906 0.151285 0.076100
0.332348 0.156648 0.076944
0.332692 0.156884 0.077067
0.332966 0.157087 0.077180
0.353112 0.170185 0.082848
0.353369 0.170409 0.082998
0.366124 0.175941 0.086944
0.370986 0.179196 0.089748
0.371309 0.179431 0.089922
0.377579 0.183390 0.092712
0.377856 0.183602 0.092881
0.388657 0.189450 0.097575
0.401449 0.196493 0.103456
0.003912 0.030604 0.000000
0.011270 0.036259 0.000000
0.012632 0.034490 0.000000
0.055642 0.038098 0.000000
0.071568 0.041638 0.000000
0.081845 0.039038 0.000000
0.099124 0.045263 0.000000
0.109426 0.051142 0.000000
0.118295 0.053656 0.000000
0.136513 0.064769 0.003008
0.137682 0.065537 0.003213
0.155418 0.071839 0.009129
0.157070 0.072767 0.009733
0.174200 0.079724 0.015796
0.183692 0.089729 0.022233
0.242896 0.107937 0.041387
0.261431 0.118398 0.049874
0.281986 0.131545 0.065395
0.303031 0.141217 0.069527
0.309743 0.144151 0.070096
0.332164 0.156464 0.076805
0.332601 0.156749 0.076948
0.332950 0.156997 0.077083
0.352943 0.169994 0.082707
0.353258 0.170265 0.082890
0.362526 0.173514 0.084937
0.368230 0.177577 0.087416
0.371216 0.179342 0.089845
0.377502 0.183310 0.092639
0.377836 0.183564 0.092841
0.388622 0.189412 0.097532
0.401366 0.196425 0.103387
0.412760 0.205820 0.112744
0.003517 0.044271 0.000000
0.007803 0.044651 0.000000
0.013771 0.047824 0.000000
0.045376 0.043527 0.000000
0.071497 0.042019 0.000000
0.080210 0.042618 0.000000
0.104605 0.051800 0.000000
0.113594 0.056403 0.000341
0.130915 0.062968 0.001039
0.137036 0.065924 0.003256
0.146496 0.070791 0.006856
0.156445 0.072744 0.009586
0.160599 0.076230 0.010449
0.182985 0.089453 0.021918
0.213586 0.103199 0.035647
0.259711 0.117725 0.049286
0.281144 0.131270 0.065197
0.293915 0.138149 0.069393
0.303620 0.141450 0.069610
0.324011 0.151242 0.075953
0.332443 0.156584 0.076815
0.332888 0.156882 0.076971
0.344726 0.163963 0.078922
0.353104 0.170089 0.082761
0.353432 0.170375 0.082954
0.368005 0.177403 0.087284
0.371081 0.179225 0.089748
0.371482 0.179515 0.089962
0.377793 0.183511 0.092788
0.388568 0.189361 0.097476
0.388932 0.189626 0.097708
0.412687 0.205754 0.112671
0.413078 0.206058 0.112944
0.005442 0.049406 0.000000
0.010121 0.048213 0.000000
0.015311 0.051320 0.000000
0.040840 0.050911 0.000000
0.070319 0.047454 0.000000
0.085221 0.053267 0.000000
0.107180 0.053063 0.000000
0.117937 0.061449 0.000380
0.136278 0.068456 0.003333
0.139723 0.070922 0.004886
0.155433 0.078733 0.009772
0.160205 0.082434 0.011700
0.174316 0.086004 0.016322
0.184129 0.090165 0.022594
0.239193 0.114115 0.049421
0.277055 0.130177 0.064606
0.285701 0.134736 0.069294
0.294446 0.138363 0.069490
0.307109 0.144581 0.070077
0.332196 0.156402 0.076689
0.332756 0.156746 0.076855
0.334958 0.160601 0.077736
0.352902 0.169885 0.082614
0.353299 0.170224 0.082842
0.367706 0.177186 0.087122
0.368317 0.177607 0.087426
0.371380 0.179425 0.089885
0.377720 0.183439 0.092719
0.382553 0.186700 0.095925
0.388918 0.189607 0.097678
0.412588 0.205669 0.112580
0.413044 0.206023 0.112897
0.419509 0.211645 0.118873
0.008541 0.050210 0.000000
0.009368 0.050958 0.000000
0.017645 0.053328 0.000000
0.036141 0.052955 0.000000
0.075155 0.056767 0.000000
0.088463 0.058434 0.000000
0.105280 0.064939 0.000394
0.127190 0.077286 0.004504
0.138068 0.077042 0.004996
0.140624 0.078252 0.007292
0.159254 0.082522 0.011590
0.160535 0.082868 0.011992
0.183199 0.089914 0.022311
0.207808 0.102933 0.038213
0.246393 0.115151 0.047897
0.284747 0.134523 0.069253
0.293711 0.138180 0.069436
0.303650 0.141518 0.069636
0.326868 0.155209 0.076630
0.332529 0.156604 0.076760
0.334814 0.160490 0.077653
0.340189 0.162549 0.078906
0.353121 0.170055 0.082723
0.353525 0.170398 0.082953
0.368052 0.177425 0.087291
0.371228 0.179309 0.089790
0.377605 0.183343 0.092632
0.382504 0.186649 0.095869
0.388882 0.189575 0.097637
0.406486 0.202580 0.111353
0.412991 0.205974 0.112837
0.419509 0.211634 0.118844
0.425883 0.217575 0.124391
0.004700 0.057184 0.000000
0.008613 0.055283 0.000000
0.017628 0.054555 0.000000
0.041186 0.065472 0.001564
0.068541 0.063516 0.001557
0.098184 0.067495 0.000394
0.124865 0.080890 0.005685
0.129348 0.085219 0.009965
0.134142 0.085782 0.010496
0.143987 0.083161 0.010536
0.158845 0.087041 0.014122
0.167748 0.090211 0.018868
0.197341 0.102068 0.036275
0.218345 0.111811 0.046500
0.269372 0.129391 0.062856
0.288857 0.136928 0.069802
0.294193 0.138437 0.069611
0.307819 0.147281 0.070573
0.327147 0.155430 0.076735
0.334573 0.160404 0.077609
0.335044 0.160681 0.077778
0.352900 0.169890 0.082616
0.353372 0.170271 0.082868
0.367716 0.177215 0.087138
0.368448 0.177706 0.087491
0.371599 0.179574 0.089976
0.382417 0.186581 0.095801
0.388813 0.189528 0.097582
0.394886 0.194714 0.103843
0.412910 0.205909 0.112761
0.413420 0.206300 0.113113
0.427029 0.222094 0.127385
0.447561 0.238066 0.142602
0.002757 0.060769 0.000000
0.006659 0.064321 0.001945
0.019187 0.070973 0.002741
0.050172 0.076050 0.008204
0.061536 0.077663 0.009425
0.102763 0.078821 0.006242
0.125099 0.082328 0.007381
0.131845 0.088607 0.011345
0.135016 0.092109 0.016773
0.142027 0.093318 0.019523
0.160428 0.091822 0.019249
0.173801 0.099147 0.030467
0.206234 0.110275 0.044224
0.240288 0.125429 0.057969
0.280518 0.135685 0.069497
0.294072 0.140875 0.070014
0.298253 0.144230 0.070569
0.319146 0.153608 0.076443
0.334244 0.160369 0.077628
0.334798 0.160641 0.077777
0.343049 0.166592 0.081500
0.353179 0.170159 0.082801
0.353642 0.170522 0.083038
0.368151 0.177541 0.087373
0.371422 0.179471 0.089897
0.382284 0.186494 0.095721
0.382816 0.186891 0.096053
0.394841 0.194687 0.103801
0.406810 0.202832 0.111547
0.413388 0.206274 0.113072
0.427018 0.222065 0.127343
0.447507 0.237998 0.142528
0.453327 0.241924 0.145702
0.005076 0.071714 0.005835
0.012093 0.072194 0.008236
0.026257 0.079223 0.011779
0.055321 0.082361 0.014905
0.062363 0.079661 0.012972
0.103516 0.085538 0.010598
0.133308 0.092166 0.014864
0.134575 0.093768 0.018032
0.139647 0.097655 0.026163
0.146259 0.098122 0.025916
0.162248 0.101971 0.030991
0.195757 0.114996 0.049409
0.208470 0.117134 0.051928
0.253827 0.132154 0.065050
0.281653 0.138546 0.070105
0.296330 0.144895 0.071005
0.311368 0.151110 0.075890
0.326607 0.157845 0.077346
0.334473 0.160641 0.077828
0.340718 0.165195 0.081201
0.352964 0.170087 0.082776
0.353469 0.170453 0.083008
0.367801 0.177372 0.087259
0.368610 0.177887 0.087624
0.377699 0.183457 0.092703
0.382718 0.186841 0.096007
0.394755 0.194644 0.103752
0.406758 0.202791 0.111487
0.413322 0.206229 0.113017
0.426986 0.222026 0.127294
0.447438 0.237924 0.142448
0.453257 0.241845 0.145619
0.453480 0.242046 0.145817
0.004337 0.074138 0.007096
0.015654 0.077719 0.013010
0.037594 0.085512 0.021607
0.053402 0.084330 0.018831
0.069381 0.086681 0.018846
0.106273 0.094885 0.025403
0.134893 0.097641 0.021907
0.138445 0.099993 0.027372
0.143147 0.103114 0.032454
0.147101 0.105490 0.036433
0.175727 0.114455 0.048536
0.205839 0.126438 0.059750
0.221050 0.129212 0.065165
0.258306 0.138108 0.070234
0.289913 0.142171 0.070327
0.296640 0.145179 0.071250
0.326164 0.157907 0.077491
0.334127 0.160673 0.077918
0.340522 0.165296 0.081325
0.342996 0.166872 0.081754
0.353270 0.170413 0.083009
0.358108 0.173657 0.085767
0.368287 0.177752 0.087537
0.374548 0.181159 0.091536
0.382564 0.186771 0.095953
0.394619 0.194584 0.103695
0.395145 0.194941 0.104001
0.413215 0.206164 0.112946
0.426926 0.221975 0.127237
0.433601 0.227440 0.133076
0.447579 0.238035 0.142555
0.453426 0.241985 0.145752
0.453640 0.242179 0.145943
0.010191 0.079239 0.013375
0.021153 0.085907 0.024346
0.043827 0.088637 0.030588
0.059235 0.092925 0.034459
0.077211 0.099176 0.042647
0.107079 0.101546 0.036404
0.135289 0.101167 0.030117
0.142724 0.104290 0.033262
0.149373 0.108968 0.041846
0.155358 0.112984 0.044771
0.181235 0.123181 0.057675
0.209718 0.139506 0.071256
0.225589 0.142910 0.073875
0.262351 0.140629 0.070833
0.293289 0.145478 0.070930
0.311632 0.155043 0.077709
0.326352 0.158124 0.077660
0.334334 0.160925 0.078107
0.340596 0.165496 0.081507
0.346064 0.167468 0.082689
0.356492 0.172928 0.085074
0.367946 0.177628 0.087464
0.368749 0.178111 0.087800
0.382360 0.186685 0.095896
0.382994 0.187127 0.096255
0.395027 0.194900 0.103967
0.407132 0.203125 0.111781
0.426832 0.221915 0.127176
0.433558 0.227408 0.133041
0.447505 0.237972 0.142492
0.453357 0.241918 0.145685
0.453600 0.242134 0.145896
0.457954 0.245721 0.149103
0.015305 0.085906 0.029017
0.033235 0.089423 0.031781
0.049321 0.096057 0.042313
0.060828 0.098832 0.045485
0.084683 0.107041 0.054856
0.106701 0.107836 0.047434
0.130992 0.108995 0.045786
0.146264 0.107850 0.039592
0.160760 0.125038 0.061478
0.174544 0.137266 0.070218
0.189826 0.152143 0.084669
0.200798 0.145952 0.075738
0.223923 0.144702 0.074881
0.271749 0.145429 0.073703
0.300603 0.153634 0.078674
0.311704 0.155212 0.077840
0.327620 0.160579 0.079706
0.340417 0.165597 0.081635
0.340654 0.165666 0.081664
0.356342 0.172953 0.085134
0.356695 0.173185 0.085272
0.368412 0.177990 0.087731
0.382129 0.186595 0.095845
0.387232 0.191861 0.101763
0.394854 0.194837 0.103925
0.414156 0.213211 0.119995
0.426703 0.221847 0.127116
0.433489 0.227374 0.133010
0.447415 0.237912 0.142438
0.450656 0.239982 0.144127
0.453545 0.242086 0.145849
0.457923 0.245689 0.149071
0.464127 0.250386 0.153017
0.020019 0.090212 0.037246
0.042632 0.099178 0.048172
0.051758 0.099237 0.049042
0.074917 0.109824 0.060425
0.090959 0.114524 0.067072
0.114489 0.116464 0.064306
0.128645 0.121937 0.065425
0.159975 0.130944 0.068180
0.171400 0.143125 0.078807
0.187077 0.154099 0.086249
0.191811 0.156875 0.087051
0.202345 0.162329 0.090166
0.219166 0.159208 0.088215
0.276414 0.157968 0.085438
0.300615 0.153748 0.078768
0.319313 0.158757 0.079477
0.336064 0.166071 0.082520
0.340484 0.165741 0.081767
0.346027 0.169622 0.084089
0.356540 0.173192 0.085318
0.358364 0.174908 0.086576
0.375933 0.183553 0.093600
0.387015 0.191794 0.101744
0.394642 0.194756 0.103881
0.402346 0.205253 0.112439
0.414478 0.213476 0.120271
0.433394 0.227340 0.132989
0.443622 0.235647 0.140926
0.447581 0.238065 0.142594
0.453476 0.242036 0.145805
0.457879 0.245656 0.149041
0.461089 0.248481 0.150736
0.464251 0.250525 0.153163
0.030535 0.099968 0.054819
0.049341 0.102349 0.054881
0.063549 0.110610 0.067856
0.078470 0.112996 0.064802
0.091753 0.121175 0.075688
0.112141 0.127843 0.079209
0.135294 0.132943 0.075290
0.169810 0.143547 0.083534
0.179245 0.152946 0.086664
0.191786 0.160382 0.089787
0.198426 0.163501 0.091732
0.205095 0.167037 0.094094
0.212953 0.169053 0.094925
0.261920 0.171006 0.094532
0.304455 0.161930 0.083860
0.328194 0.163483 0.082271
0.336106 0.166192 0.082633
0.342843 0.168164 0.083030
0.357935 0.175500 0.087281
0.358217 0.175676 0.087385
0.369973 0.180454 0.089806
0.384900 0.190981 0.100992
0.387285 0.192046 0.101969
0.402131 0.205174 0.112401
0.414339 0.213426 0.120243
0.433278 0.227308 0.132980
0.443552 0.235639 0.140934
0.447489 0.238028 0.142573
0.450754 0.240105 0.144263
0.457824 0.245624 0.149017
0.461055 0.248463 0.150722
0.464241 0.250520 0.153162
0.464368 0.250660 0.153306
0.035646 0.105461 0.063074
0.052172 0.107078 0.060427
0.069443 0.115698 0.072952
0.090154 0.124672 0.080365
0.097628 0.126668 0.080005
0.118404 0.132958 0.081582
0.151348 0.143939 0.087067
0.181542 0.157635 0.089799
0.188247 0.159212 0.090187
0.193731 0.162340 0.090965
0.198450 0.163528 0.091758
0.211390 0.172173 0.097265
0.219641 0.180813 0.104330
0.259866 0.189002 0.108232
0.281005 0.176042 0.095644
0.325090 0.167811 0.085835
0.336138 0.166285 0.082720
0.347499 0.172124 0.086219
0.358088 0.175689 0.087436
0.361395 0.180052 0.092885
0.378975 0.187901 0.099119
0.387429 0.197288 0.106895
0.401911 0.205097 0.112370
0.414182 0.213373 0.120221
0.433901 0.228412 0.133734
0.440508 0.234532 0.139849
0.443655 0.235763 0.141078
0.450676 0.240080 0.144254
0.457758 0.245597 0.149001
0.461011 0.248447 0.150714
0.464222 0.250516 0.153164
0.464362 0.250664 0.153315
0.464476 0.250789 0.153442
0.041952 0.108235 0.067829
0.064316 0.114514 0.074494
0.072606 0.117276 0.075710
0.090969 0.127437 0.081955
0.098839 0.132943 0.086270
0.118434 0.140022 0.087078
0.159210 0.152550 0.090978
0.181176 0.158824 0.091763
0.191763 0.162349 0.091762
0.195299 0.164311 0.092937
0.211386 0.173739 0.098442
0.214555 0.178474 0.103164
0.227854 0.193307 0.114870
0.244667 0.195286 0.116061
0.271868 0.190544 0.109368
0.320804 0.176043 0.092906
0.341971 0.175673 0.090173
0.350637 0.176480 0.091733
0.361266 0.180058 0.092937
0.367218 0.189384 0.101441
0.381426 0.194144 0.104973
0.387572 0.197391 0.107003
0.409820 0.210268 0.117538
0.420524 0.219685 0.126173
0.440426 0.234553 0.139897
0.443584 0.235772 0.141111
0.447557 0.238169 0.142744
0.457686 0.245576 0.148997
0.460957 0.248435 0.150712
0.464194 0.250513 0.153171
0.464345 0.250667 0.153325
0.464470 0.250798 0.153457
0.464572 0.250907 0.153569
0.047852 0.114499 0.079570
0.068253 0.117647 0.078028
0.088215 0.128211 0.085858
0.094113 0.130983 0.086273
0.111343 0.141173 0.091376
0.134842 0.149802 0.094904
0.181157 0.158829 0.091770
0.184317 0.161182 0.092554
0.191759 0.164315 0.092946
0.203151 0.173343 0.099617
0.215716 0.181205 0.105898
0.225489 0.191747 0.114875
0.231384 0.196841 0.118399
0.241580 0.199603 0.118815
0.271725 0.190629 0.109451
0.302005 0.185836 0.103481
0.341614 0.179978 0.094866
0.356902 0.183507 0.096044
0.367121 0.189382 0.101487
0.380048 0.194864 0.105379
0.387331 0.198087 0.107766
0.401968 0.205222 0.112536
0.423451 0.222336 0.130002
0.436199 0.230054 0.136937
0.440500 0.234659 0.140024
0.443675 0.235887 0.141246
0.454950 0.243664 0.147484
0.460898 0.248428 0.150717
0.461103 0.248603 0.150891
0.464317 0.250668 0.153337
0.464452 0.250803 0.153471
0.464564 0.250918 0.153586
0.465773 0.254378 0.157795
0.056860 0.116465 0.079986
0.075313 0.123133 0.084691
0.088244 0.128245 0.085885
0.098830 0.134929 0.088654
0.111382 0.141213 0.091406
0.145830 0.154506 0.096865
0.182348 0.161573 0.093731
0.187060 0.164708 0.095690
0.198823 0.173333 0.101178
0.216472 0.187047 0.109796
0.223137 0.192141 0.115664
0.231367 0.196845 0.118408
0.236483 0.198427 0.118809
0.244334 0.201580 0.120396
0.253332 0.210179 0.128215
0.293665 0.190601 0.109027
0.347869 0.181951 0.096453
0.363551 0.187052 0.099585
0.372975 0.192534 0.105420
0.380153 0.194938 0.105451
0.394427 0.203224 0.111355
0.423346 0.222328 0.130031
0.438377 0.233094 0.139259
0.440424 0.234683 0.140075
0.443607 0.235901 0.141285
0.451820 0.241754 0.145978
0.460837 0.248426 0.150729
0.461043 0.248595 0.150895
0.464280 0.250667 0.153348
0.464422 0.250803 0.153483
0.465663 0.254306 0.157736
0.465744 0.254379 0.157803
0.465810 0.254441 0.157859
0.056893 0.116479 0.080006
0.085088 0.128226 0.086658
0.096460 0.135293 0.090585
0.103927 0.140412 0.094907
0.126995 0.150580 0.097259
0.161912 0.158822 0.096090
0.183143 0.163141 0.095690
0.189414 0.166670 0.096475
0.207848 0.180393 0.105884
0.221958 0.190970 0.114497
0.229013 0.197239 0.119199
0.231383 0.196863 0.118422
0.243148 0.202357 0.120782
0.249033 0.207065 0.125098
0.253334 0.210189 0.128223
0.273272 0.212551 0.131368
0.345541 0.189398 0.102735
0.367105 0.189436 0.101582
0.373008 0.192576 0.105473
0.386078 0.198114 0.107460
0.412397 0.216124 0.124642
0.428011 0.227013 0.135503
0.440360 0.234708 0.140126
0.443546 0.235917 0.141325
0.447909 0.239454 0.144470
0.460780 0.248429 0.150745
0.460981 0.248589 0.150902
0.465388 0.254119 0.157581
0.465507 0.254214 0.157664
0.465613 0.254300 0.157740
0.465702 0.254375 0.157807
0.465777 0.254440 0.157865
0.465837 0.254494 0.157915
0.070598 0.125881 0.090969
0.085118 0.130993 0.090203
0.099223 0.141179 0.098807
0.108619 0.145105 0.100377
0.134080 0.154897 0.100785
0.176838 0.161964 0.096091
0.187059 0.164708 0.097258
0.202350 0.176469 0.103139
0.217640 0.188618 0.113715
0.225098 0.194113 0.118033
0.229025 0.197255 0.119212
0.234137 0.198444 0.119609
0.246291 0.205895 0.123536
0.250983 0.209414 0.127445
0.256464 0.212545 0.130577
0.269014 0.218821 0.137247
0.316515 0.214889 0.132143
0.372964 0.194526 0.106286
0.385138 0.201973 0.113316
0.406012 0.214530 0.124260
0.426759 0.227787 0.135931
0.432237 0.231663 0.138642
0.440421 0.234786 0.140217
0.447861 0.239475 0.144512
0.457653 0.246903 0.149618
0.460919 0.248584 0.150909
0.465323 0.254113 0.157588
0.465443 0.254205 0.157668
0.465553 0.254290 0.157742
0.465649 0.254366 0.157809
0.465732 0.254434 0.157868
0.465800 0.254491 0.157919
0.465856 0.254539 0.157962
0.074917 0.126294 0.090994
0.096075 0.138442 0.097260
0.103921 0.145881 0.104291
0.114111 0.153322 0.110547
0.139598 0.156866 0.101573
0.180767 0.163924 0.098831
0.192158 0.169414 0.100395
0.215279 0.187439 0.110191
0.222746 0.192940 0.117254
0.228628 0.198039 0.120783
0.231776 0.201577 0.123922
0.247065 0.208241 0.126664
0.249027 0.210199 0.128229
0.251765 0.211373 0.129013
0.263517 0.216860 0.135283
0.279201 0.227835 0.145086
0.308259 0.229818 0.146289
0.353008 0.219573 0.134070
0.396906 0.210990 0.121932
0.422391 0.226625 0.134026
0.432198 0.231695 0.138695
0.440367 0.234803 0.140253
0.447820 0.239495 0.144550
0.454894 0.244593 0.147709
0.457759 0.247028 0.149753
0.465260 0.254108 0.157596
0.465378 0.254195 0.157671
0.465488 0.254277 0.157741
0.465588 0.254353 0.157807
0.465676 0.254422 0.157866
0.465752 0.254481 0.157919
0.465815 0.254532 0.157964
0.465866 0.254575 0.158001
0.086276 0.137656 0.100013
0.101949 0.147051 0.107431
0.110975 0.153327 0.112914
0.125077 0.167806 0.125045
0.150185 0.167442 0.114499
0.180778 0.167845 0.103141
0.209397 0.186261 0.111757
0.218037 0.191371 0.117253
0.228625 0.199215 0.122745
0.230595 0.201574 0.124315
0.235309 0.204324 0.125882
0.249022 0.210202 0.128232
0.251764 0.211378 0.129017
0.255693 0.216483 0.133337
0.275672 0.228240 0.145094
0.289805 0.236875 0.152947
0.309415 0.250579 0.165091
0.335298 0.243118 0.156452
0.413722 0.221557 0.129765
0.422425 0.226662 0.134072
0.432204 0.231731 0.138746
0.444684 0.238352 0.143423
0.450597 0.242675 0.146579
0.457711 0.247033 0.149768
0.465202 0.254103 0.157604
0.465315 0.254184 0.157673
0.465422 0.254263 0.157739
0.465523 0.254337 0.157803
0.465614 0.254405 0.157861
0.465695 0.254466 0.157914
0.465765 0.254520 0.157960
0.465823 0.254565 0.158000
0.465871 0.254603 0.158033
0.097237 0.153716 0.121167
0.109395 0.158022 0.121146
0.118826 0.163912 0.123116
0.132159 0.176462 0.133322
0.156857 0.178425 0.127442
0.190585 0.176076 0.109018
0.218028 0.191363 0.117248
0.227450 0.199607 0.123138
0.230591 0.201571 0.124314
0.232560 0.203536 0.126274
0.245103 0.210592 0.128625
0.250197 0.214510 0.131758
0.257655 0.221579 0.138823
0.261197 0.225124 0.141974
0.280392 0.232577 0.149816
0.308212 0.255277 0.168612
0.316841 0.258035 0.170975
0.316873 0.258056 0.170992
0.362831 0.247436 0.155650
0.432174 0.231751 0.138781
0.436484 0.235259 0.141898
0.450568 0.242693 0.146607
0.459218 0.250144 0.154445
0.465152 0.254099 0.157611
0.465256 0.254174 0.157674
0.465359 0.254247 0.157736
0.465457 0.254318 0.157796
0.465549 0.254385 0.157853
0.465632 0.254446 0.157905
0.465707 0.254501 0.157952
0.465771 0.254550 0.157993
0.465825 0.254591 0.158029
0.465870 0.254625 0.158058
0.101548 0.158034 0.125490
0.116855 0.169398 0.133314
0.131772 0.178828 0.138041
0.139997 0.185883 0.146661
0.156073 0.185490 0.138429
0.190194 0.187833 0.123911
0.221177 0.195294 0.119608
0.230588 0.201568 0.124314
0.232556 0.203534 0.126274
0.239225 0.207849 0.128234
0.254117 0.219609 0.136074
0.255706 0.221590 0.138835
0.263546 0.229042 0.145892
0.276076 0.238446 0.156467
0.291769 0.249050 0.162765
0.307446 0.256896 0.170215
0.316852 0.258088 0.171013
0.319223 0.264354 0.176495
0.343158 0.259267 0.168269
0.422358 0.240008 0.145875
0.447813 0.241148 0.145071
0.452171 0.246644 0.151733
0.465109 0.254096 0.157617
0.465204 0.254164 0.157674
0.465300 0.254232 0.157731
0.465394 0.254299 0.157788
0.465484 0.254363 0.157842
0.465568 0.254424 0.157893
0.465644 0.254479 0.157940
0.465712 0.254529 0.157983
0.465772 0.254572 0.158020
0.465822 0.254609 0.158051
0.465864 0.254640 0.158078
0.106269 0.167053 0.135681
0.123547 0.175704 0.138053
0.140391 0.186677 0.147850
0.143919 0.191382 0.153733
0.156462 0.190208 0.149422
0.198019 0.194506 0.131375
0.227452 0.199608 0.123139
0.232552 0.203531 0.126274
0.239221 0.207847 0.128234
0.254123 0.220399 0.138039
0.255709 0.221596 0.138842
0.266678 0.232175 0.149418
0.270611 0.236500 0.154525
0.281598 0.249455 0.165515
0.302350 0.260838 0.175713
0.314101 0.267114 0.180030
0.318424 0.272606 0.185519
0.323144 0.273795 0.185143
0.343108 0.280437 0.190609
0.411713 0.256875 0.163525
0.452137 0.246651 0.151747
0.459224 0.250197 0.154505
0.465160 0.254155 0.157674
0.465248 0.254218 0.157726
0.465336 0.254280 0.157779
0.465422 0.254341 0.157830
0.465504 0.254399 0.157880
0.465580 0.254454 0.157926
