lut/dtl.cube
TITLE
LUT_3D_SIZE 9
DOMAIN_MIN 0.0 0.0 0.0
DOMAIN_MAX 1.0 1.0 1.0
0.000671 0.010303 0.000000
0.052590 0.013288 0.000000
0.093350 0.034458 0.000000
0.141247 0.060740 0.003223
0.211850 0.090380 0.024992
0.302840 0.141295 0.069724
0.332583 0.156998 0.077242
0.366247 0.176098 0.087084
0.377681 0.183530 0.092849
0.003912 0.030604 0.000000
0.071568 0.041638 0.000000
0.118295 0.053656 0.000000
0.157070 0.072767 0.009733
0.261431 0.118398 0.049874
0.332164 0.156464 0.076805
0.353258 0.170265 0.082890
0.377502 0.183310 0.092639
0.412760 0.205820 0.112744
0.004700 0.057184 0.000000
0.068541 0.063516 0.001557
0.134142 0.085782 0.010496
0.197341 0.102068 0.036275
0.294193 0.138437 0.069611
0.335044 0.160681 0.077778
0.368448 0.177706 0.087491
0.394886 0.194714 0.103843
0.447561 0.238066 0.142602
0.010191 0.079239 0.013375
0.077211 0.099176 0.042647
0.149373 0.108968 0.041846
0.225589 0.142910 0.073875
0.326352 0.158124 0.077660
0.356492 0.172928 0.085074
0.382994 0.187127 0.096255
0.433558 0.227408 0.133041
0.457954 0.245721 0.149103
0.035646 0.105461 0.063074
0.097628 0.126668 0.080005
0.188247 0.159212 0.090187
0.219641 0.180813 0.104330
0.336138 0.166285 0.082720
0.378975 0.187901 0.099119
0.433901 0.228412 0.133734
0.457758 0.245597 0.149001
0.464476 0.250789 0.153442
0.056893 0.116479 0.080006
0.126995 0.150580 0.097259
0.207848 0.180393 0.105884
0.243148 0.202357 0.120782
0.345541 0.189398 0.102735
0.412397 0.216124 0.124642
0.447909 0.239454 0.144470
0.465507 0.254214 0.157664
0.465837 0.254494 0.157915
0.097237 0.153716 0.121167
0.156857 0.178425 0.127442
0.230591 0.201571 0.124314
0.257655 0.221579 0.138823
0.316841 0.258035 0.170975
0.436484 0.235259 0.141898
0.465256 0.254174 0.157674
0.465632 0.254446 0.157905
0.465870 0.254625 0.158058
0.129036 0.184730 0.152177
0.162329 0.207447 0.172542
0.258842 0.224733 0.142372
0.300398 0.269828 0.184707
0.323151 0.291807 0.202760
0.423440 0.304371 0.203188
0.460715 0.300426 0.200049
0.471321 0.305227 0.203313
0.474853 0.309476 0.206783
0.158796 0.204315 0.170978
0.193320 0.232543 0.191759
0.300787 0.270604 0.186661
0.318448 0.289057 0.199624
0.350889 0.311348 0.217613
0.430572 0.350199 0.244708
0.461950 0.370185 0.262341
0.477274 0.371292 0.262668
0.494126 0.383416 0.270092
0.008130 0.007843 0.000000
0.056308 0.028810 0.000000
0.119325 0.046513 0.003819
0.164044 0.072708 0.028118
0.253451 0.115782 0.049899
0.313804 0.146344 0.077379
0.345922 0.164619 0.081055
0.371219 0.179439 0.089963
0.411431 0.204571 0.112299
0.004738 0.060762 0.000000
0.063343 0.062798 0.000000
0.143841 0.074396 0.008382
0.188764 0.096193 0.039286
0.285711 0.134749 0.069643
0.332939 0.156522 0.076654
0.370349 0.178705 0.089378
0.391324 0.190473 0.099641
0.447466 0.238007 0.142568
0.005174 0.084765 0.030278
0.068600 0.099120 0.045670
0.146470 0.107428 0.041432
0.226819 0.126085 0.067029
0.310086 0.148728 0.076581
0.347971 0.167152 0.082337
0.387508 0.191810 0.101565
0.434382 0.228402 0.133607
0.457185 0.243760 0.147887
0.024667 0.108244 0.076859
0.085482 0.125070 0.083108
0.172120 0.151776 0.088632
0.212965 0.173357 0.098451
0.329245 0.166253 0.084244
0.370857 0.185498 0.098410
0.424333 0.222205 0.129441
0.451024 0.240033 0.144120
0.464754 0.250916 0.153540
0.049370 0.121954 0.096456
0.108631 0.150199 0.110139
0.190192 0.168235 0.098829
0.234156 0.198449 0.119604
0.322035 0.196434 0.116444
0.406941 0.214507 0.123368
0.443768 0.235830 0.141164
0.465918 0.254322 0.157702
0.466366 0.254801 0.158152
0.090592 0.157259 0.134897
0.140004 0.185905 0.146689
0.226668 0.199609 0.125490
0.255694 0.221964 0.139209
0.314871 0.252140 0.167041
0.432201 0.231810 0.138856
0.465364 0.254236 0.157726
0.466182 0.254831 0.158229
0.466457 0.255047 0.158415
0.109048 0.173757 0.147476
0.158788 0.204318 0.170978
0.244315 0.230210 0.158838
0.294113 0.262756 0.179597
0.323147 0.291815 0.202758
0.388166 0.323135 0.225086
0.465577 0.286659 0.188222
0.469352 0.301573 0.201220
0.475089 0.308858 0.206219
0.150182 0.207839 0.181155
0.190170 0.235668 0.199586
0.260433 0.264312 0.201915
0.318448 0.289061 0.199625
0.333337 0.300829 0.209816
0.424665 0.347836 0.242739
0.457255 0.363535 0.258035
0.476892 0.358726 0.251668
0.494130 0.383293 0.269986
0.178796 0.236845 0.208214
0.217269 0.258446 0.221978
0.300420 0.288257 0.210186
0.331360 0.301189 0.210188
0.374500 0.326672 0.227447
0.447829 0.362346 0.255681
0.472940 0.381568 0.272548
0.497246 0.415299 0.298820
0.502759 0.421976 0.305115
0.022228 0.022075 0.062144
0.058227 0.043859 0.070649
0.140804 0.065581 0.039412
0.170611 0.085095 0.081212
0.270993 0.133188 0.075317
0.317159 0.148036 0.079236
0.358652 0.173663 0.088177
0.383656 0.187608 0.097666
0.434110 0.228592 0.133969
0.023533 0.066258 0.089908
0.083913 0.075851 0.090698
0.162389 0.089185 0.082465
0.187493 0.100225 0.097211
0.286537 0.140364 0.082258
0.343758 0.164161 0.085095
0.380663 0.187766 0.098960
0.429935 0.224645 0.131093
0.457036 0.243738 0.147928
0.033075 0.117922 0.094810
0.079958 0.130602 0.106267
0.145693 0.145614 0.096272
0.230409 0.151426 0.100522
0.311406 0.161078 0.098237
0.363718 0.184841 0.102779
0.419344 0.218433 0.126330
0.450824 0.239853 0.143999
0.466244 0.253163 0.158018
0.058745 0.126667 0.113685
0.093289 0.158803 0.134113
0.163893 0.171751 0.123111
0.228625 0.199246 0.122806
0.311057 0.199864 0.126598
0.390869 0.209307 0.124542
0.441852 0.233573 0.138567
0.467003 0.253505 0.158145
0.467253 0.254109 0.158787
0.092556 0.154510 0.141995
0.125861 0.185106 0.154138
0.162351 0.207470 0.172545
0.251414 0.220805 0.142741
0.311751 0.249377 0.164681
0.424059 0.233497 0.143650
0.465818 0.254591 0.158077
0.468113 0.256234 0.159416
0.467862 0.256187 0.159776
0.112496 0.183523 0.169429
0.155242 0.208608 0.180334
0.195666 0.234120 0.194529
0.280037 0.254130 0.177997
0.321569 0.290651 0.202352
0.366677 0.294906 0.207454
0.465187 0.274984 0.178389
0.470367 0.299823 0.199557
0.475594 0.307529 0.205011
0.138811 0.209793 0.197250
0.179980 0.233719 0.203518
0.224314 0.263144 0.225897
0.316882 0.287890 0.199233
0.333319 0.300844 0.209816
0.410588 0.340810 0.238828
0.455680 0.360779 0.256062
0.477311 0.358608 0.251552
0.490636 0.374468 0.265088
0.163939 0.231393 0.219625
0.214896 0.266669 0.239615
0.241184 0.289813 0.252551
0.330178 0.300406 0.211738
0.358392 0.323113 0.230936
0.442329 0.357642 0.251369
0.472932 0.381560 0.272541
0.496454 0.412943 0.296461
0.502777 0.421984 0.305129
0.199603 0.271778 0.256100
0.221972 0.296111 0.274144
0.270940 0.315682 0.277652
0.333316 0.329805 0.256078
0.397635 0.348643 0.252181
0.470584 0.383523 0.273722
0.497244 0.416485 0.299612
0.503153 0.425497 0.308641
0.508666 0.430998 0.316498
0.045799 0.058648 0.114629
0.086430 0.069313 0.130974
0.108503 0.087572 0.126218
0.187755 0.097178 0.098377
0.241236 0.135712 0.122399
0.327385 0.158722 0.094809
0.368603 0.183486 0.104307
0.411827 0.213464 0.129296
0.456900 0.243771 0.148031
0.068489 0.087850 0.148470
0.103269 0.091317 0.162037
0.132331 0.119979 0.144395
0.232221 0.139301 0.137333
0.257334 0.153378 0.155244
0.356140 0.187853 0.132158
0.397935 0.208268 0.130786
0.443755 0.235937 0.141365
0.465910 0.253066 0.158030
0.075826 0.121034 0.168594
0.094118 0.149020 0.160784
0.159534 0.157757 0.170161
0.244178 0.160413 0.161214
0.299744 0.186440 0.167075
0.371033 0.202350 0.147044
0.432642 0.231739 0.138825
0.466157 0.253220 0.158122
0.466777 0.253847 0.158648
0.090608 0.149459 0.166638
0.110734 0.182835 0.183515
0.157956 0.207506 0.177604
0.222333 0.223455 0.172090
0.307290 0.229522 0.172936
0.384431 0.233140 0.177506
0.457394 0.252206 0.158853
0.469537 0.257561 0.160949
0.468092 0.256446 0.160017
0.116776 0.191745 0.204243
0.141997 0.208644 0.202394
0.191353 0.236507 0.203183
0.249287 0.258122 0.202789
0.318585 0.286930 0.200275
0.377611 0.288696 0.209371
0.468251 0.271656 0.183681
0.474480 0.283017 0.195710
0.476556 0.298812 0.202820
0.125473 0.200787 0.211788
0.166293 0.234932 0.225122
0.217674 0.264712 0.236059
0.252184 0.286320 0.243156
0.334411 0.303540 0.215178
0.401605 0.338842 0.238411
0.451399 0.355278 0.251753
0.475078 0.356338 0.249680
0.491836 0.374787 0.266622
0.154515 0.228234 0.232161
0.202717 0.272950 0.256891
0.228268 0.293791 0.268282
0.273737 0.312154 0.272150
0.363135 0.328636 0.238829
0.436821 0.354896 0.249014
0.470582 0.378821 0.270582
0.492547 0.406302 0.291769
0.506319 0.425499 0.310207
0.147808 0.340771 0.410967
0.217620 0.296497 0.278855
0.254831 0.321173 0.294108
0.309424 0.350193 0.308612
0.380769 0.354161 0.272208
0.464314 0.374901 0.269799
0.496450 0.415705 0.299600
0.507475 0.429804 0.314519
0.510249 0.431022 0.316917
0.148224 0.342355 0.412146
0.194145 0.354946 0.384738
0.274888 0.343929 0.317265
0.331340 0.368605 0.323115
0.374135 0.394513 0.336848
0.496469 0.418841 0.302358
0.507437 0.429796 0.314503
0.508676 0.431015 0.316522
0.519988 0.434913 0.327043
0.083512 0.084365 0.155835
0.109777 0.104560 0.193122
0.136873 0.125486 0.206672
0.189772 0.140394 0.180053
0.258443 0.154915 0.157268
0.296495 0.187449 0.192963
0.369812 0.199215 0.144301
0.431148 0.228641 0.141507
0.465676 0.252996 0.158035
0.104172 0.118775 0.203892
0.123035 0.128060 0.228243
0.148368 0.139229 0.221288
0.201098 0.160812 0.193384
0.291374 0.183900 0.189032
0.320817 0.204720 0.212193
0.383520 0.223054 0.169345
0.465624 0.253011 0.158074
0.466114 0.253415 0.158376
0.112613 0.146265 0.229133
0.129277 0.152206 0.248040
0.174444 0.171464 0.238634
0.211465 0.203989 0.232858
0.312576 0.202279 0.210613
0.336055 0.219193 0.227843
0.416161 0.261327 0.208024
0.462253 0.269139 0.185710
0.465323 0.264783 0.176647
0.117753 0.174280 0.241561
0.134695 0.199290 0.252576
0.167744 0.225584 0.242442
0.236510 0.235357 0.240076
0.319876 0.238772 0.235442
0.373840 0.255316 0.244415
0.430684 0.288341 0.239850
0.469865 0.284034 0.200578
0.472239 0.287712 0.202206
0.137987 0.216525 0.274660
0.151674 0.231694 0.280378
0.199220 0.264884 0.260395
0.242299 0.290031 0.261548
0.311100 0.302787 0.253775
0.393768 0.311175 0.250708
0.455718 0.325462 0.259586
0.477558 0.332051 0.258722
0.493800 0.355118 0.271937
0.144303 0.299143 0.380736
0.172564 0.263521 0.309709
0.219356 0.299141 0.283507
0.259735 0.317204 0.288924
0.321591 0.340843 0.291809
0.395534 0.352858 0.267162
0.469836 0.378055 0.269846
0.492179 0.400799 0.290592
0.505978 0.420443 0.309073
0.145065 0.339576 0.411725
0.147824 0.340796 0.410962
0.239235 0.319672 0.301573
0.287404 0.346270 0.317627
0.331773 0.364374 0.317284
0.429645 0.379210 0.299555
0.495610 0.414892 0.298733
0.510275 0.431006 0.316907
0.520214 0.434973 0.327184
0.147044 0.343117 0.413304
0.156871 0.351776 0.415296
0.239905 0.372951 0.382375
0.305137 0.371039 0.341219
0.359630 0.391866 0.342865
0.445596 0.418856 0.343275
0.508612 0.430986 0.316483
0.513346 0.433371 0.322741
0.551927 0.460717 0.372135
0.150964 0.346665 0.412942
0.211769 0.391406 0.430590
0.230573 0.412160 0.443509
0.329768 0.409021 0.387849
0.388956 0.430864 0.386503
0.458746 0.446259 0.374900
0.515291 0.459981 0.365455
0.538072 0.486697 0.396884
0.564437 0.489050 0.405134
0.131423 0.134881 0.249226
0.135381 0.141533 0.263614
0.156458 0.153713 0.287428
0.177243 0.163116 0.292520
0.296873 0.187453 0.194535
0.324309 0.208223 0.215307
0.338425 0.221165 0.230206
0.421954 0.258092 0.204799
0.462242 0.267515 0.184600
0.137395 0.145301 0.269057
0.143993 0.150479 0.279613
0.174555 0.165446 0.311760
0.195765 0.182464 0.312581
0.299726 0.206255 0.226223
0.340764 0.224293 0.233730
0.371254 0.252463 0.257247
0.444242 0.287794 0.239124
0.461568 0.274539 0.195478
0.143454 0.151508 0.277819
0.160955 0.165760 0.306340
0.186391 0.176796 0.326806
0.224444 0.216823 0.290069
0.299108 0.236792 0.269417
0.356755 0.244918 0.253174
0.405653 0.282123 0.279883
0.433800 0.296869 0.269304
0.470078 0.304987 0.236573
0.147065 0.200199 0.290329
0.158916 0.225858 0.312209
0.190304 0.230323 0.329165
0.249498 0.248967 0.312094
0.287983 0.281548 0.318120
0.398614 0.287023 0.288092
0.426629 0.303913 0.296907
0.466795 0.337271 0.288440
0.493804 0.366710 0.319632
0.147092 0.319613 0.406232
0.155540 0.290210 0.371218
0.208399 0.280908 0.335429
0.247699 0.308345 0.324781
0.311852 0.319361 0.317344
0.391522 0.321459 0.324389
0.455444 0.342987 0.314322
0.494673 0.371313 0.326917
0.516563 0.401853 0.347735
0.145047 0.322768 0.406623
0.147682 0.340681 0.410916
0.185531 0.354822 0.409327
0.270636 0.347510 0.339199
0.321331 0.365683 0.337420
0.392355 0.379881 0.338399
0.476144 0.392952 0.331602
0.517259 0.414126 0.337417
0.545284 0.436003 0.372775
0.145468 0.341133 0.412892
0.150970 0.346679 0.412950
0.212792 0.388647 0.427830
0.293739 0.371137 0.355757
0.340479 0.398868 0.370603
0.403022 0.417730 0.368223
0.488233 0.439625 0.351306
0.538457 0.452511 0.366647
0.571366 0.466231 0.394310
0.147073 0.343164 0.413333
0.172966 0.368647 0.428623
0.228964 0.408601 0.441125
0.268201 0.428252 0.448261
0.357635 0.430935 0.405425
0.428544 0.448559 0.396379
0.509763 0.467075 0.385507
0.542381 0.487510 0.399234
0.572245 0.490626 0.411830
0.163480 0.361914 0.426625
0.212967 0.400010 0.445853
0.248607 0.433705 0.459978
0.290579 0.456092 0.474129
0.381932 0.459644 0.432179
0.456434 0.481993 0.430232
0.533339 0.494898 0.407836
0.555276 0.510595 0.424306
0.597329 0.530210 0.451777
0.146614 0.151235 0.282218
0.163907 0.159601 0.303123
0.178451 0.166677 0.316882
0.191001 0.182373 0.337677
0.193739 0.185524 0.340436
0.341953 0.227430 0.237249
0.363525 0.249385 0.259199
0.406301 0.284327 0.284387
0.432919 0.298418 0.276123
0.155644 0.157945 0.295572
0.171743 0.172540 0.318024
0.190250 0.182005 0.336548
0.193758 0.185572 0.340498
0.232662 0.228725 0.331320
0.356538 0.244741 0.252995
0.392720 0.274256 0.281344
0.427366 0.303101 0.294698
0.448263 0.320031 0.305548
0.165881 0.173372 0.314535
0.181563 0.188610 0.336841
0.197529 0.198751 0.350362
0.224166 0.242936 0.376138
0.271361 0.273697 0.339574
0.387218 0.291238 0.303776
0.423120 0.304572 0.302424
0.451635 0.328471 0.319922
0.493675 0.372398 0.341089
0.149070 0.317952 0.406779
0.173292 0.253647 0.371261
0.213377 0.244866 0.373785
0.248399 0.270055 0.401778
0.291140 0.301299 0.362890
0.390977 0.324692 0.329793
0.440718 0.326424 0.321858
0.485536 0.369675 0.344279
0.510193 0.389004 0.353743
0.145280 0.320970 0.406977
0.147510 0.316792 0.405062
0.165306 0.333541 0.412628
0.262133 0.316543 0.409006
0.322483 0.334898 0.391702
0.384457 0.366719 0.382341
0.467998 0.370862 0.351300
0.505890 0.395484 0.363218
0.543553 0.427767 0.384214
0.143862 0.330329 0.411409
0.148666 0.344030 0.415279
0.187558 0.369590 0.429387
0.246711 0.384680 0.424215
0.325505 0.391185 0.403909
0.394714 0.394821 0.402878
0.480481 0.411496 0.387268
0.535565 0.428019 0.385664
0.566862 0.451161 0.395204
0.147068 0.343150 0.413341
0.162716 0.359992 0.427435
0.212975 0.401169 0.446568
0.251669 0.428619 0.456424
0.334561 0.429210 0.420904
0.396886 0.453187 0.425269
0.476443 0.464264 0.410630
0.548774 0.481128 0.404742
0.589641 0.488860 0.427595
0.156453 0.353328 0.421558
0.201169 0.393357 0.458829
0.245489 0.427428 0.459565
0.274539 0.451804 0.471404
0.337632 0.476850 0.480760
0.405807 0.485061 0.457190
0.476897 0.508567 0.458570
0.560422 0.518090 0.437245
0.606506 0.529180 0.457375
0.196887 0.391011 0.456100
0.218052 0.404316 0.459981
0.266670 0.447862 0.470206
0.308901 0.474874 0.489400
0.356464 0.501564 0.501568
0.455710 0.543586 0.498780
0.472057 0.556316 0.501236
0.570115 0.538686 0.463651
0.620654 0.556019 0.481789
0.161574 0.161976 0.302767
0.178832 0.174120 0.323928
0.190621 0.182777 0.338084
0.195674 0.190560 0.345093
0.205109 0.207861 0.359247
0.252143 0.267434 0.405143
0.392596 0.274150 0.281242
0.412306 0.293434 0.295426
0.449302 0.325767 0.318383
0.172903 0.178422 0.323492
0.189064 0.183559 0.337693
0.195297 0.190962 0.345504
0.209465 0.215396 0.365592
0.249439 0.268215 0.410998
0.270996 0.284729 0.404464
0.413063 0.305801 0.309372
0.437988 0.317171 0.312951
0.474938 0.356824 0.339201
0.168882 0.224780 0.354784
0.191008 0.194501 0.345515
0.214676 0.228068 0.372448
0.249487 0.268238 0.411045
0.265797 0.285337 0.425551
0.306775 0.320455 0.413173
0.407170 0.322267 0.328560
0.472634 0.356499 0.339677
0.500780 0.384267 0.358063
0.152023 0.318495 0.408956
0.155167 0.317183 0.409108
0.246485 0.273134 0.409538
0.265783 0.285308 0.425997
0.290629 0.321469 0.446941
0.350952 0.352911 0.401556
0.400443 0.363958 0.382814
0.501931 0.391204 0.366966
0.522838 0.409460 0.376538
0.146693 0.322440 0.409291
0.153308 0.332234 0.417718
0.186332 0.354144 0.431402
0.288863 0.328067 0.450321
0.311006 0.350796 0.462474
0.371404 0.385803 0.436369
0.424693 0.420010 0.428676
0.516671 0.425291 0.397078
0.559321 0.449413 0.402024
0.147821 0.341916 0.418448
0.163885 0.356830 0.427500
0.201090 0.393330 0.458799
0.256266 0.404752 0.473605
0.339710 0.393105 0.483623
0.389604 0.425822 0.469084
0.451015 0.448657 0.456189
0.537198 0.460450 0.429470
0.585487 0.490543 0.441125
0.156112 0.350635 0.423178
0.200756 0.393360 0.458443
0.213994 0.401073 0.461989
0.267820 0.447468 0.483077
0.325102 0.472925 0.488588
0.397570 0.474171 0.485091
0.469764 0.483108 0.479421
0.550201 0.500683 0.463488
0.610298 0.521552 0.471678
0.196495 0.389844 0.456098
0.201195 0.393360 0.458848
0.261950 0.438027 0.479186
0.298699 0.469021 0.497528
0.348879 0.496475 0.501148
0.407369 0.525086 0.507819
0.466579 0.549924 0.496800
0.566380 0.547231 0.492822
0.634004 0.554248 0.489630
0.201177 0.393349 0.458833
0.230648 0.413760 0.466680
0.284306 0.461197 0.492533
0.319601 0.483140 0.502779
0.371759 0.513339 0.514912
0.436452 0.545868 0.524738
0.489392 0.574489 0.522303
0.540777 0.589914 0.534054
0.624053 0.572916 0.509193
0.176862 0.178044 0.325491
0.189060 0.183553 0.337690
0.195296 0.190970 0.345497
0.209394 0.215249 0.365472
0.247481 0.265501 0.410607
0.264683 0.285033 0.427823
0.315151 0.303533 0.405265
0.432530 0.315599 0.314475
0.458475 0.335717 0.326715
0.182780 0.190194 0.338058
0.194901 0.195651 0.348225
0.209875 0.218118 0.367154
0.247521 0.265543 0.410647
0.264685 0.285020 0.427839
0.281933 0.304668 0.442813
0.333215 0.346591 0.434960
0.460056 0.347803 0.339183
0.496103 0.383098 0.358446
0.155181 0.317351 0.409208
0.184192 0.285485 0.399972
0.247585 0.265626 0.410719
0.264705 0.285024 0.427896
0.285390 0.310793 0.446353
0.311320 0.348830 0.467445
0.351404 0.370995 0.449829
0.485988 0.381927 0.360772
0.518816 0.406594 0.376070
0.153638 0.320536 0.410820
0.157259 0.322326 0.412552
0.265475 0.289222 0.430202
0.282912 0.312119 0.446580
0.311204 0.348578 0.467421
0.334621 0.374647 0.485251
0.377911 0.417966 0.503993
0.495817 0.430497 0.414786
0.543156 0.445770 0.412452
0.150930 0.325140 0.413362
0.161579 0.345552 0.425131
0.209037 0.382351 0.455295
0.305418 0.345292 0.464416
0.337332 0.382669 0.491050
0.364950 0.412037 0.511040
0.408220 0.442750 0.507892
0.499913 0.471785 0.466363
0.576448 0.490567 0.447837
0.155327 0.349816 0.425119
0.196502 0.389846 0.456100
0.216378 0.397229 0.465858
0.271837 0.432473 0.497623
0.357834 0.411238 0.506100
0.385609 0.440108 0.524279
0.442841 0.476933 0.518068
0.507473 0.507831 0.515657
0.597661 0.515678 0.473730
0.187864 0.381596 0.449037
0.201180 0.393353 0.458847
0.259117 0.431593 0.494029
0.290643 0.451339 0.513554
0.332290 0.484742 0.529480
0.406706 0.498774 0.539959
0.462123 0.502783 0.536316
0.518048 0.527016 0.536813
0.618795 0.545478 0.499363
0.201169 0.393348 0.458833
0.223176 0.408263 0.473376
0.279246 0.450165 0.506795
0.311098 0.471913 0.521608
0.352420 0.499194 0.534969
0.412918 0.532540 0.548282
0.485732 0.555958 0.561237
0.546749 0.575487 0.559116
0.606301 0.584938 0.546148
0.201187 0.393348 0.458839
0.275311 0.449001 0.502035
0.301520 0.466247 0.516854
0.329787 0.487440 0.528634
0.384730 0.523556 0.535701
0.449782 0.560491 0.550622
0.497208 0.593763 0.562338
0.545397 0.631393 0.568254
0.613496 0.634799 0.570708
