lut/dtl2.cube
TITLE
LUT_3D_SIZE 33
DOMAIN_MIN 0.0 0.0 0.0
DOMAIN_MAX 1.0 1.0 1.0
0.000000 0.010303 0.000671
0.000000 0.009392 0.001513
0.000000 0.007824 0.006568
0.000000 0.012158 0.006292
0.000000 0.007843 0.008130
0.000000 0.007260 0.016852
0.025201 0.008959 0.011516
0.038198 0.010409 0.017157
0.062144 0.022075 0.022228
0.080008 0.032441 0.027098
0.096187 0.042301 0.035072
0.110195 0.056521 0.040280
0.114629 0.058648 0.045799
0.125053 0.064522 0.055764
0.144181 0.075519 0.074765
0.149869 0.078080 0.076093
0.155835 0.084365 0.083512
0.174076 0.094847 0.091332
0.203441 0.111857 0.105227
0.228611 0.124036 0.120909
0.249226 0.134881 0.131423
0.260470 0.139555 0.134570
0.274395 0.147299 0.140392
0.279484 0.150431 0.143905
0.282218 0.151235 0.146614
0.289647 0.154384 0.150917
0.295575 0.157947 0.155638
0.299567 0.159964 0.159584
0.302767 0.161976 0.161574
0.312557 0.169421 0.167832
0.318819 0.172559 0.173311
0.322348 0.175690 0.175671
0.325491 0.178044 0.176862
0.000000 0.011567 0.000000
0.000000 0.013147 0.000000
0.000000 0.016208 0.000000
0.000000 0.023008 0.000782
0.000000 0.011765 0.019608
0.000000 0.016816 0.012895
0.031253 0.022390 0.015311
0.060444 0.029057 0.016180
0.079433 0.035220 0.024654
0.089201 0.039567 0.031808
0.105279 0.053352 0.037319
0.111931 0.058502 0.042028
0.124876 0.064375 0.055662
0.135270 0.072363 0.067010
0.144456 0.075774 0.074885
0.155843 0.084372 0.083472
0.165445 0.090514 0.086233
0.195683 0.109363 0.100359
0.208470 0.116673 0.109269
0.242566 0.132507 0.126742
0.255812 0.137965 0.133000
0.263626 0.141510 0.135390
0.274459 0.147326 0.140442
0.279490 0.150431 0.143911
0.282236 0.151244 0.146629
0.292013 0.155184 0.153270
0.295635 0.157989 0.155673
0.302739 0.161954 0.161560
0.311383 0.168637 0.165879
0.318415 0.173334 0.172124
0.323120 0.176470 0.174878
0.323138 0.176479 0.174898
0.328641 0.180404 0.178837
0.000000 0.014259 0.000000
0.000000 0.021979 0.001101
0.000000 0.030457 0.000000
0.000000 0.023529 0.004833
0.000000 0.043137 0.000000
0.011138 0.042511 0.003295
0.041439 0.038725 0.016741
0.067654 0.037831 0.025859
0.086897 0.040819 0.028706
0.101405 0.051057 0.033012
0.109659 0.057437 0.041107
0.117505 0.061003 0.049718
0.131026 0.070780 0.058553
0.144438 0.076591 0.071344
0.153954 0.084377 0.079252
0.161231 0.088198 0.084656
0.181083 0.102650 0.092879
0.205032 0.115404 0.105981
0.227081 0.125171 0.119701
0.249239 0.134852 0.131405
0.259728 0.139530 0.134205
0.274338 0.147243 0.140380
0.279428 0.150379 0.143886
0.279500 0.150436 0.143920
0.289606 0.154354 0.150901
0.295569 0.157942 0.155638
0.299587 0.159980 0.159593
0.308646 0.167069 0.164706
0.313343 0.170213 0.167050
0.321549 0.174908 0.174862
0.323130 0.176478 0.174887
0.328626 0.180400 0.178821
0.332172 0.182758 0.181585
0.000000 0.025454 0.001997
0.000000 0.029724 0.002792
0.000000 0.035051 0.002663
0.000000 0.049017 0.002370
0.000000 0.053799 0.001792
0.006072 0.057121 0.000000
0.034968 0.054902 0.007952
0.062745 0.058824 0.000000
0.094898 0.054181 0.030259
0.106046 0.058718 0.036705
0.116712 0.063042 0.043261
0.128932 0.071174 0.055651
0.142504 0.080430 0.068031
0.153855 0.084379 0.079012
0.159013 0.088643 0.080835
0.171402 0.099092 0.087490
0.187933 0.108671 0.094914
0.209292 0.118615 0.108860
0.238330 0.131306 0.125513
0.251314 0.136418 0.131495
0.263661 0.141490 0.135425
0.274432 0.147286 0.140454
0.279435 0.150381 0.143894
0.281438 0.150832 0.145853
0.293145 0.157096 0.153260
0.295656 0.158004 0.155688
0.302787 0.161993 0.161582
0.311393 0.168654 0.165880
0.319585 0.173348 0.172503
0.323118 0.176477 0.174871
0.323922 0.177660 0.174117
0.332550 0.184317 0.179621
0.338039 0.190180 0.182768
0.000000 0.030604 0.003912
0.000000 0.041176 0.003489
0.000000 0.049390 0.003518
0.000000 0.054943 0.004808
0.000000 0.060762 0.004738
0.010501 0.070218 0.002861
0.035294 0.066667 0.003922
0.066359 0.072082 0.002433
0.089908 0.066258 0.023533
0.110799 0.077910 0.021795
0.119461 0.069858 0.046765
0.135539 0.079328 0.061231
0.148470 0.087850 0.068489
0.158635 0.091868 0.077616
0.169846 0.101440 0.083564
0.180473 0.111612 0.086463
0.203892 0.118775 0.104172
0.218453 0.122554 0.113612
0.248019 0.135145 0.128304
0.259000 0.139860 0.133850
0.269057 0.145301 0.137395
0.279330 0.150297 0.143849
0.279451 0.150392 0.143906
0.285317 0.152393 0.148569
0.295572 0.157945 0.155644
0.299630 0.161181 0.158447
0.311387 0.168649 0.165876
0.313356 0.170235 0.167051
0.323492 0.178422 0.172903
0.323524 0.178442 0.172932
0.333705 0.187044 0.178429
0.338032 0.190180 0.182757
0.338058 0.190194 0.182780
0.000000 0.044271 0.003517
0.000000 0.049401 0.003140
0.000000 0.052942 0.004716
0.000000 0.060195 0.003966
0.002294 0.070177 0.001965
0.014374 0.077271 0.000760
0.050671 0.083971 0.003072
0.067769 0.085995 0.009764
0.090460 0.088879 0.022610
0.110493 0.089241 0.028678
0.118939 0.085438 0.047277
0.140366 0.088788 0.062199
0.157074 0.096977 0.073064
0.167172 0.105396 0.078366
0.180121 0.112977 0.084725
0.186386 0.118262 0.089601
0.204391 0.122030 0.100993
0.226009 0.127904 0.117928
0.252445 0.137469 0.131850
0.260758 0.142558 0.134370
0.277684 0.150540 0.143033
0.279344 0.150310 0.143858
0.281396 0.150803 0.145836
0.293123 0.157080 0.153257
0.299560 0.161129 0.158413
0.309438 0.168638 0.163933
0.313348 0.170231 0.167044
0.319594 0.176478 0.168222
0.324292 0.179611 0.172135
0.330566 0.185092 0.176452
0.338022 0.190180 0.182740
0.338054 0.190197 0.182770
0.346684 0.202740 0.180429
0.000000 0.049406 0.005442
0.000000 0.050998 0.006602
0.000000 0.059889 0.002812
0.000000 0.068172 0.002721
0.008166 0.076069 0.001939
0.028215 0.080392 0.001955
0.057708 0.089490 0.003116
0.072937 0.096546 0.007803
0.092187 0.102388 0.010505
0.108185 0.099276 0.027782
0.120634 0.100864 0.040824
0.150096 0.104860 0.067741
0.161220 0.104356 0.074560
0.172975 0.110161 0.082539
0.183424 0.118240 0.086724
0.195511 0.121610 0.095572
0.212265 0.124868 0.107486
0.236346 0.136202 0.120702
0.255693 0.142396 0.131653
0.267544 0.146706 0.136699
0.277694 0.150565 0.143037
0.279380 0.150345 0.143876
0.281469 0.150855 0.145885
0.297912 0.159512 0.156818
0.305140 0.164740 0.162362
0.311405 0.168680 0.165877
0.316098 0.172989 0.167441
0.323501 0.180001 0.169389
0.330559 0.185095 0.176433
0.333325 0.188620 0.176863
0.338048 0.190201 0.182755
0.353024 0.214635 0.176840
0.367199 0.237920 0.174388
0.000000 0.050210 0.008541
0.000000 0.057188 0.003554
0.000000 0.064311 0.003510
0.005396 0.073277 0.002338
0.023506 0.081169 0.001566
0.046590 0.088193 0.006288
0.069840 0.099270 0.012812
0.076859 0.103289 0.015362
0.091962 0.105216 0.016012
0.110236 0.103943 0.036747
0.121588 0.109887 0.048598
0.147236 0.115956 0.062323
0.169163 0.112501 0.078671
0.179714 0.117036 0.085074
0.186087 0.119651 0.088457
0.197473 0.125183 0.095579
0.216390 0.132939 0.105861
0.241148 0.138685 0.123545
0.258844 0.144787 0.132888
0.271626 0.151201 0.140023
0.279235 0.150634 0.143800
0.281356 0.150795 0.145814
0.286969 0.154785 0.149028
0.299257 0.161590 0.156902
0.309459 0.168670 0.163938
0.316089 0.172988 0.167433
0.323503 0.180010 0.169385
0.330549 0.185101 0.176407
0.333322 0.188626 0.176848
0.349846 0.213404 0.173700
0.360622 0.226724 0.174732
0.367443 0.238424 0.174195
0.375293 0.251825 0.172925
0.000000 0.057184 0.004700
0.000000 0.063900 0.004298
0.003877 0.070577 0.006586
0.018008 0.081182 0.003946
0.030278 0.084765 0.005174
0.067405 0.098842 0.014829
0.073814 0.101684 0.016665
0.079590 0.104803 0.016993
0.094810 0.117922 0.033075
0.117571 0.110316 0.045447
0.125927 0.115761 0.051337
0.147495 0.119565 0.061799
0.168594 0.121034 0.075826
0.180303 0.122464 0.084565
0.193534 0.131488 0.092147
0.204908 0.142430 0.095299
0.229133 0.146265 0.112613
0.241358 0.149831 0.120471
0.263298 0.150508 0.135481
0.275003 0.152480 0.141503
0.277819 0.151508 0.143454
0.283395 0.152814 0.147032
0.294896 0.158806 0.154140
0.308255 0.170189 0.160817
0.314535 0.173372 0.165881
0.321185 0.178473 0.168220
0.327833 0.183559 0.173286
0.339585 0.200757 0.171368
0.354784 0.224780 0.168882
0.363298 0.237461 0.168715
0.367018 0.239509 0.171256
0.395409 0.291688 0.163184
0.409208 0.317351 0.155181
0.000000 0.060769 0.002757
0.002729 0.069398 0.008924
0.010216 0.076885 0.003568
0.028683 0.084370 0.005180
0.048589 0.091802 0.008281
0.070239 0.100840 0.016380
0.075368 0.103228 0.016325
0.092424 0.116384 0.029202
0.097274 0.119638 0.039157
0.114859 0.121218 0.049762
0.129419 0.122342 0.058358
0.150659 0.123907 0.067079
0.170948 0.132963 0.082065
0.183944 0.132179 0.086163
0.202119 0.145951 0.092591
0.210119 0.152633 0.098260
0.232797 0.154966 0.114765
0.241759 0.154291 0.120577
0.262836 0.152238 0.135016
0.275084 0.152694 0.141514
0.279071 0.153947 0.146169
0.287408 0.156030 0.149791
0.308191 0.170154 0.160776
0.314514 0.173373 0.165867
0.320408 0.179642 0.166666
0.329000 0.185506 0.172892
0.352310 0.224165 0.165809
0.361030 0.237144 0.165603
0.363051 0.238764 0.165817
0.395378 0.292436 0.160054
0.409109 0.317215 0.155123
0.409546 0.318433 0.154014
0.409598 0.318508 0.154033
0.005835 0.071714 0.005076
0.007884 0.075317 0.005502
0.026679 0.083960 0.005167
0.036114 0.087507 0.005191
0.070111 0.100792 0.016427
0.072623 0.103963 0.020270
0.088166 0.114076 0.027678
0.095673 0.119603 0.037579
0.097693 0.121202 0.040805
0.118369 0.124328 0.058735
0.135680 0.128631 0.066667
0.154979 0.137706 0.081666
0.172231 0.138326 0.086752
0.197958 0.148678 0.092512
0.205350 0.150019 0.095034
0.215589 0.157353 0.100619
0.235332 0.157185 0.116135
0.241449 0.156137 0.119929
0.261974 0.155138 0.134143
0.275574 0.159783 0.141905
0.281528 0.158401 0.146234
0.294167 0.166282 0.151816
0.307518 0.173356 0.159662
0.320391 0.179644 0.166659
0.342322 0.210162 0.165855
0.360932 0.237018 0.165570
0.361725 0.238337 0.165328
0.379701 0.265609 0.164414
0.409328 0.318121 0.153917
0.409414 0.318244 0.153950
0.409491 0.318355 0.153980
0.409557 0.318450 0.154006
0.409613 0.318531 0.154029
0.007096 0.074138 0.004337
0.018846 0.079655 0.004763
0.041880 0.090196 0.011398
0.059532 0.098825 0.020735
0.072522 0.103939 0.020346
0.085825 0.113682 0.029273
0.090989 0.117646 0.032130
0.097643 0.121181 0.040765
0.102349 0.121991 0.045501
0.123490 0.127840 0.062693
0.139747 0.135023 0.075796
0.154918 0.142829 0.087094
0.177137 0.143504 0.087530
0.198604 0.152505 0.094130
0.210454 0.154346 0.098120
0.222173 0.158678 0.105961
0.232774 0.162096 0.113547
0.241708 0.164368 0.118651
0.262701 0.167067 0.132515
0.277276 0.171762 0.141586
0.290181 0.178869 0.149003
0.300839 0.188322 0.153743
0.315306 0.189507 0.162321
0.345216 0.224665 0.159092
0.361765 0.238457 0.165234
0.371442 0.253132 0.165316
0.406934 0.318198 0.149086
0.407746 0.318331 0.151282
0.409319 0.318111 0.153894
0.409418 0.318252 0.153934
0.409504 0.318375 0.153970
0.409575 0.318479 0.154000
0.409634 0.318563 0.154025
0.013375 0.079239 0.010191
0.034483 0.087081 0.011404
0.050528 0.095686 0.016878
0.066264 0.102371 0.019606
0.076859 0.108244 0.024667
0.088629 0.116471 0.032133
0.095685 0.120785 0.041913
0.097272 0.121195 0.041197
0.113685 0.126667 0.058745
0.129863 0.132596 0.067889
0.150617 0.145911 0.084392
0.155703 0.149078 0.088293
0.166638 0.149459 0.090608
0.201354 0.159617 0.097268
0.216277 0.162354 0.101650
0.224881 0.165506 0.106762
0.241561 0.174280 0.117753
0.243182 0.174282 0.117260
0.265594 0.180664 0.131400
0.287037 0.194656 0.145425
0.290329 0.200199 0.147065
0.299349 0.204491 0.152924
0.348668 0.247330 0.155451
0.359044 0.250526 0.161128
0.406779 0.317952 0.149070
0.406839 0.318043 0.149069
0.406919 0.318174 0.149067
0.407379 0.318699 0.149431
0.408956 0.318495 0.152023
0.409809 0.319404 0.152796
0.409907 0.319551 0.152824
0.410751 0.320435 0.153612
0.410820 0.320536 0.153638
0.029017 0.085906 0.015305
0.044663 0.093336 0.020002
0.059580 0.099621 0.022343
0.076812 0.108229 0.024689
0.088606 0.116461 0.032135
0.090225 0.117671 0.036485
0.095701 0.120797 0.041949
0.103516 0.124321 0.048614
0.125435 0.132923 0.067779
0.139709 0.140856 0.080467
0.152597 0.148679 0.086741
0.159569 0.155644 0.091375
0.182254 0.163957 0.095703
0.197464 0.166725 0.100439
0.217764 0.170506 0.107054
0.232560 0.175113 0.113991
0.241944 0.174677 0.117935
0.258741 0.184518 0.127311
0.284628 0.200157 0.143009
0.290623 0.208365 0.146587
0.296928 0.217999 0.148597
0.343645 0.253705 0.152804
0.361804 0.272311 0.155224
0.406013 0.318966 0.147261
0.406047 0.319002 0.147258
0.406831 0.318036 0.149041
0.407653 0.319647 0.148312
0.407401 0.318740 0.149407
0.408619 0.318924 0.150147
0.409853 0.319475 0.152784
0.409954 0.319625 0.152815
0.410798 0.320509 0.153607
0.410865 0.320606 0.153635
0.037246 0.090212 0.020019
0.054863 0.098433 0.025073
0.071729 0.107054 0.023922
0.080766 0.111376 0.031740
0.091365 0.118433 0.039979
0.094896 0.120784 0.046220
0.098052 0.122366 0.047806
0.113314 0.129019 0.058010
0.134129 0.140399 0.075697
0.150234 0.150198 0.089036
0.159174 0.156798 0.092145
0.166292 0.163515 0.095284
0.186250 0.172598 0.101963
0.207398 0.175746 0.106673
0.215701 0.176844 0.109773
0.231979 0.178489 0.115652
0.249499 0.184901 0.122301
0.271809 0.203695 0.132913
0.292427 0.213841 0.146115
0.292612 0.213907 0.146218
0.330979 0.247276 0.148601
0.359825 0.271861 0.153428
0.406027 0.319059 0.147218
0.406026 0.319018 0.147224
0.406066 0.319061 0.147220
0.406142 0.319185 0.147207
0.407701 0.319741 0.148279
0.407825 0.319953 0.148269
0.409808 0.320908 0.149751
0.409922 0.321095 0.149754
0.410397 0.320866 0.151668
0.410857 0.320601 0.153604
0.410918 0.320689 0.153633
0.054819 0.099968 0.030535
0.063108 0.103913 0.030159
0.080737 0.111365 0.031748
0.091353 0.118424 0.039983
0.091388 0.118448 0.040022
0.096473 0.121964 0.048582
0.103149 0.127454 0.052540
0.126242 0.141549 0.074089
0.136533 0.147074 0.085129
0.154135 0.152932 0.093314
0.166248 0.163506 0.095277
0.170675 0.166757 0.097657
0.194846 0.183128 0.110120
0.212388 0.188587 0.116371
0.220014 0.192889 0.118374
0.229334 0.187979 0.119619
0.261355 0.197921 0.129405
0.289264 0.215808 0.143762
0.292111 0.216637 0.145760
0.329431 0.249037 0.147763
0.356019 0.270068 0.150878
0.406111 0.319304 0.147157
0.406083 0.319213 0.147164
0.406087 0.319182 0.147165
0.406132 0.319233 0.147159
0.406214 0.319362 0.147147
0.407794 0.319924 0.148234
0.409036 0.321993 0.146738
0.409915 0.321086 0.149728
0.410018 0.321256 0.149734
0.410862 0.322148 0.149366
0.410928 0.322250 0.149380
0.411364 0.321940 0.151324
0.063074 0.105461 0.035646
0.079936 0.113697 0.043854
0.083121 0.114503 0.040359
0.091372 0.118438 0.040016
0.096456 0.121954 0.049370
0.102362 0.127063 0.052928
0.120393 0.141183 0.072940
0.132544 0.150979 0.085099
0.141995 0.154510 0.092556
0.161976 0.162741 0.095288
0.166354 0.163622 0.095317
0.186278 0.180410 0.108555
0.204243 0.191745 0.116776
0.211661 0.191794 0.119164
0.222423 0.193804 0.120018
0.233293 0.199736 0.125135
0.274660 0.216525 0.137987
0.289365 0.215909 0.143816
0.324616 0.247112 0.145049
0.350387 0.267310 0.147095
0.406232 0.319613 0.147092
0.406199 0.319527 0.147093
0.406184 0.319467 0.147092
0.406198 0.319459 0.147088
0.406977 0.320970 0.145280
0.407077 0.321122 0.145256
0.407187 0.321307 0.145225
0.409180 0.322260 0.146702
0.409291 0.322440 0.146693
0.410129 0.321442 0.149714
0.410957 0.322307 0.149352
0.411008 0.322383 0.149369
0.413362 0.325140 0.150930
0.067829 0.108235 0.041952
0.079586 0.114500 0.047815
0.090969 0.120382 0.051730
0.093719 0.120780 0.051329
0.098835 0.124713 0.050196
0.114147 0.138452 0.066305
0.128234 0.149813 0.083144
0.139600 0.159214 0.093722
0.150609 0.163142 0.095695
0.159689 0.165155 0.096482
0.172271 0.169534 0.099243
0.200337 0.189808 0.115216
0.206242 0.193341 0.118381
0.217545 0.198793 0.121922
0.222876 0.198126 0.122397
0.253516 0.212980 0.134106
0.282383 0.220453 0.142657
0.311291 0.239657 0.145764
0.346554 0.266786 0.145498
0.406350 0.319891 0.147040
0.406327 0.319842 0.147033
0.406313 0.319801 0.147024
0.407040 0.321232 0.145209
0.407079 0.321268 0.145204
0.407150 0.321358 0.145190
0.407241 0.321490 0.145170
0.407334 0.321634 0.145149
0.409340 0.322556 0.146663
0.409424 0.322686 0.146660
0.410628 0.323546 0.147803
0.410672 0.323628 0.147804
0.416099 0.331392 0.150518
0.420391 0.338031 0.151724
0.079570 0.114499 0.047852
0.081176 0.115299 0.052153
0.091365 0.119996 0.054485
0.099215 0.124317 0.052938
0.114526 0.138054 0.069028
0.130187 0.152937 0.085098
0.134903 0.157265 0.090598
0.141957 0.161576 0.097648
0.156903 0.170224 0.101954
0.164400 0.171049 0.101948
0.196035 0.188627 0.114435
0.204272 0.194489 0.118366
0.210163 0.197236 0.121520
0.219972 0.199626 0.123520
0.226456 0.203204 0.125154
0.259823 0.217685 0.138025
0.291595 0.228531 0.148829
0.355146 0.277494 0.144290
0.406445 0.320102 0.147006
0.406435 0.320086 0.146992
0.406429 0.320077 0.146977
0.407173 0.321552 0.145135
0.407201 0.321585 0.145128
0.407252 0.321648 0.145116
0.407322 0.321740 0.145102
0.407401 0.321846 0.145088
0.409410 0.322723 0.146625
0.409491 0.322836 0.146627
0.410313 0.325990 0.145475
0.412265 0.329880 0.145484
0.418827 0.338782 0.149352
0.422735 0.344276 0.152504
0.423538 0.346649 0.152938
0.079986 0.116465 0.056860
0.086272 0.119214 0.062332
0.097251 0.125491 0.059217
0.109819 0.136484 0.065900
0.127845 0.152938 0.086271
0.134899 0.157261 0.090595
0.139992 0.162352 0.097249
0.149422 0.168641 0.100007
0.159268 0.171421 0.105465
0.185081 0.185884 0.114439
0.199969 0.193323 0.117586
0.204322 0.194523 0.118412
0.210213 0.197277 0.121565
0.219272 0.202357 0.125864
0.247115 0.212954 0.135663
0.274562 0.226215 0.145002
0.332777 0.265690 0.145053
0.381074 0.299361 0.144349
0.406519 0.322521 0.145106
0.406523 0.322527 0.145098
0.406533 0.322543 0.145087
0.407303 0.321827 0.145073
0.407344 0.321889 0.145059
0.407400 0.321968 0.145044
0.407466 0.322055 0.145031
0.409850 0.325994 0.143878
0.410304 0.326074 0.145423
0.412259 0.329940 0.145439
0.414198 0.334942 0.144708
0.420768 0.343834 0.150133
0.422733 0.344273 0.152504
0.423927 0.348594 0.154105
0.423943 0.348622 0.154135
0.080006 0.116479 0.056893
0.093331 0.125493 0.069014
0.105102 0.132953 0.068642
0.125106 0.150210 0.085885
0.134897 0.157259 0.090592
0.139987 0.162347 0.097244
0.143137 0.164712 0.098438
0.152197 0.170617 0.103523
0.169429 0.183523 0.112496
0.196815 0.196827 0.119930
0.203505 0.196852 0.119955
0.211739 0.200762 0.125436
0.211788 0.200787 0.125473
0.228256 0.208619 0.130971
0.250282 0.217256 0.139961
0.315447 0.253522 0.144671
0.380736 0.299143 0.144303
0.406579 0.322669 0.145084
0.406588 0.322691 0.145075
0.406602 0.322724 0.145062
0.406623 0.322768 0.145047
0.406652 0.322824 0.145029
0.408608 0.326343 0.143476
0.408661 0.326420 0.143469
0.411409 0.330329 0.143862
0.414114 0.337970 0.144647
0.414914 0.338757 0.145440
0.416102 0.339944 0.145474
0.418448 0.341916 0.147821
0.422342 0.345447 0.151730
0.423928 0.347833 0.153724
0.423947 0.348636 0.154144
0.425119 0.349816 0.155327
0.090969 0.125881 0.070598
0.093747 0.126301 0.070214
0.123525 0.150198 0.086665
0.129031 0.154132 0.087469
0.139983 0.162344 0.097240
0.140002 0.162360 0.097258
0.149421 0.168641 0.100010
0.163151 0.178825 0.110944
0.184685 0.193308 0.118375
0.197235 0.197237 0.120348
0.202754 0.199208 0.123884
0.211765 0.200790 0.125476
0.217657 0.208224 0.133314
0.239986 0.217232 0.141145
0.282208 0.237515 0.144680
0.359525 0.286550 0.144285
0.405857 0.323545 0.146606
0.405866 0.323573 0.146598
0.405879 0.323609 0.146588
0.408590 0.330958 0.144267
0.408613 0.331002 0.144257
0.410947 0.334513 0.144246
0.413647 0.338358 0.144628
0.413671 0.338363 0.144640
0.413700 0.338371 0.144655
0.414500 0.339159 0.145448
0.415695 0.340345 0.145476
0.416892 0.341158 0.146666
0.422340 0.345461 0.151736
0.423928 0.347847 0.153731
0.423949 0.348652 0.154153
0.425121 0.349830 0.155335
0.426292 0.352167 0.159998
0.090994 0.126294 0.074917
0.112952 0.143151 0.082367
0.129020 0.154128 0.087468
0.136462 0.161168 0.097236
0.139997 0.162356 0.097253
0.143143 0.164717 0.098441
0.160389 0.180383 0.110177
0.169430 0.187838 0.114095
0.189405 0.199973 0.125046
0.197649 0.203120 0.129761
0.203541 0.205867 0.134079
0.214135 0.209017 0.136840
0.225873 0.211782 0.136496
0.240021 0.217272 0.141185
0.327259 0.266465 0.146631
0.406657 0.327481 0.147378
0.406668 0.327510 0.147369
0.408604 0.331005 0.144282
0.408620 0.331040 0.144275
0.408641 0.331083 0.144268
0.410960 0.334566 0.144263
0.413640 0.338384 0.144648
0.413656 0.338388 0.144657
0.413677 0.338394 0.144668
0.414477 0.339179 0.145459
0.414506 0.339199 0.145482
0.416485 0.341566 0.146673
0.420392 0.344311 0.150188
0.423927 0.347863 0.153738
0.423950 0.348669 0.154161
0.423965 0.348689 0.154187
0.426292 0.352177 0.159999
0.430185 0.358013 0.165069
0.100013 0.137656 0.086276
0.123150 0.152947 0.093319
0.136449 0.161162 0.097232
0.139993 0.162352 0.097249
0.143140 0.167453 0.102350
0.158026 0.180778 0.112151
0.166670 0.185106 0.114113
0.182345 0.197637 0.125067
0.190985 0.202737 0.131346
0.203914 0.207049 0.138013
0.211765 0.210976 0.141552
0.215722 0.215303 0.142362
0.230970 0.223517 0.150185
0.282081 0.249105 0.147443
0.397798 0.323285 0.147381
0.408613 0.331026 0.144292
0.408625 0.331055 0.144287
0.410562 0.336088 0.144668
0.412871 0.339558 0.144666
0.412873 0.339559 0.144668
0.412878 0.339561 0.144671
0.412887 0.341106 0.145447
0.412898 0.341119 0.145458
0.413688 0.341525 0.145084
0.413712 0.341553 0.146656
0.414909 0.341193 0.147068
0.418822 0.343549 0.149027
0.422753 0.349819 0.155686
0.423557 0.349067 0.154165
0.423578 0.349087 0.154192
0.426291 0.352187 0.160001
0.433300 0.362302 0.168962
0.440774 0.372132 0.178017
0.121167 0.153716 0.097237
0.130583 0.159988 0.101529
0.137641 0.163912 0.100765
0.144319 0.170202 0.105883
0.147476 0.173757 0.109048
0.166648 0.187063 0.116482
0.178422 0.195298 0.121569
0.187446 0.201965 0.130194
0.197250 0.209793 0.138811
0.209016 0.215676 0.146655
0.218435 0.221958 0.151765
0.225106 0.226655 0.155281
0.232161 0.228234 0.154515
0.382094 0.316593 0.148965
0.408244 0.332608 0.146225
0.409410 0.336101 0.146609
0.411725 0.339576 0.145065
0.412879 0.341114 0.145450
0.412882 0.341118 0.145455
0.412886 0.341124 0.145460
0.412892 0.341133 0.145468
0.413288 0.343074 0.147020
0.413304 0.343097 0.147034
0.413322 0.343122 0.147051
0.413341 0.343150 0.147068
0.415306 0.343953 0.148640
0.422344 0.351379 0.156064
0.422377 0.351396 0.156090
0.423178 0.350635 0.156112
0.425905 0.354518 0.160777
0.439540 0.371273 0.175596
0.443135 0.374894 0.179607
0.449037 0.381596 0.187864
0.125490 0.158034 0.101548
0.137641 0.167438 0.105859
0.144324 0.170213 0.105897
0.151777 0.178454 0.115703
0.160392 0.185904 0.123547
0.168625 0.191393 0.126684
0.186267 0.201974 0.133337
0.196839 0.209021 0.138826
0.200390 0.212943 0.141972
0.214512 0.223136 0.156466
0.217666 0.227061 0.158040
0.227858 0.232947 0.163531
0.308376 0.284368 0.163077
0.409412 0.336107 0.146622
0.410958 0.340743 0.147777
0.410959 0.340744 0.147776
0.411732 0.341133 0.147391
0.412889 0.341138 0.145470
0.413277 0.343068 0.147014
0.413285 0.343079 0.147022
0.413295 0.343094 0.147031
0.413307 0.343113 0.147043
0.413322 0.343134 0.147056
0.413338 0.343157 0.147071
0.413355 0.343181 0.147086
0.421156 0.351763 0.155662
0.422355 0.351391 0.156076
0.422383 0.351405 0.156098
0.429387 0.359952 0.165426
0.439571 0.371318 0.175635
0.445886 0.378434 0.183142
0.452558 0.385903 0.192168
0.456094 0.389834 0.196491
0.135681 0.167053 0.106269
0.140025 0.172175 0.110992
0.152564 0.181590 0.122363
0.160398 0.189037 0.131764
0.165098 0.189834 0.127096
0.178028 0.198452 0.135706
0.188624 0.207465 0.141183
0.200373 0.216079 0.146675
0.208629 0.221183 0.154126
0.217655 0.227068 0.158049
0.221595 0.231002 0.161981
0.252136 0.252146 0.168642
0.380209 0.324015 0.152467
0.410961 0.340754 0.147790
0.410962 0.340756 0.147790
0.411737 0.341145 0.147404
0.412125 0.342308 0.148178
0.413286 0.343086 0.147025
0.413293 0.343096 0.147031
0.413301 0.343109 0.147039
0.413311 0.343124 0.147049
0.413323 0.343142 0.147060
0.413336 0.343161 0.147072
0.413350 0.343182 0.147085
0.421140 0.351754 0.155651
0.421171 0.351770 0.155674
0.423140 0.354113 0.157637
0.427836 0.359190 0.162719
